; generated by Slic3r 0.9.9 on 2013-04-30 at 12:31:29

; M-PLA-05-03-1

; layer_height = 0.3
; perimeters = 2
; top_solid_layers = 3
; bottom_solid_layers = 2
; fill_density = 0.2
; perimeter_speed = 32
; infill_speed = 50
; travel_speed = 250
; nozzle_diameter = 0.5
; filament_diameter = 1.75
; extrusion_multiplier = 0.9
; perimeters extrusion width = 0.50mm
; infill extrusion width = 0.50mm
; solid infill extrusion width = 0.50mm
; top infill extrusion width = 0.50mm
; first layer extrusion width = 0.50mm

G21 ; set units to millimeters
M107
M190 S57 ; wait for bed temperature to be reached
M104 S200 ; set temperature
G28 X0 Y0
G28 Z0
G1 Z0.3 F200
G1 X15 Y20 F12000
M109 S200 ; wait for temperature to be reached
G90 ; use absolute coordinates
G92 E0
M82 ; use absolute distances for extrusion
G1 F2760.000 E-3.20000
G92 E0
G1 Z0.300 F15000.000
G1 X99.550 Y86.906
G1 F2760.000 E3.20000
G1 X101.310 Y85.146 F960.000 E3.33970
G1 X101.640 Y84.856 E3.36436
G1 X102.000 Y84.606 E3.38896
G1 X104.190 Y83.496 E3.52676
G1 X104.380 Y83.406 E3.53856
G1 X104.800 Y83.256 E3.56359
G1 X105.220 Y83.156 E3.58782
G1 X107.440 Y82.806 E3.71396
G1 X107.880 Y82.766 E3.73876
G1 X108.100 Y82.766 E3.75111
G1 X108.530 Y82.806 E3.77535
G1 X110.760 Y83.156 E3.90204
G1 X111.190 Y83.256 E3.92682
G1 X111.800 Y83.496 E3.96361
G1 X113.810 Y84.516 E4.09012
G1 X114.190 Y84.736 E4.11477
G1 X114.540 Y85.006 E4.13958
G1 X116.450 Y86.916 E4.29118
G1 X116.720 Y87.266 E4.31599
G1 X116.940 Y87.646 E4.34064
G1 X117.960 Y89.656 E4.46715
G1 X118.050 Y89.846 E4.47895
G1 X118.200 Y90.256 E4.50345
G1 X118.300 Y90.676 E4.52768
G1 X118.660 Y92.906 E4.65446
G1 X118.700 Y93.466 E4.68597
G1 X118.700 Y109.086 E5.56267
G1 X118.680 Y109.476 E5.58459
G1 X118.610 Y109.866 E5.60683
G1 X118.500 Y110.246 E5.62903
G1 X118.350 Y110.606 E5.65092
G1 X118.160 Y110.946 E5.67278
G1 X117.940 Y111.266 E5.69458
G1 X117.810 Y111.416 E5.70572
G1 X117.530 Y111.696 E5.72794
G1 X117.230 Y111.936 E5.74951
G1 X116.720 Y112.236 E5.78271
G1 X116.360 Y112.386 E5.80460
G1 X115.790 Y112.536 E5.83769
G1 X115.590 Y112.566 E5.84904
G1 X115.200 Y112.586 E5.87095
G1 X100.800 Y112.586 E6.67918
G1 X100.410 Y112.566 E6.70109
G1 X100.020 Y112.496 E6.72333
G1 X99.640 Y112.386 E6.74554
G1 X99.280 Y112.236 E6.76743
G1 X98.940 Y112.046 E6.78929
G1 X98.620 Y111.826 E6.81108
G1 X98.190 Y111.416 E6.84443
G1 X97.950 Y111.116 E6.86599
G1 X97.650 Y110.606 E6.89920
G1 X97.500 Y110.246 E6.92109
G1 X97.350 Y109.676 E6.95417
G1 X97.320 Y109.476 E6.96552
G1 X97.300 Y109.086 E6.98744
G1 X97.300 Y93.466 E7.86414
G1 X97.340 Y92.926 E7.89453
G1 X97.690 Y90.696 E8.02122
G1 X97.730 Y90.476 E8.03377
G1 X97.860 Y90.056 E8.05845
G1 X98.030 Y89.656 E8.08284
G1 X99.050 Y87.646 E8.20935
G1 X99.280 Y87.256 E8.23476
G1 X99.502 Y86.964 E8.25537
G1 F2760.000 E5.05537
G92 E0
G1 X102.789 Y89.680 F15000.000
G1 F2760.000 E3.20000
G1 X104.214 Y88.255 F960.000 E3.31310
G1 X106.010 Y87.340 E3.42620
G1 X108.000 Y87.025 E3.53930
G1 X109.990 Y87.340 E3.65240
G1 X111.786 Y88.255 E3.76550
G1 X113.211 Y89.680 E3.87860
G1 X114.125 Y91.475 E3.99170
G1 X114.450 Y93.525 E4.10815
G1 X114.450 Y108.337 E4.93949
G1 X111.250 Y108.337 E5.11909
G1 X111.250 Y97.194 E5.74448
G1 X112.297 Y95.947 E5.83589
G1 X112.886 Y94.327 E5.93260
G1 X112.886 Y92.604 E6.02932
G1 X112.297 Y90.985 E6.12603
G1 X111.189 Y89.665 E6.22274
G1 X109.697 Y88.803 E6.31946
G1 X108.000 Y88.504 E6.41617
G1 X106.303 Y88.803 E6.51288
G1 X104.811 Y89.665 E6.60960
G1 X103.703 Y90.985 E6.70631
G1 X103.114 Y92.604 E6.80302
G1 X103.114 Y94.327 E6.89974
G1 X103.703 Y95.947 E6.99645
G1 X104.750 Y97.194 E7.08786
G1 X104.750 Y108.337 E7.71325
G1 X101.550 Y108.337 E7.89285
G1 X101.550 Y93.525 E8.72419
G1 X101.875 Y91.475 E8.84064
G1 X102.755 Y89.747 E8.94953
G1 X102.380 Y89.382 F15000.000
G1 X103.917 Y87.846 F780.000 E9.07152
G1 X105.853 Y86.859 E9.19351
G1 X108.000 Y86.519 E9.31550
G1 X110.147 Y86.859 E9.43749
G1 X112.083 Y87.846 E9.55948
G1 X113.620 Y89.382 E9.68147
G1 X114.607 Y91.319 E9.80346
G1 X114.950 Y93.485 E9.92656
G1 X114.950 Y108.837 E10.78817
G1 X110.750 Y108.837 E11.02390
G1 X110.750 Y96.943 E11.69146
G1 X110.863 Y96.878 E11.69878
G1 X111.857 Y95.693 E11.78560
G1 X112.386 Y94.239 E11.87241
G1 X112.386 Y92.692 E11.95923
G1 X111.857 Y91.239 E12.04605
G1 X110.863 Y90.054 E12.13286
G1 X109.523 Y89.280 E12.21968
G1 X108.000 Y89.012 E12.30650
G1 X106.477 Y89.280 E12.39331
G1 X105.137 Y90.054 E12.48013
G1 X104.143 Y91.239 E12.56695
G1 X103.614 Y92.692 E12.65376
G1 X103.614 Y94.239 E12.74058
G1 X104.143 Y95.693 E12.82740
G1 X105.137 Y96.878 E12.91421
G1 X105.250 Y96.943 E12.92153
G1 X105.250 Y108.837 E13.58909
G1 X101.050 Y108.837 E13.82482
G1 X101.050 Y93.485 E14.68643
G1 X101.393 Y91.319 E14.80954
G1 X102.346 Y89.449 E14.92732
G1 X102.874 Y89.461 F15000.000
G1 F2760.000 E11.72732
G92 E0
G1 X110.337 Y88.754 F15000.000
G1 F2760.000 E3.20000
G1 X109.826 Y88.244 F1200.000 E3.24115
G1 X110.106 Y87.806 E3.27075
G1 X113.660 Y91.359 E3.55704
G1 X112.748 Y91.166 E3.61011
G1 X113.890 Y92.308 E3.70212
G1 X113.159 Y92.294 E3.74379
G1 X114.025 Y93.161 E3.81359
G1 X114.088 Y93.941 E3.85817
G1 X113.249 Y93.102 E3.92577
G1 X113.249 Y93.819 E3.96667
G1 X114.088 Y94.658 E4.03427
G1 X114.088 Y95.376 E4.07516
G1 X113.210 Y94.498 E4.14590
G1 X113.018 Y95.024 E4.17781
G1 X114.088 Y96.094 E4.26398
G1 X114.088 Y96.812 E4.30488
G1 X112.827 Y95.551 E4.40648
G1 X112.635 Y96.077 E4.43839
G1 X114.088 Y97.530 E4.55542
G1 X114.088 Y98.247 E4.59632
G1 X112.321 Y96.481 E4.73863
G1 X111.994 Y96.871 E4.76765
G1 X114.088 Y98.965 E4.93635
G1 X114.088 Y99.683 E4.97724
G1 X111.666 Y97.262 E5.17232
G1 X111.612 Y97.925 E5.21026
G1 X114.088 Y100.401 E5.40969
G1 X114.088 Y101.118 E5.45058
G1 X111.612 Y98.643 E5.65002
G1 X111.612 Y99.361 E5.69091
G1 X114.088 Y101.836 E5.89034
G1 X114.088 Y102.554 E5.93123
G1 X111.612 Y100.079 E6.13067
G1 X111.612 Y100.796 E6.17156
G1 X114.088 Y103.272 E6.37099
G1 X114.088 Y103.989 E6.41189
G1 X111.612 Y101.514 E6.61132
G1 X111.612 Y102.232 E6.65221
G1 X114.088 Y104.707 E6.85164
G1 X114.088 Y105.425 E6.89254
G1 X111.612 Y102.950 E7.09197
G1 X111.612 Y103.667 E7.13286
G1 X114.088 Y106.143 E7.33230
G1 X114.088 Y106.860 E7.37319
G1 X111.612 Y104.385 E7.57262
G1 X111.612 Y105.103 E7.61351
G1 X114.088 Y107.578 E7.81295
G1 X113.766 Y107.974 E7.84202
G1 X111.612 Y105.821 E8.01553
G1 X111.612 Y106.538 E8.05642
G1 X113.048 Y107.974 E8.17210
G1 X112.330 Y107.974 E8.21299
G1 X111.612 Y107.256 E8.27084
G1 X111.613 Y107.974 E8.31174
G1 F2760.000 E5.11174
G92 E0
G1 X112.914 Y89.896 F15000.000
G1 F2760.000 E3.20000
G1 X111.570 Y88.552 F1200.000 E3.30830
G1 F2760.000 E0.10830
G92 E0
G1 X105.927 Y87.789 F15000.000
G1 F2760.000 E3.20000
G1 X105.991 Y88.565 F1200.000 E3.24398
G1 X105.456 Y88.029 E3.28678
G1 X104.984 Y88.270 E3.31667
G1 X105.540 Y88.826 E3.36109
G1 X105.089 Y89.086 E3.39052
G1 X104.513 Y88.510 E3.43656
G1 X104.136 Y88.846 E3.46503
G1 X104.637 Y89.347 E3.50506
G1 X104.295 Y89.716 E3.53352
G1 X103.781 Y89.201 E3.57461
G1 X103.425 Y89.557 E3.60305
G1 X103.970 Y90.103 E3.64663
G1 X103.646 Y90.490 E3.67518
G1 X103.074 Y89.919 E3.72080
G1 X102.834 Y90.390 E3.75070
G1 X103.347 Y90.903 E3.79169
G1 X103.157 Y91.425 E3.82306
G1 X102.594 Y90.862 E3.86807
G1 X102.354 Y91.333 E3.89797
G1 X102.967 Y91.947 E3.94700
G1 X102.777 Y92.469 E3.97837
G1 X102.179 Y91.870 E4.02619
G1 X102.082 Y92.485 E4.06133
G1 X102.751 Y93.155 E4.11485
G1 X102.751 Y93.866 E4.15506
G1 X101.984 Y93.099 E4.21635
G1 X101.912 Y93.739 E4.25272
G1 X102.858 Y94.685 E4.32830
G1 X103.266 Y95.804 E4.39558
G1 X101.912 Y94.451 E4.50370
G1 X101.912 Y95.162 E4.54391
G1 X104.388 Y97.638 E4.74167
G1 X104.388 Y98.349 E4.78189
G1 X101.912 Y95.874 E4.97965
G1 X101.912 Y96.586 E5.01986
G1 X104.388 Y99.061 E5.21762
G1 X104.388 Y99.773 E5.25783
G1 X101.912 Y97.298 E5.45560
G1 X101.912 Y98.009 E5.49581
G1 X104.388 Y100.485 E5.69357
G1 X104.388 Y101.196 E5.73378
G1 X101.912 Y98.721 E5.93154
G1 X101.912 Y99.433 E5.97175
G1 X104.388 Y101.908 E6.16952
G1 X104.388 Y102.620 E6.20973
G1 X101.912 Y100.145 E6.40749
G1 X101.912 Y100.856 E6.44770
G1 X104.388 Y103.332 E6.64546
G1 X104.388 Y104.043 E6.68567
G1 X101.912 Y101.568 E6.88344
G1 X101.912 Y102.280 E6.92365
G1 X104.388 Y104.755 E7.12141
G1 X104.388 Y105.467 E7.16162
G1 X101.912 Y102.992 E7.35938
G1 X101.912 Y103.704 E7.39959
G1 X104.388 Y106.179 E7.59736
G1 X104.388 Y106.891 E7.63757
G1 X101.912 Y104.415 E7.83533
G1 X101.912 Y105.127 E7.87554
G1 X104.388 Y107.602 E8.07331
G1 X104.048 Y107.974 E8.10177
G1 X101.912 Y105.839 E8.27238
G1 X101.912 Y106.551 E8.31259
G1 X103.336 Y107.974 E8.42634
G1 X102.624 Y107.974 E8.46655
G1 X101.912 Y107.262 E8.52344
G1 X101.913 Y107.974 E8.56366
G1 F2760.000 E5.36366
G92 E0
G1 X106.149 Y88.196 F15000.000
G1 F2760.000 E3.20000
G1 X106.795 Y87.849 F600.000 E3.25787
G1 X106.993 Y88.047 E3.28001
G1 X107.653 Y87.713 E3.33831
G1 X107.838 Y87.898 E3.35899
G1 X108.703 Y87.769 E3.42794
G1 X108.975 Y88.042 E3.45833
G1 X109.947 Y88.020 E3.53500
M106 S255
G1 F2760.000 E0.33500
G92 E0
G1 Z0.600 F15000.000
G1 X109.990 Y87.340
G1 F2760.000 E3.20000
G1 X111.786 Y88.255 F1920.000 E3.31310
G1 X113.211 Y89.680 E3.42620
G1 X114.125 Y91.475 E3.53930
G1 X114.450 Y93.525 E3.65575
G1 X114.450 Y108.510 E4.49681
G1 X111.250 Y108.510 E4.67642
G1 X111.250 Y97.194 E5.31153
G1 X112.297 Y95.947 E5.40293
G1 X112.886 Y94.327 E5.49965
G1 X112.886 Y92.604 E5.59636
G1 X112.297 Y90.985 E5.69307
G1 X111.189 Y89.665 E5.78979
G1 X109.697 Y88.803 E5.88650
G1 X108.000 Y88.504 E5.98322
G1 X106.303 Y88.803 E6.07993
G1 X104.811 Y89.665 E6.17664
G1 X103.703 Y90.985 E6.27336
G1 X103.114 Y92.604 E6.37007
G1 X103.114 Y94.327 E6.46678
G1 X103.703 Y95.947 E6.56350
G1 X104.750 Y97.194 E6.65490
G1 X104.750 Y108.510 E7.29002
G1 X101.550 Y108.510 E7.46962
G1 X101.550 Y93.525 E8.31068
G1 X101.875 Y91.475 E8.42713
G1 X102.789 Y89.680 E8.54023
G1 X104.214 Y88.255 E8.65333
G1 X106.010 Y87.340 E8.76643
G1 X108.000 Y87.025 E8.87953
G1 X109.916 Y87.329 E8.98842
G1 X110.125 Y86.855 F15000.000
G1 X112.083 Y87.846 F1560.000 E9.11159
G1 X113.620 Y89.382 E9.23358
G1 X114.607 Y91.319 E9.35557
G1 X114.950 Y93.485 E9.47868
G1 X114.950 Y109.010 E10.35001
G1 X110.750 Y109.010 E10.58574
G1 X110.750 Y96.943 E11.26302
G1 X110.863 Y96.878 E11.27034
G1 X111.857 Y95.693 E11.35715
G1 X112.386 Y94.239 E11.44397
G1 X112.386 Y92.692 E11.53079
G1 X111.857 Y91.239 E11.61761
G1 X110.863 Y90.054 E11.70442
G1 X109.523 Y89.280 E11.79124
G1 X108.000 Y89.012 E11.87806
G1 X106.477 Y89.280 E11.96487
G1 X105.137 Y90.054 E12.05169
G1 X104.143 Y91.239 E12.13851
G1 X103.614 Y92.692 E12.22532
G1 X103.614 Y94.239 E12.31214
G1 X104.143 Y95.693 E12.39896
G1 X105.137 Y96.878 E12.48577
G1 X105.250 Y96.943 E12.49309
G1 X105.250 Y109.010 E13.17037
G1 X101.050 Y109.010 E13.40610
G1 X101.050 Y93.485 E14.27743
G1 X101.393 Y91.319 E14.40054
G1 X102.380 Y89.382 E14.52253
G1 X103.917 Y87.846 E14.64452
G1 X105.853 Y86.859 E14.76651
G1 X108.000 Y86.519 E14.88850
G1 X110.051 Y86.844 E15.00503
G1 X110.204 Y87.349 F15000.000
G1 F2760.000 E11.80503
G92 E0
G1 X105.694 Y88.737 F15000.000
G1 F2760.000 E3.20000
G1 X106.178 Y88.252 F2400.000 E3.23942
G1 X105.907 Y87.800 E3.26975
G1 X102.334 Y91.372 E3.56020
G1 X103.244 Y91.186 E3.61363
G1 X102.107 Y92.323 E3.70606
G1 X102.830 Y92.325 E3.74760
G1 X101.971 Y93.184 E3.81743
G1 X102.751 Y93.127 E3.86241
G1 X101.912 Y93.966 E3.93062
G1 X101.912 Y94.691 E3.97225
G1 X102.751 Y93.851 E4.04045
G1 X102.801 Y94.526 E4.07935
G1 X101.912 Y95.415 E4.15156
G1 X101.912 Y96.139 E4.19319
G1 X102.994 Y95.057 E4.28111
G1 X103.187 Y95.588 E4.31359
G1 X101.912 Y96.863 E4.41721
G1 X101.912 Y97.587 E4.45884
G1 X103.380 Y96.119 E4.57818
G1 X103.708 Y96.516 E4.60775
G1 X101.912 Y98.311 E4.75371
G1 X101.912 Y99.036 E4.79533
G1 X104.038 Y96.910 E4.96815
G1 X104.369 Y97.303 E4.99770
G1 X101.912 Y99.760 E5.19738
G1 X101.912 Y100.484 E5.23900
G1 X104.388 Y98.009 E5.44022
G1 X104.388 Y98.733 E5.48185
G1 X101.912 Y101.208 E5.68306
G1 X101.912 Y101.932 E5.72469
G1 X104.388 Y99.457 E5.92590
G1 X104.388 Y100.181 E5.96753
G1 X101.912 Y102.657 E6.16875
G1 X101.912 Y103.381 E6.21037
G1 X104.388 Y100.905 E6.41159
G1 X104.388 Y101.630 E6.45322
G1 X101.912 Y104.105 E6.65443
G1 X101.912 Y104.829 E6.69606
G1 X104.388 Y102.354 E6.89727
G1 X104.388 Y103.078 E6.93890
G1 X101.912 Y105.553 E7.14012
G1 X101.912 Y106.277 E7.18174
G1 X104.388 Y103.802 E7.38296
G1 X104.388 Y104.526 E7.42459
G1 X101.912 Y107.002 E7.62580
G1 X101.912 Y107.726 E7.66743
G1 X104.388 Y105.251 E7.86864
G1 X104.388 Y105.975 E7.91027
G1 X102.215 Y108.147 E8.08690
G1 X102.939 Y108.147 E8.12852
G1 X104.388 Y106.699 E8.24628
G1 X104.388 Y107.423 E8.28790
G1 X103.663 Y108.147 E8.34679
G1 X104.388 Y108.147 E8.38843
G1 F2760.000 E5.18843
G92 E0
G1 X103.086 Y89.896 F15000.000
G1 F2760.000 E3.20000
G1 X104.430 Y88.552 F2400.000 E3.30927
G1 F2760.000 E0.10927
G92 E0
G1 X110.073 Y87.789 F15000.000
G1 F2760.000 E3.20000
G1 X110.548 Y88.031 F2400.000 E3.23033
G1 X110.012 Y88.567 E3.27345
G1 X110.466 Y88.829 E3.30330
G1 X111.023 Y88.273 E3.34806
G1 X111.498 Y88.515 E3.37839
G1 X110.921 Y89.092 E3.42478
G1 X111.375 Y89.354 E3.45464
G1 X111.874 Y88.856 E3.49474
G1 X112.232 Y89.214 E3.52358
G1 X111.717 Y89.730 E3.56506
G1 X112.044 Y90.119 E3.59401
G1 X112.591 Y89.573 E3.63802
G1 X112.938 Y89.942 E3.66688
G1 X112.371 Y90.509 E3.71249
G1 X112.664 Y90.933 E3.74181
G1 X113.180 Y90.417 E3.78332
G1 X113.422 Y90.892 E3.81365
G1 X112.855 Y91.459 E3.85924
G1 X113.046 Y91.984 E3.89106
G1 X113.663 Y91.367 E3.94073
G1 X113.829 Y91.919 E3.97350
G1 X113.237 Y92.510 E4.02107
G1 X113.249 Y93.216 E4.06124
G1 X113.927 Y92.537 E4.11581
G1 X114.025 Y93.156 E4.15146
G1 X113.249 Y93.932 E4.21391
G1 X113.101 Y94.797 E4.26382
G1 X114.088 Y93.810 E4.34322
G1 X114.088 Y94.527 E4.38401
G1 X112.691 Y95.924 E4.49643
G1 X111.612 Y97.719 E4.61558
G1 X114.088 Y95.244 E4.81475
G1 X114.088 Y95.961 E4.85554
G1 X111.612 Y98.436 E5.05472
G1 X111.612 Y99.153 E5.09551
G1 X114.088 Y96.678 E5.29469
G1 X114.088 Y97.395 E5.33548
G1 X111.612 Y99.870 E5.53466
G1 X111.612 Y100.587 E5.57544
G1 X114.088 Y98.111 E5.77462
G1 X114.088 Y98.828 E5.81541
G1 X111.612 Y101.303 E6.01459
G1 X111.612 Y102.020 E6.05538
G1 X114.088 Y99.545 E6.25456
G1 X114.088 Y100.262 E6.29534
G1 X111.612 Y102.737 E6.49452
G1 X111.612 Y103.454 E6.53531
G1 X114.088 Y100.979 E6.73449
G1 X114.088 Y101.696 E6.77528
G1 X111.612 Y104.171 E6.97446
G1 X111.612 Y104.888 E7.01525
G1 X114.088 Y102.412 E7.21442
G1 X114.088 Y103.129 E7.25521
G1 X111.612 Y105.605 E7.45439
G1 X111.612 Y106.321 E7.49518
G1 X114.088 Y103.846 E7.69436
G1 X114.088 Y104.563 E7.73515
G1 X111.612 Y107.038 E7.93432
G1 X111.612 Y107.755 E7.97511
G1 X114.088 Y105.280 E8.17429
G1 X114.088 Y105.997 E8.21508
G1 X111.937 Y108.147 E8.38815
G1 X112.654 Y108.147 E8.42894
G1 X114.088 Y106.714 E8.54432
G1 X114.088 Y107.430 E8.58511
G1 X113.371 Y108.147 E8.64281
G1 X114.088 Y108.147 E8.68361
G1 F2760.000 E5.48361
G92 E0
G1 X109.852 Y88.196 F15000.000
G1 F2760.000 E3.20000
G1 X109.205 Y87.849 F1200.000 E3.25788
G1 X109.007 Y88.047 E3.28002
G1 X108.347 Y87.713 E3.33832
G1 X108.162 Y87.898 E3.35900
G1 X107.297 Y87.769 E3.42794
G1 X107.025 Y88.042 E3.45834
G1 X106.053 Y88.020 E3.53501
G1 F2760.000 E0.33501
G92 E0
G1 Z0.900 F15000.000
G1 X106.010 Y87.340
G1 F2760.000 E3.20000
G1 X108.000 Y87.025 F1920.000 E3.31310
G1 X109.990 Y87.340 E3.42620
G1 X111.786 Y88.255 E3.53930
G1 X113.211 Y89.680 E3.65240
G1 X114.125 Y91.475 E3.76550
G1 X114.450 Y93.525 E3.88195
G1 X114.450 Y108.683 E4.73273
G1 X111.250 Y108.683 E4.91233
G1 X111.250 Y97.194 E5.55717
G1 X112.297 Y95.947 E5.64858
G1 X112.886 Y94.327 E5.74529
G1 X112.886 Y92.604 E5.84200
G1 X112.297 Y90.985 E5.93872
G1 X111.189 Y89.665 E6.03543
G1 X109.697 Y88.803 E6.13214
G1 X108.000 Y88.504 E6.22886
G1 X106.303 Y88.803 E6.32557
G1 X104.811 Y89.665 E6.42228
G1 X103.703 Y90.985 E6.51900
G1 X103.114 Y92.604 E6.61571
G1 X103.114 Y94.327 E6.71242
G1 X103.703 Y95.947 E6.80914
G1 X104.750 Y97.194 E6.90054
G1 X104.750 Y108.683 E7.54538
G1 X101.550 Y108.683 E7.72498
G1 X101.550 Y93.525 E8.57576
G1 X101.875 Y91.475 E8.69222
