; generated by Slic3r 0.9.9 on 2013-05-01 at 13:18:38

; H-PLA-03-025-1

; layer_height = 0.25
; perimeters = 3
; top_solid_layers = 4
; bottom_solid_layers = 3
; fill_density = 0.2
; perimeter_speed = 20
; infill_speed = 32
; travel_speed = 250
; nozzle_diameter = 0.3
; filament_diameter = 1.75
; extrusion_multiplier = 0.9
; perimeters extrusion width = 0.32mm
; infill extrusion width = 0.32mm
; solid infill extrusion width = 0.32mm
; top infill extrusion width = 0.32mm
; first layer extrusion width = 0.50mm

G21 ; set units to millimeters
M107
M190 S57 ; wait for bed temperature to be reached
M104 S200 ; set temperature
G28 X0 Y0
G1 X80 Y80 F12000
G28 Z0
G1 Z0.25 F200
G1 X15 Y20 F12000
M109 S200 ; wait for temperature to be reached
G90 ; use absolute coordinates
G92 E0
M82 ; use absolute distances for extrusion
G1 F3000.000 E-2.40000
G92 E0
G1 Z0.300 F15000.000
G1 X97.410 Y84.856
G1 F3000.000 E2.40000
G1 X99.470 Y82.816 F600.000 E2.54875
G1 X100.000 Y82.396 E2.58345
G1 X100.560 Y82.026 E2.61789
G1 X102.850 Y80.856 E2.74983
G1 X103.460 Y80.586 E2.78406
G1 X104.110 Y80.376 E2.81911
G1 X104.430 Y80.296 E2.83603
G1 X106.980 Y79.886 E2.96855
G1 X107.650 Y79.816 E3.00311
G1 X107.990 Y79.806 E3.02056
G1 X108.320 Y79.816 E3.03750
G1 X108.990 Y79.886 E3.07207
G1 X111.550 Y80.296 E3.20509
G1 X112.210 Y80.476 E3.24019
G1 X112.840 Y80.716 E3.27478
G1 X113.140 Y80.856 E3.29177
G1 X115.410 Y82.016 E3.42256
G1 X116.140 Y82.496 E3.46739
G1 X116.370 Y82.676 E3.48238
G1 X116.800 Y83.066 E3.51216
G1 X118.390 Y84.656 E3.62753
G1 X118.590 Y84.866 E3.64241
G1 X118.960 Y85.316 E3.67230
G1 X119.290 Y85.796 E3.70219
G1 X119.580 Y86.306 E3.73229
G1 X120.600 Y88.316 E3.84794
G1 X120.870 Y88.926 E3.88217
G1 X120.980 Y89.236 E3.89905
G1 X121.150 Y89.876 E3.93302
G1 X121.570 Y92.436 E4.06613
G1 X121.660 Y93.466 E4.11918
G1 X121.660 Y109.086 E4.92062
G1 X121.640 Y109.616 E4.94783
G1 X121.610 Y109.886 E4.96177
G1 X121.520 Y110.416 E4.98935
G1 X121.310 Y111.186 E5.03030
G1 X121.220 Y111.436 E5.04394
G1 X121.000 Y111.926 E5.07149
G1 X120.750 Y112.396 E5.09881
G1 X120.460 Y112.836 E5.12585
G1 X120.130 Y113.256 E5.15325
G1 X119.770 Y113.656 E5.18086
G1 X119.170 Y114.186 E5.22194
G1 X118.510 Y114.636 E5.26293
G1 X118.040 Y114.886 E5.29024
G1 X117.550 Y115.106 E5.31780
G1 X116.790 Y115.346 E5.35869
G1 X116.260 Y115.456 E5.38646
G1 X115.730 Y115.526 E5.41389
G1 X115.200 Y115.546 E5.44111
G1 X100.800 Y115.546 E6.17995
G1 X100.270 Y115.526 E6.20716
G1 X99.470 Y115.406 E6.24867
G1 X98.960 Y115.276 E6.27567
G1 X98.450 Y115.106 E6.30326
G1 X97.730 Y114.766 E6.34411
G1 X97.270 Y114.496 E6.37148
G1 X96.830 Y114.186 E6.39909
G1 X96.230 Y113.656 E6.44017
G1 X95.700 Y113.056 E6.48124
G1 X95.250 Y112.396 E6.52223
G1 X95.000 Y111.926 E6.54954
G1 X94.780 Y111.436 E6.57710
G1 X94.540 Y110.676 E6.61800
G1 X94.430 Y110.146 E6.64577
G1 X94.360 Y109.616 E6.67320
G1 X94.340 Y109.086 E6.70041
G1 X94.340 Y93.466 E7.50185
G1 X94.420 Y92.466 E7.55332
G1 X94.770 Y90.236 E7.66914
G1 X94.830 Y89.906 E7.68635
G1 X95.010 Y89.246 E7.72145
G1 X95.250 Y88.616 E7.75604
G1 X95.390 Y88.316 E7.77303
G1 X96.550 Y86.046 E7.90383
G1 X96.860 Y85.546 E7.93401
G1 X97.365 Y84.908 E7.97577
G1 F3000.000 E5.57577
G92 E0
G1 X103.111 Y89.914 F15000.000
G1 F3000.000 E2.40000
G1 X104.448 Y88.577 F600.000 E2.49701
G1 X106.133 Y87.718 E2.59402
G1 X108.000 Y87.423 E2.69102
G1 X109.867 Y87.718 E2.78803
G1 X111.552 Y88.577 E2.88504
G1 X112.889 Y89.914 E2.98205
G1 X113.747 Y91.598 E3.07906
G1 X114.057 Y93.556 E3.18074
G1 X114.057 Y107.944 E3.91898
G1 X111.643 Y107.944 E4.04287
G1 X111.643 Y97.337 E4.58709
G1 X112.642 Y96.146 E4.66687
G1 X113.279 Y94.397 E4.76239
G1 X113.279 Y92.535 E4.85791
G1 X112.642 Y90.786 E4.95342
G1 X111.446 Y89.359 E5.04894
G1 X109.833 Y88.429 E5.14446
G1 X108.000 Y88.105 E5.23997
G1 X106.167 Y88.429 E5.33549
G1 X104.554 Y89.359 E5.43101
G1 X103.358 Y90.786 E5.52653
G1 X102.721 Y92.535 E5.62204
G1 X102.721 Y94.397 E5.71756
G1 X103.358 Y96.146 E5.81308
G1 X104.357 Y97.337 E5.89286
G1 X104.357 Y107.944 E6.43708
G1 X101.943 Y107.944 E6.56097
G1 X101.943 Y93.556 E7.29921
G1 X102.253 Y91.598 E7.40089
G1 X103.080 Y89.975 E7.49438
G1 X102.737 Y89.642 F15000.000
G1 X104.176 Y88.202 F600.000 E7.59882
G1 X105.990 Y87.278 E7.70326
G1 X108.000 Y86.960 E7.80769
G1 X110.010 Y87.278 E7.91213
G1 X111.824 Y88.202 E8.01657
G1 X113.263 Y89.642 E8.12100
G1 X114.187 Y91.455 E8.22544
G1 X114.514 Y93.520 E8.33268
G1 X114.514 Y108.401 E9.09622
G1 X111.186 Y108.401 E9.26701
G1 X111.186 Y97.171 E9.84322
G1 X112.240 Y95.914 E9.92741
G1 X112.822 Y94.316 E10.01465
G1 X112.822 Y92.616 E10.10190
G1 X112.240 Y91.018 E10.18915
G1 X111.147 Y89.715 E10.27639
G1 X109.675 Y88.865 E10.36364
G1 X108.000 Y88.570 E10.45089
G1 X106.325 Y88.865 E10.53813
G1 X104.853 Y89.715 E10.62538
G1 X103.760 Y91.018 E10.71262
G1 X103.178 Y92.616 E10.79987
G1 X103.178 Y94.316 E10.88712
G1 X103.760 Y95.914 E10.97436
G1 X104.814 Y97.171 E11.05855
G1 X104.814 Y108.401 E11.63476
G1 X101.486 Y108.401 E11.80555
G1 X101.486 Y93.520 E12.56909
G1 X101.813 Y91.455 E12.67633
G1 X102.706 Y89.703 E12.77725
G1 X102.362 Y89.370 F15000.000
G1 X103.904 Y87.828 F600.000 E12.88911
G1 X105.847 Y86.838 E13.00098
G1 X108.000 Y86.497 E13.11285
G1 X110.153 Y86.838 E13.22471
G1 X112.096 Y87.828 E13.33658
G1 X113.638 Y89.370 E13.44844
G1 X114.628 Y91.312 E13.56031
G1 X114.971 Y93.484 E13.67311
G1 X114.971 Y108.858 E14.46195
G1 X110.729 Y108.858 E14.67964
G1 X110.729 Y96.930 E15.29164
G1 X110.849 Y96.861 E15.29877
G1 X111.838 Y95.682 E15.37774
G1 X112.365 Y94.235 E15.45672
G1 X112.365 Y92.696 E15.53570
G1 X111.838 Y91.250 E15.61467
G1 X110.849 Y90.071 E15.69365
G1 X109.516 Y89.301 E15.77262
G1 X108.000 Y89.034 E15.85160
G1 X106.484 Y89.301 E15.93058
G1 X105.151 Y90.071 E16.00955
G1 X104.162 Y91.250 E16.08853
G1 X103.635 Y92.696 E16.16750
G1 X103.635 Y94.235 E16.24648
G1 X104.162 Y95.682 E16.32546
G1 X105.151 Y96.861 E16.40443
G1 X105.271 Y96.930 E16.41156
G1 X105.271 Y108.858 E17.02356
G1 X101.029 Y108.858 E17.24125
G1 X101.029 Y93.484 E18.03009
G1 X101.372 Y91.312 E18.14289
G1 X102.331 Y89.431 E18.25124
G1 X102.814 Y89.441 F15000.000
G1 F3000.000 E15.85124
G92 E0
G1 X113.726 Y95.082 F15000.000
G1 F3000.000 E2.40000
G1 X113.726 Y95.731 F960.000 E2.43346
G1 X113.301 Y95.306 E2.46447
G1 X113.127 Y95.782 E2.49058
G1 X113.726 Y96.380 E2.53421
G1 X113.726 Y97.030 E2.56766
G1 X112.954 Y96.258 E2.62392
G1 X112.672 Y96.625 E2.64779
G1 X113.726 Y97.679 E2.72457
G1 X113.726 Y98.328 E2.75802
G1 X112.376 Y96.978 E2.85639
G1 X112.080 Y97.331 E2.88014
G1 X113.726 Y98.977 E3.00009
G1 X113.726 Y99.626 E3.03354
G1 X111.974 Y97.874 E3.16123
G1 X111.974 Y98.524 E3.19468
G1 X113.726 Y100.276 E3.32237
G1 X113.726 Y100.925 E3.35582
G1 X111.974 Y99.173 E3.48350
G1 X111.974 Y99.822 E3.51696
G1 X113.726 Y101.574 E3.64464
G1 X113.726 Y102.223 E3.67809
G1 X111.974 Y100.471 E3.80578
G1 X111.974 Y101.120 E3.83923
G1 X113.726 Y102.872 E3.96692
G1 X113.726 Y103.522 E4.00037
G1 X111.974 Y101.770 E4.12805
G1 X111.974 Y102.419 E4.16151
G1 X113.726 Y104.171 E4.28919
G1 X113.726 Y104.820 E4.32264
G1 X111.974 Y103.068 E4.45033
G1 X111.974 Y103.717 E4.48378
G1 X113.726 Y105.469 E4.61147
G1 X113.726 Y106.118 E4.64492
G1 X111.974 Y104.366 E4.77260
G1 X111.974 Y105.016 E4.80606
G1 X113.726 Y106.768 E4.93374
G1 X113.726 Y107.417 E4.96719
G1 X111.974 Y105.665 E5.09488
G1 X111.974 Y106.314 E5.12833
G1 X113.273 Y107.613 E5.22297
G1 X112.623 Y107.613 E5.25642
G1 X111.974 Y106.963 E5.30375
G1 X111.974 Y107.613 E5.33721
G1 F3000.000 E2.93721
G92 E0
G1 X102.274 Y107.613 F15000.000
G1 F3000.000 E2.40000
G1 X102.274 Y106.933 F960.000 E2.43666
G1 X102.954 Y107.613 E2.48851
G1 X103.633 Y107.613 E2.52516
G1 X102.274 Y106.253 E2.62884
G1 X102.274 Y105.574 E2.66549
G1 X104.026 Y107.326 E2.79913
G1 X104.026 Y106.646 E2.83578
G1 X102.274 Y104.894 E2.96943
G1 X102.274 Y104.215 E3.00608
G1 X104.026 Y105.967 E3.13972
G1 X104.026 Y105.287 E3.17637
G1 X102.274 Y103.535 E3.31002
G1 X102.274 Y102.856 E3.34667
G1 X104.026 Y104.608 E3.48031
G1 X104.026 Y103.928 E3.51696
G1 X102.274 Y102.176 E3.65061
G1 X102.274 Y101.497 E3.68726
G1 X104.026 Y103.249 E3.82090
G1 X104.026 Y102.569 E3.85755
G1 X102.274 Y100.817 E3.99119
G1 X102.274 Y100.138 E4.02785
G1 X104.026 Y101.890 E4.16149
G1 X104.026 Y101.210 E4.19814
G1 X102.274 Y99.458 E4.33178
G1 X102.274 Y98.779 E4.36843
G1 X104.026 Y100.531 E4.50208
G1 X104.026 Y99.851 E4.53873
G1 X102.274 Y98.099 E4.67237
G1 X102.274 Y97.420 E4.70902
G1 X104.026 Y99.172 E4.84267
G1 X104.026 Y98.492 E4.87932
G1 X102.274 Y96.740 E5.01296
G1 X102.274 Y96.061 E5.04961
G1 X104.026 Y97.813 E5.18326
G1 X102.986 Y96.093 E5.29163
G1 X102.274 Y95.381 E5.34596
G1 X102.597 Y95.025 E5.37191
G1 X102.421 Y95.081 F15000.000
G1 X102.421 Y95.081 F600.000 E5.37192
G1 X102.271 Y94.223 F15000.000
G1 X102.393 Y93.962 F600.000 E5.38065
G1 X102.271 Y93.841 E5.38587
G1 X102.393 Y93.580 E5.39460
G1 X102.288 Y93.475 E5.39909
G1 X102.393 Y93.198 E5.40810
G1 X102.340 Y93.145 E5.41035
G1 X102.393 Y92.815 E5.42049
G1 X102.487 Y92.216 F15000.000
G1 X102.578 Y91.968 F600.000 E5.42760
G1 X102.534 Y91.923 E5.42929
G1 X102.668 Y91.719 E5.43587
G1 X102.596 Y91.647 E5.43861
G1 X102.759 Y91.471 E5.44507
G1 X102.711 Y91.423 E5.44690
G1 X102.849 Y91.222 E5.45345
G1 X102.825 Y91.198 E5.45437
G1 X102.940 Y90.974 E5.46115
G1 X103.200 Y90.462 F15000.000
G1 X103.351 Y90.283 F600.000 E5.46728
G1 X103.312 Y90.244 E5.46873
G1 X103.501 Y90.104 E5.47490
G1 X103.444 Y90.046 E5.47704
G1 X103.608 Y89.881 E5.48314
G1 X103.652 Y89.924 E5.48474
G1 X103.802 Y89.745 E5.49087
G1 X103.773 Y89.716 E5.49194
G1 X103.938 Y89.551 E5.49804
G1 X103.953 Y89.566 E5.49857
G1 X104.103 Y89.386 E5.50470
G1 X104.448 Y89.042 F15000.000
G1 X104.607 Y88.882 F600.000 E5.51042
G1 X104.650 Y88.925 E5.51195
G1 X104.807 Y88.763 E5.51767
G1 X104.852 Y88.808 E5.51931
G1 X105.018 Y88.655 E5.52503
G1 X105.055 Y88.691 E5.52634
G1 X105.230 Y88.547 E5.53209
G1 X105.257 Y88.574 E5.53307
G1 X105.441 Y88.439 E5.53886
G1 X105.460 Y88.458 E5.53952
G1 X105.653 Y88.332 E5.54536
G1 X105.864 Y88.224 E5.55138
G1 X106.091 Y88.109 F15000.000
G1 X106.322 Y88.021 F600.000 E5.55761
G1 X106.361 Y88.061 E5.55903
G1 X106.596 Y87.978 E5.56532
G1 X106.632 Y88.013 E5.56660
G1 X106.871 Y87.934 E5.57296
G1 X106.902 Y87.965 E5.57408
G1 X107.146 Y87.891 E5.58051
G1 X107.173 Y87.918 E5.58148
G1 X107.420 Y87.847 E5.58798
G1 X107.443 Y87.870 E5.58880
G1 X107.695 Y87.803 E5.59538
G1 X107.714 Y87.822 E5.59605
G1 X107.970 Y87.760 E5.60270
G1 X107.984 Y87.775 E5.60322
G1 X108.336 Y87.808 E5.61215
G1 X108.364 Y87.836 E5.61314
G1 X108.715 Y87.868 E5.62203
G1 X108.750 Y87.904 E5.62331
G1 X109.093 Y87.928 E5.63197
G1 X109.137 Y87.972 E5.63355
G1 X109.471 Y87.988 E5.64199
G1 X109.523 Y88.040 E5.64386
G1 X109.909 Y88.108 E5.65376
G1 X110.136 Y88.224 F15000.000
G1 X111.356 Y88.846 F600.000 E5.71886
G1 X111.552 Y89.042 E5.73204
G1 F3000.000 E3.33204
G92 E0
G1 X112.800 Y90.462 F15000.000
G1 F3000.000 E2.40000
G1 X112.799 Y90.461 F600.000 E2.40003
G1 F3000.000 E0.00003
G92 E0
G1 X113.513 Y92.216 F15000.000
G1 F3000.000 E2.40000
G1 X113.438 Y91.747 F600.000 E2.41491
G1 X113.286 Y91.595 E2.42165
G1 X113.060 Y90.974 E2.44239
G1 F3000.000 E0.04239
G92 E0
G1 X113.608 Y94.202 F15000.000
G1 F3000.000 E2.40000
G1 X113.729 Y93.977 F600.000 E2.40704
G1 X113.607 Y93.855 E2.41177
G1 X113.729 Y93.630 E2.41881
G1 X113.607 Y93.509 E2.42353
G1 X113.673 Y93.227 E2.43148
G1 X113.607 Y93.162 E2.43402
G1 X113.607 Y92.815 E2.44356
G1 F3000.000 E0.04356
G92 E0
G1 X113.541 Y95.075 F15000.000
G1 F3000.000 E2.40000
G1 X113.541 Y95.075 F600.000 E2.40001
G1 F3000.000 E0.00001
G92 E0
G1 Z0.550 F15000.000
G1 X112.916 Y94.332
G1 F3000.000 E2.40000
G1 X112.916 Y92.599 F1200.000 E2.45056
G1 X112.323 Y90.970 E2.50112
G1 X111.208 Y89.642 E2.55168
G1 X109.707 Y88.775 E2.60223
G1 X108.000 Y88.474 E2.65279
G1 X106.293 Y88.775 E2.70335
G1 X104.792 Y89.642 E2.75391
G1 X103.677 Y90.970 E2.80447
G1 X103.084 Y92.599 E2.85503
G1 X103.084 Y94.332 E2.90559
G1 X103.677 Y95.961 E2.95615
G1 X104.721 Y97.205 E3.00348
G1 X104.721 Y108.466 E3.33192
G1 X101.579 Y108.466 E3.42353
G1 X101.579 Y93.527 E3.85922
G1 X101.903 Y91.485 E3.91953
G1 X102.814 Y89.698 E3.97803
G1 X104.232 Y88.279 E4.03653
G1 X106.019 Y87.369 E4.09503
G1 X108.000 Y87.055 E4.15353
G1 X109.981 Y87.369 E4.21202
G1 X111.768 Y88.279 E4.27052
G1 X113.186 Y89.698 E4.32902
G1 X114.097 Y91.485 E4.38752
G1 X114.421 Y93.527 E4.44783
G1 X114.421 Y108.466 E4.88352
G1 X111.279 Y108.466 E4.97513
G1 X111.279 Y97.205 E5.30357
G1 X112.323 Y95.961 E5.35091
G1 X112.900 Y94.376 E5.40010
G1 X112.604 Y94.278 F15000.000
G1 X112.604 Y92.654 F1200.000 E5.44745
G1 X112.049 Y91.128 E5.49480
G1 X111.005 Y89.885 E5.54216
G1 X109.599 Y89.073 E5.58951
G1 X108.000 Y88.791 E5.63686
G1 X106.401 Y89.073 E5.68421
G1 X104.995 Y89.885 E5.73156
G1 X103.951 Y91.128 E5.77892
G1 X103.396 Y92.654 E5.82627
G1 X103.396 Y94.278 E5.87362
G1 X103.951 Y95.803 E5.92097
G1 X105.032 Y97.091 E5.97001
G1 X105.032 Y108.778 E6.31085
G1 X101.268 Y108.778 E6.42065
G1 X101.268 Y93.503 E6.86615
G1 X101.603 Y91.387 E6.92862
G1 X102.558 Y89.512 E6.99000
G1 X104.046 Y88.024 E7.05138
G1 X105.921 Y87.068 E7.11275
G1 X108.000 Y86.739 E7.17413
G1 X110.079 Y87.068 E7.23551
G1 X111.954 Y88.024 E7.29689
G1 X113.442 Y89.512 E7.35827
G1 X114.397 Y91.387 E7.41965
G1 X114.732 Y93.503 E7.48211
G1 X114.732 Y108.778 E7.92762
G1 X110.968 Y108.778 E8.03742
G1 X110.968 Y97.091 E8.37825
G1 X112.049 Y95.803 E8.42730
G1 X112.588 Y94.321 E8.47328
G1 X112.292 Y94.223 F15000.000
G1 X112.292 Y92.709 F1200.000 E8.51743
G1 X111.774 Y91.287 E8.56157
G1 X110.801 Y90.127 E8.60572
G1 X109.491 Y89.370 E8.64986
G1 X108.000 Y89.107 E8.69401
G1 X106.509 Y89.370 E8.73815
G1 X105.199 Y90.127 E8.78230
G1 X104.226 Y91.287 E8.82644
G1 X103.708 Y92.709 E8.87059
G1 X103.708 Y94.223 E8.91473
G1 X104.226 Y95.645 E8.95888
G1 X105.199 Y96.804 E9.00303
G1 X105.344 Y96.888 E9.00793
G1 X105.344 Y109.089 E9.36377
G1 X100.956 Y109.089 E9.49176
G1 X100.956 Y93.478 E9.94707
G1 X101.302 Y91.290 E10.01169
G1 X102.303 Y89.326 E10.07595
G1 X103.861 Y87.768 E10.14021
G1 X105.824 Y86.768 E10.20447
G1 X108.000 Y86.424 E10.26873
G1 X110.176 Y86.768 E10.33299
G1 X112.139 Y87.768 E10.39725
G1 X113.697 Y89.326 E10.46151
G1 X114.697 Y91.290 E10.52577
G1 X115.044 Y93.478 E10.59039
G1 X115.044 Y109.089 E11.04570
G1 X110.656 Y109.089 E11.17368
G1 X110.656 Y96.888 E11.52953
G1 X110.801 Y96.804 E11.53443
G1 X111.774 Y95.645 E11.57858
G1 X112.276 Y94.266 E11.62136
G1 X112.578 Y94.099 F15000.000
G1 F3000.000 E9.22136
G92 E0
G1 X104.752 Y89.404 F15000.000
G1 F3000.000 E2.40000
G1 X106.660 Y87.496 F1920.000 E2.47886
G1 X107.185 Y87.413 E2.49440
G1 X105.798 Y88.800 E2.55174
G1 X106.537 Y88.503 E2.57503
G1 X107.710 Y87.330 E2.62353
G1 X108.171 Y87.311 E2.63700
G1 X107.073 Y88.408 E2.68236
G1 X107.610 Y88.314 E2.69828
G1 X108.552 Y87.371 E2.73724
G1 X108.934 Y87.432 E2.74853
G1 X108.102 Y88.263 E2.78289
G1 X108.478 Y88.329 E2.79404
G1 X109.315 Y87.492 E2.82864
G1 X109.697 Y87.552 E2.83993
G1 X108.854 Y88.395 E2.87477
G1 X109.229 Y88.462 E2.88592
G1 X110.039 Y87.652 E2.91939
G1 X110.332 Y87.801 E2.92899
G1 X109.605 Y88.528 E2.95903
G1 X109.931 Y88.644 E2.96915
G1 X110.625 Y87.950 E2.99781
G1 X110.917 Y88.099 E3.00741
G1 X110.211 Y88.805 E3.03660
G1 X110.491 Y88.967 E3.04605
G1 X111.210 Y88.248 E3.07576
G1 X111.503 Y88.398 E3.08536
G1 X110.771 Y89.129 E3.11558
G1 X111.051 Y89.291 E3.12504
G1 X111.756 Y88.586 E3.15414
G1 X111.977 Y88.807 E3.16327
G1 X111.332 Y89.452 E3.18993
G1 X111.540 Y89.686 E3.19908
G1 X112.198 Y89.028 E3.22625
G1 X112.418 Y89.249 E3.23538
G1 X111.742 Y89.926 E3.26336
G1 X111.943 Y90.166 E3.27252
G1 X112.639 Y89.470 E3.30130
G1 X112.860 Y89.691 E3.31043
G1 X112.145 Y90.406 E3.34000
G1 X112.346 Y90.647 E3.34917
G1 X113.055 Y89.938 E3.37847
G1 X113.204 Y90.230 E3.38807
G1 X112.537 Y90.898 E3.41566
G1 X112.655 Y91.222 E3.42573
G1 X113.354 Y90.523 E3.45462
G1 X113.503 Y90.816 E3.46422
G1 X112.773 Y91.546 E3.49439
G1 X112.891 Y91.870 E3.50446
G1 X113.652 Y91.109 E3.53593
G1 X113.801 Y91.401 E3.54553
