; generated by Slic3r 0.9.8-dev on 2012-12-18 at 16:25:13

; layer_height = 0.3
; perimeters = 2
; top_solid_layers = 3
; bottom_solid_layers = 2
; fill_density = 0.2
; perimeter_speed = 32
; infill_speed = 50
; travel_speed = 250
; scale = 1
; nozzle_diameter = 0.5
; filament_diameter = 1.75
; extrusion_multiplier = 0.9
; perimeters extrusion width = 0.50mm
; infill extrusion width = 0.50mm
; first layer extrusion width = 0.50mm

M107
M190 S57 ; wait for bed temperature to be reached
M104 S200 ; set temperature
G28 X0 Y0
G1 X75 Y75 F12000
G28 Z0
G1 Z0.3 F200
G1 X15 Y20 F12000
M109 S200 ; wait for temperature to be reached
G90 ; use absolute coordinates
G21 ; set units to millimeters
M83 ; use relative distances for extrusion
G1 F2760.000 E-3.20000
G1 Z0.300 F15000.000
G1 X22.747 Y26.189
G1 X23.221 Y25.822 F2760.000 E3.20000
G1 X23.367 Y25.709 F960.000 E0.01033
G1 X23.587 Y25.569 E0.01464
G1 X24.047 Y25.309 E0.02966
G1 X24.527 Y25.089 E0.02964
G1 X25.017 Y24.909 E0.02930
G1 X25.527 Y24.769 E0.02968
G1 X26.047 Y24.669 E0.02972
G1 X26.567 Y24.609 E0.02938
G1 X118.727 Y18.389 E5.18438
G1 X141.497 Y18.379 E1.27800
G1 X142.067 Y18.399 E0.03201
G1 X142.907 Y18.529 E0.04771
G1 X143.457 Y18.679 E0.03200
G1 X144.247 Y18.989 E0.04763
G1 X144.747 Y19.249 E0.03163
G1 X174.487 Y36.429 E1.92770
G1 X175.197 Y36.899 E0.04779
G1 X175.837 Y37.459 E0.04773
G1 X176.397 Y38.099 E0.04773
G1 X176.867 Y38.809 E0.04779
G1 X188.237 Y58.489 E1.27566
G1 X188.527 Y59.049 E0.03540
G1 X188.757 Y59.629 E0.03502
G1 X188.847 Y59.929 E0.01758
G1 X188.997 Y60.539 E0.03526
G1 X201.737 Y128.459 E3.87859
G1 X201.807 Y128.939 E0.02723
G1 X201.847 Y129.419 E0.02703
G1 X201.847 Y151.989 E1.26677
G1 X201.827 Y152.559 E0.03201
G1 X201.747 Y153.119 E0.03175
G1 X201.627 Y153.669 E0.03160
G1 X201.457 Y154.209 E0.03177
G1 X201.237 Y154.739 E0.03221
G1 X200.977 Y155.239 E0.03163
G1 X183.797 Y184.989 E1.92818
G1 X183.327 Y185.699 E0.04779
G1 X183.147 Y185.919 E0.01595
G1 X182.767 Y186.339 E0.03179
G1 X182.347 Y186.719 E0.03179
G1 X182.127 Y186.899 E0.01595
G1 X181.417 Y187.369 E0.04779
G1 X161.497 Y198.859 E1.29070
G1 X161.247 Y198.989 E0.01582
G1 X160.727 Y199.199 E0.03148
G1 X159.927 Y199.439 E0.04688
G1 X159.387 Y199.539 E0.03082
G1 X158.547 Y199.599 E0.04727
G1 X35.487 Y195.529 E6.91070
G1 X34.627 Y195.409 E0.04874
G1 X34.067 Y195.259 E0.03254
G1 X33.787 Y195.169 E0.01651
G1 X33.257 Y194.949 E0.03221
G1 X32.737 Y194.679 E0.03289
G1 X22.547 Y188.799 E0.66032
G1 X22.087 Y188.509 E0.03052
G1 X21.647 Y188.179 E0.03087
G1 X21.057 Y187.619 E0.04566
G1 X20.697 Y187.199 E0.03105
G1 X20.227 Y186.529 E0.04593
G1 X19.967 Y186.049 E0.03064
G1 X19.747 Y185.549 E0.03066
G1 X19.567 Y185.029 E0.03088
G1 X16.457 Y172.789 E0.70882
G1 X16.327 Y172.159 E0.03610
G1 X16.287 Y171.839 E0.01810
G1 X16.257 Y171.199 E0.03596
G1 X16.167 Y127.389 E2.45891
G1 X20.527 Y30.539 E5.44135
G1 X20.647 Y29.759 E0.04429
G1 X20.777 Y29.249 E0.02954
G1 X20.947 Y28.749 E0.02964
G1 X21.157 Y28.269 E0.02941
G1 X21.537 Y27.579 E0.04421
G1 X21.687 Y27.359 E0.01494
G1 X22.177 Y26.749 E0.04392
G1 X22.691 Y26.239 E0.04064
G1 X22.747 Y26.189 E0.00421
G1 F2760.000 E-3.20000
G1 X35.729 Y48.337 F15000.000
G1 X36.153 Y48.762 F2760.000 E3.20000
G1 X43.289 Y55.897 F780.000 E0.56634
G1 X39.566 Y59.619 E0.29546
G1 X31.954 Y52.007 E0.60423
G1 X35.358 Y48.602 E0.27020
G1 X35.729 Y48.337
G1 X35.729 Y49.044 F15000.000
G1 X42.581 Y55.897 F780.000 E0.54389
G1 X39.566 Y58.912 E0.23933
G1 X32.661 Y52.007 E0.54810
G1 X35.623 Y49.044 E0.23512
G1 X35.729 Y49.044 E0.00595
G1 X35.358 Y48.602 F2760.000 E-3.20000
G1 X60.291 Y55.844 F15000.000
G1 X60.715 Y55.419 F2760.000 E3.20000
G1 X67.850 Y48.284 F780.000 E0.56634
G1 X71.572 Y52.007 E0.29546
G1 X63.960 Y59.619 E0.60423
G1 X60.556 Y56.215 E0.27020
G1 X60.291 Y55.844
G1 X60.998 Y55.844 F15000.000
G1 X67.850 Y48.991 F780.000 E0.54389
G1 X70.865 Y52.007 E0.23933
G1 X63.960 Y58.912 E0.54810
G1 X60.998 Y55.950 E0.23512
G1 X60.998 Y55.844 E0.00595
G1 X60.556 Y56.215 F2760.000 E-3.20000
G1 X64.013 Y76.619 F15000.000
G1 X64.437 Y77.043 F2760.000 E3.20000
G1 X71.572 Y84.181 F780.000 E0.56644
G1 X67.850 Y87.903 E0.29545
G1 X60.238 Y80.291 E0.60421
G1 X63.642 Y76.884 E0.27029
G1 X64.013 Y76.619
G1 X64.013 Y77.326 F15000.000
G1 X70.865 Y84.181 F780.000 E0.54398
G1 X67.850 Y87.196 E0.23933
G1 X60.945 Y80.291 E0.54809
G1 X63.907 Y77.326 E0.23521
G1 X64.013 Y77.326 E0.00595
G1 X62.837 Y76.427 F15000.000
G1 X61.053 Y78.410 F960.000 E0.14975
G1 X58.703 Y80.117 E0.16298
G1 X56.053 Y81.296 E0.16280
G1 X53.215 Y81.900 E0.16287
G1 X50.312 Y81.900 E0.16292
G1 X47.474 Y81.296 E0.16287
G1 X44.821 Y80.117 E0.16292
G1 X42.474 Y78.410 E0.16290
G1 X40.532 Y76.253 E0.16287
G1 X39.080 Y73.739 E0.16295
G1 X38.185 Y70.980 E0.16281
G1 X37.880 Y68.093 E0.16297
G1 X38.185 Y65.207 E0.16286
G1 X39.080 Y62.448 E0.16281
G1 X40.532 Y59.934 E0.16295
G1 X42.474 Y57.777 E0.16287
G1 X44.821 Y56.070 E0.16290
G1 X47.474 Y54.892 E0.16292
G1 X50.312 Y54.287 E0.16287
G1 X53.215 Y54.287 E0.16292
G1 X56.053 Y54.892 E0.16287
G1 X58.703 Y56.070 E0.16281
G1 X61.053 Y57.777 E0.16298
G1 X62.994 Y59.934 E0.16288
G1 X64.446 Y62.448 E0.16295
G1 X65.341 Y65.207 E0.16283
G1 X65.644 Y68.093 E0.16282
G1 X65.341 Y70.980 E0.16294
G1 X64.446 Y73.739 E0.16283
G1 X63.140 Y76.001 E0.14660
G1 X62.837 Y76.427
G1 X62.466 Y76.092 F15000.000
G1 X60.716 Y78.037 F780.000 E0.14680
G1 X58.452 Y79.681 E0.15707
G1 X55.897 Y80.817 E0.15691
G1 X53.162 Y81.400 E0.15698
G1 X50.364 Y81.400 E0.15701
G1 X47.629 Y80.817 E0.15698
G1 X45.072 Y79.681 E0.15702
G1 X42.810 Y78.037 E0.15699
G1 X40.939 Y75.958 E0.15698
G1 X39.539 Y73.535 E0.15704
G1 X38.677 Y70.875 E0.15692
G1 X38.383 Y68.093 E0.15707
G1 X38.677 Y65.312 E0.15695
G1 X39.539 Y62.652 E0.15691
G1 X40.939 Y60.230 E0.15704
G1 X42.810 Y58.151 E0.15698
G1 X45.072 Y56.506 E0.15699
G1 X47.629 Y55.370 E0.15702
G1 X50.364 Y54.787 E0.15698
G1 X53.162 Y54.787 E0.15701
G1 X55.897 Y55.370 E0.15698
G1 X58.452 Y56.506 E0.15691
G1 X60.716 Y58.151 E0.15707
G1 X62.587 Y60.230 E0.15698
G1 X63.987 Y62.652 E0.15704
G1 X64.849 Y65.312 E0.15692
G1 X65.142 Y68.093 E0.15693
G1 X64.849 Y70.875 E0.15705
G1 X63.987 Y73.535 E0.15692
G1 X62.566 Y75.981 E0.15877
G1 X62.466 Y76.092 E0.00842
G1 X63.140 Y76.001 F2760.000 E-3.20000
G1 X43.235 Y80.344 F15000.000
G1 X42.811 Y80.768 F2760.000 E3.20000
G1 X35.676 Y87.903 F780.000 E0.56632
G1 X31.954 Y84.181 E0.29545
G1 X39.566 Y76.566 E0.60433
G1 X42.970 Y79.973 E0.27029
G1 X43.235 Y80.344
G1 X42.528 Y80.344 F15000.000
G1 X35.676 Y87.196 F780.000 E0.54388
G1 X32.661 Y84.181 E0.23933
G1 X39.566 Y77.273 E0.54819
G1 X42.528 Y80.238 E0.23521
G1 X42.528 Y80.344 E0.00595
G1 X42.970 Y79.973 F2760.000 E-3.20000
G1 X27.512 Y104.518 F15000.000
G1 X27.512 Y103.918 F2760.000 E3.20000
G1 X27.512 Y31.595 F960.000 E4.05924
G1 X77.762 Y31.595 E2.82036
G1 X77.762 Y60.697 E1.63342
G1 X80.428 Y59.957 E0.15530
G1 X82.209 Y59.860 E0.10010
G1 X83.968 Y60.149 E0.10005
G1 X85.625 Y60.809 E0.10009
G1 X87.102 Y61.810 E0.10012
G1 X88.328 Y63.103 E0.10002
G1 X89.247 Y64.631 E0.10010
G1 X89.815 Y66.321 E0.10005
G1 X90.014 Y68.134 E0.10235
G1 X90.014 Y104.593 E2.04632
G1 X83.764 Y104.593 E0.35079
G1 X83.764 Y72.507 E1.80082
G1 X84.862 Y71.978 E0.06840
G1 X86.242 Y70.250 E0.12410
G1 X86.731 Y68.092 E0.12419
G1 X86.241 Y65.937 E0.12407
G1 X84.862 Y64.209 E0.12410
G1 X82.870 Y63.249 E0.12413
G1 X80.657 Y63.249 E0.12419
G1 X78.665 Y64.209 E0.12413
G1 X77.285 Y65.937 E0.12407
G1 X76.793 Y68.092 E0.12412
G1 X77.285 Y70.250 E0.12421
G1 X77.762 Y70.849 E0.04297
G1 X77.762 Y104.593 E1.89391
G1 X27.962 Y104.593 E2.79510
G1 X27.512 Y104.518
G1 X27.012 Y105.018 F15000.000
G1 X27.012 Y31.095 F780.000 E4.14904
G1 X78.262 Y31.095 E2.87648
G1 X78.262 Y60.039 E1.62457
G1 X80.347 Y59.461 E0.12143
G1 X82.237 Y59.358 E0.10622
G1 X84.103 Y59.665 E0.10616
G1 X85.860 Y60.365 E0.10618
G1 X87.427 Y61.426 E0.10623
G1 X88.728 Y62.799 E0.10613
G1 X89.704 Y64.420 E0.10621
G1 X90.307 Y66.213 E0.10614
G1 X90.514 Y68.106 E0.10692
G1 X90.514 Y105.093 E2.07591
G1 X83.264 Y105.093 E0.40692
G1 X83.264 Y72.194 E1.84651
G1 X84.542 Y71.577 E0.07963
G1 X85.779 Y70.028 E0.11128
G1 X86.219 Y68.093 E0.11138
G1 X85.779 Y66.159 E0.11127
G1 X84.542 Y64.610 E0.11128
G1 X82.755 Y63.749 E0.11133
G1 X80.771 Y63.749 E0.11137
G1 X78.984 Y64.610 E0.11133
G1 X77.747 Y66.159 E0.11127
G1 X77.306 Y68.093 E0.11130
G1 X77.747 Y70.028 E0.11141
G1 X78.262 Y70.674 E0.04638
G1 X78.262 Y105.093 E1.93179
G1 X27.087 Y105.093 E2.87227
G1 X27.012 Y105.018 E0.00595
G1 X28.171 Y104.252 F15000.000
G1 X27.853 Y103.933 F1200.000 E0.02534
G1 X27.853 Y103.224 E0.03990
G1 X28.880 Y104.252 E0.08178
G1 X29.590 Y104.252 E0.03991
G1 X27.853 Y102.515 E0.13821
G1 X27.853 Y101.806 E0.03990
G1 X30.299 Y104.252 E0.19465
G1 X31.008 Y104.252 E0.03990
G1 X27.853 Y101.097 E0.25109
G1 X27.853 Y100.388 E0.03990
G1 X31.717 Y104.252 E0.30752
G1 X32.426 Y104.252 E0.03991
G1 X27.853 Y99.679 E0.36396
G1 X27.853 Y98.970 E0.03990
G1 X33.135 Y104.252 E0.42040
G1 X33.844 Y104.252 E0.03990
G1 X27.853 Y98.261 E0.47683
G1 X27.853 Y97.552 E0.03990
G1 X34.553 Y104.252 E0.53326
G1 X35.262 Y104.252 E0.03991
G1 X27.853 Y96.843 E0.58970
G1 X27.853 Y96.134 E0.03990
G1 X35.971 Y104.252 E0.64614
G1 X36.680 Y104.252 E0.03990
G1 X27.853 Y95.425 E0.70257
G1 X27.853 Y94.716 E0.03990
G1 X37.389 Y104.252 E0.75900
G1 X38.098 Y104.252 E0.03991
G1 X27.853 Y94.007 E0.81544
G1 X27.853 Y93.298 E0.03990
G1 X38.807 Y104.252 E0.87188
G1 X39.516 Y104.252 E0.03991
G1 X27.853 Y92.589 E0.92832
G1 X27.853 Y91.880 E0.03990
G1 X40.225 Y104.252 E0.98475
G1 X40.934 Y104.252 E0.03991
G1 X27.853 Y91.170 E1.04119
G1 X27.853 Y90.461 E0.03990
G1 X41.643 Y104.252 E1.09763
G1 X42.352 Y104.252 E0.03991
G1 X27.853 Y89.752 E1.15406
G1 X27.853 Y89.043 E0.03990
G1 X43.061 Y104.252 E1.21049
G1 X43.771 Y104.252 E0.03991
G1 X27.853 Y88.334 E1.26693
G1 X27.853 Y87.625 E0.03991
G1 X44.480 Y104.252 E1.32337
G1 X45.189 Y104.252 E0.03990
G1 X27.853 Y86.916 E1.37981
G1 X27.853 Y86.207 E0.03991
G1 X45.898 Y104.252 E1.43624
G1 X46.607 Y104.252 E0.03991
G1 X27.853 Y85.498 E1.49267
G1 X27.853 Y84.789 E0.03991
G1 X47.316 Y104.252 E1.54911
G1 X48.025 Y104.252 E0.03990
G1 X27.853 Y84.080 E1.60555
G1 X27.853 Y83.371 E0.03991
G1 X48.734 Y104.252 E1.66198
G1 X49.443 Y104.252 E0.03991
G1 X27.853 Y82.662 E1.71842
G1 X27.853 Y81.953 E0.03991
G1 X50.152 Y104.252 E1.77485
G1 X50.861 Y104.252 E0.03990
G1 X27.853 Y81.244 E1.83129
G1 X27.853 Y80.535 E0.03991
G1 X31.532 Y84.214 E0.29284
G1 X31.887 Y83.859 E0.02822
G1 X27.853 Y79.826 E0.32105
G1 X27.853 Y79.117 E0.03991
G1 X32.241 Y83.505 E0.34926
G1 X32.595 Y83.150 E0.02821
G1 X27.853 Y78.408 E0.37748
G1 X27.853 Y77.698 E0.03991
G1 X32.950 Y82.795 E0.40569
G1 X33.304 Y82.441 E0.02822
G1 X27.853 Y76.989 E0.43390
G1 X27.853 Y76.280 E0.03991
G1 X33.659 Y82.086 E0.46212
G1 X34.013 Y81.732 E0.02821
G1 X27.853 Y75.571 E0.49033
G1 X27.853 Y74.862 E0.03991
G1 X34.368 Y81.377 E0.51854
G1 X34.722 Y81.023 E0.02822
G1 X27.853 Y74.153 E0.54675
G1 X27.853 Y73.444 E0.03991
G1 X35.077 Y80.668 E0.57497
G1 X35.431 Y80.313 E0.02822
G1 X27.853 Y72.735 E0.60319
G1 X27.853 Y72.026 E0.03990
G1 X35.786 Y79.959 E0.63140
G1 X36.140 Y79.604 E0.02822
G1 X27.853 Y71.317 E0.65961
G1 X27.853 Y70.608 E0.03990
G1 X36.495 Y79.250 E0.68783
G1 X36.849 Y78.895 E0.02822
G1 X27.853 Y69.899 E0.71604
G1 X27.853 Y69.190 E0.03990
G1 X37.204 Y78.541 E0.74425
G1 X37.558 Y78.186 E0.02822
G1 X27.853 Y68.481 E0.77247
G1 X27.853 Y67.772 E0.03990
G1 X37.913 Y77.831 E0.80068
G1 X38.267 Y77.477 E0.02822
G1 X27.853 Y67.063 E0.82889
G1 X27.853 Y66.354 E0.03990
G1 X38.622 Y77.122 E0.85711
G1 X38.976 Y76.768 E0.02822
G1 X27.853 Y65.645 E0.88532
G1 X27.853 Y64.935 E0.03990
G1 X39.330 Y76.413 E0.91353
G1 X39.685 Y76.058 E0.02822
G1 X27.853 Y64.226 E0.94174
G1 X27.853 Y63.517 E0.03990
G1 X39.247 Y74.912 E0.90692
G1 X38.604 Y73.559 E0.08431
G1 X27.853 Y62.808 E0.85568
G1 X27.853 Y62.099 E0.03990
G1 X38.263 Y72.510 E0.82859
G1 X37.923 Y71.460 E0.06209
G1 X27.853 Y61.390 E0.80150
G1 X27.853 Y60.681 E0.03990
G1 X37.786 Y70.614 E0.79062
G1 X37.702 Y69.821 E0.04488
G1 X27.853 Y59.972 E0.78394
G1 X27.853 Y59.263 E0.03990
G1 X37.618 Y69.029 E0.77727
G1 X37.538 Y68.239 E0.04469
G1 X27.853 Y58.554 E0.77084
G1 X27.853 Y57.845 E0.03990
G1 X37.605 Y67.598 E0.77624
G1 X37.673 Y66.956 E0.03629
G1 X27.853 Y57.136 E0.78164
G1 X27.853 Y56.427 E0.03991
G1 X37.741 Y66.315 E0.78704
G1 X37.809 Y65.674 E0.03629
G1 X27.853 Y55.718 E0.79244
G1 X27.853 Y55.009 E0.03991
G1 X37.915 Y65.070 E0.80085
G1 X38.088 Y64.535 E0.03167
G1 X27.853 Y54.300 E0.81467
G1 X27.853 Y53.591 E0.03991
G1 X38.262 Y64.000 E0.82850
G1 X38.436 Y63.464 E0.03168
G1 X27.853 Y52.882 E0.84231
G1 X27.853 Y52.172 E0.03991
G1 X38.609 Y62.929 E0.85613
G1 X38.784 Y62.395 E0.03162
G1 X27.853 Y51.463 E0.87007
G1 X27.853 Y50.754 E0.03991
G1 X39.044 Y61.945 E0.89074
G1 X39.304 Y61.496 E0.02921
G1 X27.853 Y50.045 E0.91140
G1 X27.853 Y49.336 E0.03991
G1 X39.563 Y61.047 E0.93206
G1 X39.823 Y60.597 E0.02921
G1 X27.853 Y48.627 E0.95274
G1 X27.853 Y47.918 E0.03991
G1 X31.753 Y51.818 E0.31043
G1 X32.108 Y51.464 E0.02822
G1 X27.853 Y47.209 E0.33865
G1 X27.853 Y46.500 E0.03991
G1 X32.462 Y51.109 E0.36687
G1 X32.817 Y50.755 E0.02821
G1 X27.853 Y45.791 E0.39509
G1 X27.853 Y45.082 E0.03991
G1 X33.171 Y50.400 E0.42331
G1 X33.526 Y50.046 E0.02822
G1 X27.853 Y44.373 E0.45152
G1 X27.853 Y43.664 E0.03991
G1 X33.880 Y49.691 E0.47974
G1 X34.235 Y49.337 E0.02821
G1 X27.853 Y42.955 E0.50796
G1 X27.853 Y42.246 E0.03991
G1 X34.589 Y48.982 E0.53618
G1 X34.944 Y48.628 E0.02822
G1 X27.853 Y41.537 E0.56440
G1 X27.853 Y40.828 E0.03990
G1 X35.298 Y48.273 E0.59261
G1 X35.653 Y47.919 E0.02822
G1 X27.853 Y40.119 E0.62083
G1 X27.853 Y39.410 E0.03990
G1 X44.444 Y56.001 E1.32057
G1 X44.880 Y55.727 E0.02894
G1 X27.853 Y38.700 E1.35521
G1 X27.853 Y37.991 E0.03990
G1 X45.370 Y55.509 E1.39428
G1 X45.861 Y55.291 E0.03024
G1 X27.853 Y37.282 E1.43335
G1 X27.853 Y36.573 E0.03990
G1 X46.352 Y55.073 E1.47242
G1 X46.843 Y54.855 E0.03024
G1 X27.853 Y35.864 E1.51150
G1 X27.853 Y35.155 E0.03990
G1 X47.334 Y54.636 E1.55056
G1 X47.891 Y54.484 E0.03250
G1 X27.853 Y34.446 E1.59491
G1 X27.853 Y33.737 E0.03990
G1 X48.476 Y54.360 E1.64144
G1 X49.060 Y54.236 E0.03364
G1 X27.853 Y33.028 E1.68797
G1 X27.853 Y32.319 E0.03990
G1 X49.645 Y54.111 E1.73449
G1 X50.230 Y53.987 E0.03364
G1 X28.178 Y31.935 E1.75513
G1 X28.887 Y31.935 E0.03990
G1 X50.898 Y53.946 E1.75193
G1 X51.607 Y53.946 E0.03991
G1 X29.596 Y31.935 E1.75193
G1 X30.306 Y31.935 E0.03991
G1 X52.316 Y53.946 E1.75192
G1 X53.026 Y53.946 E0.03991
G1 X31.015 Y31.935 E1.75193
G1 X31.724 Y31.935 E0.03990
G1 X53.818 Y54.030 E1.75857
G1 X54.719 Y54.222 E0.05184
G1 X32.433 Y31.935 E1.77384
G1 X33.142 Y31.935 E0.03991
G1 X55.620 Y54.413 E1.78910
G1 X56.585 Y54.669 E0.05619
G1 X33.851 Y31.935 E1.80948
G1 X34.560 Y31.935 E0.03991
G1 X57.862 Y55.237 E1.85469
G1 X59.165 Y55.832 E0.08063
G1 X35.269 Y31.935 E1.90200
G1 X35.978 Y31.935 E0.03991
G1 X59.894 Y55.852 E1.90357
G1 X60.249 Y55.497 E0.02822
G1 X36.687 Y31.935 E1.87535
G1 X37.396 Y31.935 E0.03991
G1 X60.603 Y55.142 E1.84714
G1 X60.958 Y54.788 E0.02821
G1 X38.105 Y31.935 E1.81892
G1 X38.814 Y31.935 E0.03991
G1 X61.312 Y54.433 E1.79070
G1 X61.667 Y54.079 E0.02822
G1 X39.523 Y31.935 E1.76248
G1 X40.232 Y31.935 E0.03990
G1 X62.021 Y53.724 E1.73426
G1 X62.376 Y53.370 E0.02821
G1 X40.941 Y31.935 E1.70604
G1 X41.650 Y31.935 E0.03991
G1 X62.730 Y53.015 E1.67783
G1 X63.085 Y52.661 E0.02822
G1 X42.359 Y31.935 E1.64961
G1 X43.068 Y31.935 E0.03990
G1 X63.439 Y52.306 E1.62139
G1 X63.794 Y51.952 E0.02821
G1 X43.777 Y31.935 E1.59317
G1 X44.487 Y31.935 E0.03991
G1 X64.148 Y51.597 E1.56495
G1 X64.503 Y51.243 E0.02822
G1 X45.196 Y31.935 E1.53673
G1 X45.905 Y31.935 E0.03990
G1 X64.858 Y50.888 E1.50852
G1 X65.212 Y50.534 E0.02821
G1 X46.614 Y31.935 E1.48030
G1 X47.323 Y31.935 E0.03991
G1 X65.567 Y50.179 E1.45208
G1 X65.921 Y49.825 E0.02822
G1 X48.032 Y31.935 E1.42386
G1 X48.741 Y31.935 E0.03990
G1 X66.276 Y49.470 E1.39565
G1 X66.630 Y49.116 E0.02822
G1 X49.450 Y31.935 E1.36743
G1 X50.159 Y31.935 E0.03990
G1 X66.985 Y48.761 E1.33921
