; generated by Slic3r 1.0.0RC2 on 2014-01-11 at 12:18:10

; layer_height = 0.24
; perimeters = 2
; top_solid_layers = 3
; bottom_solid_layers = 3
; fill_density = 0.4
; perimeter_speed = 30
; infill_speed = 40
; travel_speed = 60
; nozzle_diameter = 0.5
; filament_diameter = 1.75
; extrusion_multiplier = 1
; perimeters extrusion width = 0.50mm
; infill extrusion width = 0.87mm
; solid infill extrusion width = 0.85mm
; top infill extrusion width = 0.85mm
; first layer extrusion width = 0.48mm

G21 ; set units to millimeters
M107
G21 ; set units to millimeters
M107
G10 P0 X0 Y0 Z0 S205.0 R160.0
G10 P1 X-34.2 Y3.8 Z0 S205.0 R160.0
G10 P2 X-12.4 Y49.0 Z0 S205.0 R160.0
G90 ; use absolute coordinates
M83 ; use relative distances for extrusion
G1 Z5 F200 ; lift nozzle
G28 X0 Y0
G1 X100 Y100 F2000
G28 Z0 F200
G1 Z5
G90 ; use absolute coordinates
M83 ; use relative distances for extrusion
T0
G1 F1800.000 E-2.00000
G1 Z0.240 F3600.000
G1 X32.336 Y69.890 F3600.000
G1 E2.00000 F1800.000
G1 X33.546 Y69.510 E0.06129 F540.000
G1 X34.806 Y69.390 E0.06116
G1 X67.346 Y69.260 E1.57244
G1 X157.376 Y69.260 E4.35051
G1 X157.996 Y69.290 E0.03000
G1 X159.566 Y69.440 E0.07621
G1 X160.236 Y69.540 E0.03273
G1 X160.896 Y69.710 E0.03293
G1 X162.356 Y70.170 E0.07397
G1 X162.926 Y70.380 E0.02935
G1 X163.476 Y70.640 E0.02940
G1 X164.796 Y71.350 E0.07243
G1 X165.346 Y71.680 E0.03099
G1 X165.856 Y72.060 E0.03073
G1 X167.006 Y73.010 E0.07208
G1 X167.466 Y73.430 E0.03010
G1 X167.896 Y73.900 E0.03078
G1 X168.846 Y75.060 E0.07245
G1 X169.206 Y75.550 E0.02938
G1 X169.516 Y76.060 E0.02884
G1 X170.236 Y77.380 E0.07266
G1 X170.516 Y77.970 E0.03156
G1 X170.746 Y78.580 E0.03150
G1 X171.196 Y80.040 E0.07383
G1 X171.346 Y80.660 E0.03082
G1 X171.446 Y81.290 E0.03082
G1 X171.606 Y82.860 E0.07626
G1 X171.636 Y83.520 E0.03193
G1 X171.636 Y143.520 E2.89937
G1 X171.606 Y144.180 E0.03193
G1 X171.446 Y145.740 E0.07578
G1 X171.346 Y146.370 E0.03082
G1 X171.196 Y146.990 E0.03082
G1 X170.746 Y148.450 E0.07383
G1 X170.526 Y149.050 E0.03088
G1 X170.246 Y149.630 E0.03112
G1 X169.526 Y150.960 E0.07308
G1 X168.946 Y151.850 E0.05133
G1 X157.786 Y166.210 E0.87883
G1 X157.126 Y166.930 E0.04720
G1 X156.346 Y167.670 E0.05196
G1 X155.706 Y168.210 E0.04046
G1 X155.006 Y168.650 E0.03995
G1 X153.986 Y169.210 E0.05623
G1 X153.406 Y169.500 E0.03134
G1 X152.796 Y169.720 E0.03134
G1 X151.516 Y170.120 E0.06480
G1 X150.586 Y170.340 E0.04618
G1 X149.046 Y170.580 E0.07532
G1 X148.336 Y170.650 E0.03448
G1 X146.546 Y170.730 E0.08658
G1 X48.606 Y170.730 E4.73274
G1 X46.766 Y170.470 E0.08980
G1 X45.076 Y169.690 E0.08994
G1 X31.306 Y160.750 E0.79334
G1 X30.296 Y159.940 E0.06256
G1 X29.476 Y158.960 E0.06175
G1 X28.856 Y157.820 E0.06271
G1 X28.476 Y156.590 E0.06221
G1 X28.356 Y155.310 E0.06212
G1 X28.356 Y75.870 E3.83877
G1 X28.476 Y74.610 E0.06116
G1 X28.846 Y73.390 E0.06161
G1 X29.436 Y72.280 E0.06074
G1 X30.246 Y71.290 E0.06181
G1 X31.216 Y70.490 E0.06076
G1 X32.272 Y69.925 E0.05789
G1 F1800.000 E-2.00000
G1 X129.125 Y145.532 F3600.000
G1 E2.00000 F1800.000
G1 X132.673 Y145.532 E0.17142 F540.000
G1 X134.146 Y145.733 E0.07188
G1 X135.374 Y146.407 E0.06769
G1 X136.158 Y147.542 E0.06667
G1 X136.404 Y148.978 E0.07039
G1 X136.158 Y150.413 E0.07033
G1 X135.372 Y151.536 E0.06626
G1 X134.146 Y152.210 E0.06759
G1 X132.673 Y152.411 E0.07188
G1 X129.125 Y152.411 E0.17142
G1 X129.125 Y145.605 E0.32888
G1 X129.610 Y146.016 F3600.000
G1 X132.640 Y146.016 E0.14643 F540.000
G1 X133.992 Y146.201 E0.06595
G1 X135.041 Y146.777 E0.05782
G1 X135.699 Y147.730 E0.05598
G1 X135.913 Y148.978 E0.06120
G1 X135.699 Y150.224 E0.06108
G1 X135.040 Y151.166 E0.05557
G1 X133.992 Y151.742 E0.05778
G1 X132.640 Y151.926 E0.06595
G1 X129.610 Y151.926 E0.14643
G1 X129.610 Y146.089 E0.28208
G1 X129.610 Y145.532 F3600.000
G1 X129.125 Y143.348 F3600.000
G1 X133.135 Y143.348 E0.19377 F540.000
G1 X134.811 Y143.446 E0.08114
G1 X136.230 Y143.732 E0.06992
G1 X137.416 Y144.194 E0.06152
G1 X137.882 Y144.499 E0.02692
G1 X137.882 Y153.434 E0.43175
G1 X137.414 Y153.743 E0.02710
G1 X136.229 Y154.208 E0.06155
G1 X134.811 Y154.496 E0.06990
G1 X133.135 Y154.594 E0.08111
G1 X125.561 Y154.594 E0.36602
G1 X125.561 Y136.603 E0.86938
G1 X129.125 Y136.603 E0.17224
G1 X129.125 Y143.275 E0.32240
G1 X129.610 Y142.864 F3600.000
G1 X133.149 Y142.864 E0.17106 F378.000
G1 X134.874 Y142.965 E0.08346
G1 X136.367 Y143.265 E0.07360
G1 X137.639 Y143.761 E0.06599
G1 X138.367 Y144.237 E0.04201
G1 X138.367 Y153.695 E0.45700
G1 X137.638 Y154.175 E0.04215
G1 X136.366 Y154.675 E0.06604
G1 X134.874 Y154.977 E0.07360
G1 X133.149 Y155.079 E0.08345
G1 X125.077 Y155.079 E0.39011
G1 X125.077 Y136.119 E0.91618
G1 X129.610 Y136.119 E0.21905
G1 X129.610 Y142.791 E0.32240
G1 X129.610 Y143.348 F3600.000
G1 F1800.000 E-2.00000
G1 X129.125 Y122.411 F3600.000
G1 E2.00000 F1800.000
G1 X129.125 Y115.532 E0.33239 F540.000
G1 X132.673 Y115.532 E0.17142
G1 X134.146 Y115.733 E0.07188
G1 X135.374 Y116.407 E0.06769
G1 X136.158 Y117.542 E0.06667
G1 X136.404 Y118.978 E0.07039
G1 X136.158 Y120.413 E0.07033
G1 X135.372 Y121.536 E0.06626
G1 X134.146 Y122.210 E0.06759
G1 X132.673 Y122.411 E0.07188
G1 X129.198 Y122.411 E0.16791
G1 X129.610 Y121.926 F3600.000
G1 X129.610 Y116.016 E0.28559 F540.000
G1 X132.640 Y116.016 E0.14643
G1 X133.992 Y116.201 E0.06595
G1 X135.041 Y116.777 E0.05782
G1 X135.699 Y117.730 E0.05598
G1 X135.913 Y118.978 E0.06120
G1 X135.699 Y120.224 E0.06108
G1 X135.040 Y121.166 E0.05557
G1 X133.992 Y121.742 E0.05778
G1 X132.640 Y121.926 E0.06595
G1 X129.682 Y121.926 E0.14292
G1 X129.125 Y121.926 F3600.000
G1 X125.561 Y124.595 F3600.000
G1 X125.561 Y106.603 E0.86940 F540.000
G1 X129.125 Y106.603 E0.17224
G1 X129.125 Y113.348 E0.32591
G1 X133.135 Y113.348 E0.19377
G1 X134.811 Y113.446 E0.08114
G1 X136.230 Y113.732 E0.06992
G1 X137.416 Y114.194 E0.06152
G1 X137.882 Y114.499 E0.02692
G1 X137.882 Y123.434 E0.43175
G1 X137.414 Y123.743 E0.02710
G1 X136.229 Y124.209 E0.06155
G1 X134.811 Y124.496 E0.06991
G1 X133.135 Y124.595 E0.08111
G1 X125.633 Y124.595 E0.36250
G1 X125.077 Y125.079 F3600.000
G1 X125.077 Y106.119 E0.91620 F378.000
G1 X129.610 Y106.119 E0.21905
G1 X129.610 Y112.864 E0.32591
G1 X133.149 Y112.864 E0.17106
G1 X134.874 Y112.965 E0.08346
G1 X136.367 Y113.265 E0.07360
G1 X137.639 Y113.761 E0.06599
G1 X138.367 Y114.237 E0.04201
G1 X138.367 Y123.695 E0.45700
G1 X137.638 Y124.175 E0.04215
G1 X136.366 Y124.675 E0.06605
G1 X134.873 Y124.977 E0.07360
G1 X133.149 Y125.079 E0.08346
G1 X125.149 Y125.079 E0.38660
G1 X125.319 Y124.660 F3600.000
G1 F1800.000 E-2.00000
G1 X129.125 Y92.411 F3600.000
G1 E2.00000 F1800.000
G1 X129.125 Y85.532 E0.33239 F540.000
G1 X132.673 Y85.532 E0.17142
G1 X134.146 Y85.733 E0.07188
G1 X135.374 Y86.407 E0.06768
G1 X136.158 Y87.542 E0.06667
G1 X136.404 Y88.978 E0.07039
G1 X136.158 Y90.413 E0.07033
G1 X135.372 Y91.536 E0.06626
G1 X134.146 Y92.210 E0.06759
G1 X132.673 Y92.411 E0.07188
G1 X129.198 Y92.411 E0.16791
G1 X129.610 Y91.926 F3600.000
G1 X129.610 Y86.016 E0.28559 F540.000
G1 X132.640 Y86.016 E0.14643
G1 X133.992 Y86.201 E0.06595
G1 X135.041 Y86.777 E0.05782
G1 X135.699 Y87.730 E0.05598
G1 X135.913 Y88.978 E0.06120
G1 X135.699 Y90.224 E0.06108
G1 X135.040 Y91.166 E0.05557
G1 X133.992 Y91.742 E0.05778
G1 X132.640 Y91.926 E0.06595
G1 X129.682 Y91.926 E0.14292
G1 X129.125 Y91.926 F3600.000
G1 X125.561 Y94.595 F3600.000
G1 X125.561 Y76.603 E0.86940 F540.000
G1 X129.125 Y76.603 E0.17224
G1 X129.125 Y83.348 E0.32591
G1 X133.135 Y83.348 E0.19377
G1 X134.811 Y83.446 E0.08114
G1 X136.230 Y83.732 E0.06992
G1 X137.416 Y84.194 E0.06152
G1 X137.882 Y84.499 E0.02692
G1 X137.882 Y93.434 E0.43175
G1 X137.414 Y93.743 E0.02710
G1 X136.229 Y94.209 E0.06155
G1 X134.811 Y94.496 E0.06990
G1 X133.135 Y94.595 E0.08111
G1 X125.633 Y94.595 E0.36250
G1 X125.077 Y95.079 F3600.000
G1 X125.077 Y76.119 E0.91620 F378.000
G1 X129.610 Y76.119 E0.21905
G1 X129.610 Y82.864 E0.32591
G1 X133.149 Y82.864 E0.17106
G1 X134.874 Y82.965 E0.08346
G1 X136.367 Y83.265 E0.07360
G1 X137.639 Y83.761 E0.06599
G1 X138.367 Y84.237 E0.04201
G1 X138.367 Y93.695 E0.45700
G1 X137.638 Y94.175 E0.04215
G1 X136.366 Y94.675 E0.06605
G1 X134.873 Y94.977 E0.07360
G1 X133.149 Y95.079 E0.08346
G1 X125.149 Y95.079 E0.38660
G1 X125.319 Y94.660 F3600.000
G1 F1800.000 E-2.00000
G1 X91.405 Y88.978 F3600.000
G1 E2.00000 F1800.000
G1 X91.158 Y90.412 E0.07033 F540.000
G1 X90.373 Y91.536 E0.06625
G1 X89.146 Y92.210 E0.06761
G1 X87.672 Y92.411 E0.07188
G1 X84.125 Y92.411 E0.17139
G1 X84.125 Y85.532 E0.33239
G1 X87.672 Y85.532 E0.17139
G1 X89.146 Y85.733 E0.07188
G1 X90.375 Y86.407 E0.06771
G1 X91.158 Y87.543 E0.06666
G1 X91.392 Y88.907 E0.06688
G1 X90.913 Y88.978 F3600.000
G1 X90.699 Y90.224 E0.06108 F540.000
G1 X90.040 Y91.166 E0.05556
G1 X88.992 Y91.742 E0.05781
G1 X87.639 Y91.926 E0.06596
G1 X84.610 Y91.926 E0.14640
G1 X84.610 Y86.016 E0.28559
G1 X87.639 Y86.016 E0.14640
G1 X88.992 Y86.201 E0.06596
G1 X90.041 Y86.777 E0.05784
G1 X90.699 Y87.730 E0.05596
G1 X90.901 Y88.906 E0.05769
G1 X91.318 Y89.244 F3600.000
G1 X92.882 Y93.434 F3600.000
G1 X92.414 Y93.743 E0.02711 F540.000
G1 X91.229 Y94.209 E0.06153
G1 X89.811 Y94.496 E0.06993
G1 X88.136 Y94.595 E0.08108
G1 X80.561 Y94.595 E0.36604
G1 X80.561 Y76.603 E0.86940
G1 X84.125 Y76.603 E0.17226
G1 X84.125 Y83.348 E0.32591
G1 X88.136 Y83.348 E0.19378
G1 X89.811 Y83.446 E0.08110
G1 X91.230 Y83.732 E0.06995
G1 X92.416 Y84.194 E0.06150
G1 X92.882 Y84.499 E0.02692
G1 X92.882 Y93.361 E0.42824
G1 X93.366 Y93.695 F3600.000
G1 X92.638 Y94.175 E0.04216 F378.000
G1 X91.367 Y94.675 E0.06602
G1 X89.873 Y94.977 E0.07363
G1 X88.150 Y95.079 E0.08342
G1 X80.076 Y95.079 E0.39013
G1 X80.076 Y76.119 E0.91620
G1 X84.610 Y76.119 E0.21906
G1 X84.610 Y82.864 E0.32591
G1 X88.150 Y82.864 E0.17107
G1 X89.873 Y82.965 E0.08343
G1 X91.367 Y83.265 E0.07362
G1 X92.639 Y83.761 E0.06597
G1 X93.366 Y84.237 E0.04201
G1 X93.366 Y93.622 E0.45350
G1 X92.887 Y93.629 F3600.000
G1 F1800.000 E-2.00000
G1 X89.146 Y115.733 F3600.000
G1 E2.00000 F1800.000
G1 X90.375 Y116.407 E0.06771 F540.000
G1 X91.158 Y117.543 E0.06666
G1 X91.405 Y118.978 E0.07039
G1 X91.158 Y120.413 E0.07033
G1 X90.373 Y121.536 E0.06625
G1 X89.146 Y122.210 E0.06761
G1 X87.672 Y122.411 E0.07188
G1 X84.125 Y122.411 E0.17139
G1 X84.125 Y115.532 E0.33239
G1 X87.672 Y115.532 E0.17139
G1 X89.074 Y115.723 E0.06837
G1 X88.992 Y116.201 F3600.000
G1 X90.041 Y116.777 E0.05784 F540.000
G1 X90.699 Y117.730 E0.05596
G1 X90.913 Y118.978 E0.06120
G1 X90.699 Y120.224 E0.06108
G1 X90.040 Y121.166 E0.05556
G1 X88.992 Y121.742 E0.05781
G1 X87.639 Y121.926 E0.06596
G1 X84.610 Y121.926 E0.14640
G1 X84.610 Y116.016 E0.28559
G1 X87.639 Y116.016 E0.14640
G1 X88.920 Y116.191 E0.06245
G1 X89.372 Y115.901 F3600.000
G1 X89.811 Y113.446 F3600.000
G1 X91.230 Y113.732 E0.06995 F540.000
G1 X92.416 Y114.194 E0.06150
G1 X92.882 Y114.499 E0.02692
G1 X92.882 Y123.434 E0.43175
G1 X92.414 Y123.743 E0.02711
G1 X91.229 Y124.209 E0.06153
G1 X89.811 Y124.496 E0.06993
G1 X88.136 Y124.595 E0.08108
G1 X80.561 Y124.595 E0.36604
G1 X80.561 Y106.603 E0.86940
G1 X84.125 Y106.603 E0.17226
G1 X84.125 Y113.348 E0.32591
G1 X88.136 Y113.348 E0.19378
G1 X89.739 Y113.442 E0.07759
G1 X89.873 Y112.965 F3600.000
G1 X91.367 Y113.265 E0.07362 F378.000
G1 X92.639 Y113.761 E0.06597
G1 X93.366 Y114.237 E0.04201
G1 X93.366 Y123.695 E0.45701
G1 X92.638 Y124.175 E0.04216
G1 X91.367 Y124.675 E0.06602
G1 X89.873 Y124.977 E0.07363
G1 X88.150 Y125.079 E0.08342
G1 X80.076 Y125.079 E0.39013
G1 X80.076 Y106.119 E0.91620
G1 X84.610 Y106.119 E0.21906
G1 X84.610 Y112.864 E0.32591
G1 X88.150 Y112.864 E0.17107
G1 X89.801 Y112.961 E0.07992
G1 X90.049 Y113.416 F3600.000
G1 F1800.000 E-2.00000
G1 X87.672 Y145.532 F3600.000
G1 E2.00000 F1800.000
G1 X89.146 Y145.733 E0.07188 F540.000
G1 X90.375 Y146.407 E0.06771
G1 X91.158 Y147.542 E0.06666
G1 X91.405 Y148.978 E0.07039
G1 X91.158 Y150.413 E0.07033
G1 X90.373 Y151.536 E0.06625
G1 X89.146 Y152.210 E0.06761
G1 X87.672 Y152.411 E0.07188
G1 X84.125 Y152.411 E0.17139
G1 X84.125 Y145.532 E0.33239
G1 X87.600 Y145.532 E0.16788
G1 X87.639 Y146.016 F3600.000
G1 X88.992 Y146.201 E0.06596 F540.000
G1 X90.041 Y146.777 E0.05784
G1 X90.699 Y147.730 E0.05596
G1 X90.913 Y148.978 E0.06121
G1 X90.699 Y150.224 E0.06108
G1 X90.040 Y151.166 E0.05556
G1 X88.992 Y151.742 E0.05781
G1 X87.639 Y151.926 E0.06596
G1 X84.610 Y151.926 E0.14640
G1 X84.610 Y146.016 E0.28559
G1 X87.567 Y146.016 E0.14289
G1 X87.918 Y145.621 F3600.000
G1 X88.136 Y143.348 F3600.000
G1 X89.811 Y143.446 E0.08110 F540.000
G1 X91.230 Y143.732 E0.06995
G1 X92.416 Y144.194 E0.06150
G1 X92.882 Y144.499 E0.02692
G1 X92.882 Y153.434 E0.43175
G1 X92.414 Y153.743 E0.02711
G1 X91.229 Y154.208 E0.06153
G1 X89.811 Y154.496 E0.06993
G1 X88.136 Y154.594 E0.08108
G1 X80.561 Y154.594 E0.36604
G1 X80.561 Y136.603 E0.86938
G1 X84.125 Y136.603 E0.17226
G1 X84.125 Y143.348 E0.32591
G1 X88.063 Y143.348 E0.19027
G1 X88.150 Y142.864 F3600.000
G1 X89.873 Y142.965 E0.08343 F378.000
G1 X91.367 Y143.265 E0.07362
G1 X92.639 Y143.761 E0.06597
G1 X93.366 Y144.237 E0.04201
G1 X93.366 Y153.695 E0.45701
G1 X92.638 Y154.175 E0.04216
G1 X91.367 Y154.675 E0.06602
G1 X89.873 Y154.977 E0.07363
G1 X88.150 Y155.079 E0.08342
G1 X80.076 Y155.079 E0.39013
G1 X80.076 Y136.119 E0.91618
G1 X84.610 Y136.119 E0.21906
G1 X84.610 Y142.864 E0.32591
G1 X88.077 Y142.864 E0.16756
G1 X88.375 Y143.292 F3600.000
G1 F1800.000 E-2.00000
G1 X46.405 Y148.978 F3600.000
G1 E2.00000 F1800.000
G1 X46.158 Y150.413 E0.07033 F540.000
G1 X45.373 Y151.536 E0.06625
G1 X44.146 Y152.210 E0.06761
G1 X42.672 Y152.411 E0.07188
G1 X39.125 Y152.411 E0.17139
G1 X39.125 Y145.532 E0.33239
G1 X42.672 Y145.532 E0.17139
G1 X44.146 Y145.733 E0.07188
G1 X45.375 Y146.407 E0.06771
G1 X46.158 Y147.543 E0.06666
G1 X46.392 Y148.907 E0.06688
G1 X45.913 Y148.978 F3600.000
G1 X45.699 Y150.224 E0.06108 F540.000
G1 X45.040 Y151.166 E0.05556
G1 X43.992 Y151.742 E0.05781
G1 X42.639 Y151.926 E0.06596
G1 X39.610 Y151.926 E0.14640
G1 X39.610 Y146.016 E0.28559
G1 X42.639 Y146.016 E0.14640
G1 X43.992 Y146.201 E0.06596
G1 X45.041 Y146.777 E0.05784
G1 X45.699 Y147.730 E0.05596
G1 X45.901 Y148.906 E0.05769
G1 X46.318 Y149.244 F3600.000
G1 X47.882 Y153.434 F3600.000
G1 X47.414 Y153.743 E0.02711 F540.000
G1 X46.229 Y154.208 E0.06152
G1 X44.811 Y154.496 E0.06993
G1 X43.136 Y154.594 E0.08108
G1 X35.561 Y154.594 E0.36604
G1 X35.561 Y136.603 E0.86938
G1 X39.125 Y136.603 E0.17226
G1 X39.125 Y143.348 E0.32591
G1 X43.136 Y143.348 E0.19378
G1 X44.811 Y143.446 E0.08110
G1 X46.230 Y143.732 E0.06995
G1 X47.416 Y144.194 E0.06150
G1 X47.882 Y144.499 E0.02692
G1 X47.882 Y153.361 E0.42824
G1 X48.366 Y153.695 F3600.000
G1 X47.638 Y154.175 E0.04216 F378.000
G1 X46.367 Y154.675 E0.06602
G1 X44.873 Y154.977 E0.07363
G1 X43.150 Y155.079 E0.08342
G1 X35.076 Y155.079 E0.39013
G1 X35.076 Y136.119 E0.91618
G1 X39.610 Y136.119 E0.21906
G1 X39.610 Y142.864 E0.32591
G1 X43.150 Y142.864 E0.17107
G1 X44.873 Y142.965 E0.08343
G1 X46.367 Y143.265 E0.07362
G1 X47.639 Y143.761 E0.06597
G1 X48.366 Y144.237 E0.04201
G1 X48.366 Y153.622 E0.45350
G1 X47.887 Y153.629 F3600.000
G1 F1800.000 E-2.00000
G1 X43.999 Y122.230 F3600.000
G1 E2.00000 F1800.000
G1 X42.672 Y122.411 E0.06471 F540.000
G1 X39.125 Y122.411 E0.17139
G1 X39.125 Y115.532 E0.33239
G1 X42.672 Y115.532 E0.17139
G1 X44.146 Y115.733 E0.07188
G1 X45.375 Y116.407 E0.06771
G1 X46.158 Y117.543 E0.06666
G1 X46.405 Y118.978 E0.07039
G1 X46.158 Y120.413 E0.07033
G1 X45.373 Y121.537 E0.06625
G1 X44.146 Y122.210 E0.06761
G1 X44.071 Y122.220 E0.00367
G1 X43.992 Y121.742 F3600.000
G1 X42.639 Y121.926 E0.06596 F540.000
G1 X39.610 Y121.926 E0.14640
G1 X39.610 Y116.016 E0.28559
G1 X42.639 Y116.016 E0.14640
G1 X43.992 Y116.201 E0.06596
G1 X45.041 Y116.777 E0.05784
G1 X45.699 Y117.730 E0.05596
G1 X45.913 Y118.978 E0.06120
G1 X45.699 Y120.224 E0.06108
G1 X45.040 Y121.166 E0.05556
G1 X44.056 Y121.707 E0.05430
G1 X43.865 Y122.209 F3600.000
G1 X44.811 Y124.496 F3600.000
G1 X43.136 Y124.595 E0.08108 F540.000
G1 X35.561 Y124.595 E0.36604
G1 X35.561 Y106.603 E0.86940
G1 X39.125 Y106.603 E0.17226
G1 X39.125 Y113.348 E0.32591
