; generated by Slic3r 0.9.9-dev on 2013-02-05 at 10:46:25

; layer_height = 0.3
; perimeters = 2
; top_solid_layers = 3
; bottom_solid_layers = 2
; fill_density = 0.2
; perimeter_speed = 32
; infill_speed = 50
; travel_speed = 250
; scale = 1
; nozzle_diameter = 0.5
; filament_diameter = 1.75
; extrusion_multiplier = 0.9
; perimeters extrusion width = 0.50mm
; infill extrusion width = 0.50mm
; first layer extrusion width = 0.50mm

M107
M190 S57 ; wait for bed temperature to be reached
M104 S200 ; set temperature
G28 X0 Y0
G1 X75 Y75 F12000
G28 Z0
G1 Z0.3 F200
G1 X15 Y20 F12000
M109 S200 ; wait for temperature to be reached
G90 ; use absolute coordinates
G21 ; set units to millimeters
M83 ; use relative distances for extrusion
G1 F2760.000 E-3.20000
G1 Z0.300 F15000.000
G1 X65.430 Y87.395
G1 X65.941 Y87.080 F2760.000 E3.20000
G1 X96.080 Y68.485 F960.000 E1.98766
G1 X96.560 Y68.215 E0.03091
G1 X97.320 Y67.885 E0.04650
G1 X97.850 Y67.725 E0.03107
G1 X98.390 Y67.605 E0.03105
G1 X98.940 Y67.535 E0.03112
G1 X99.490 Y67.515 E0.03089
G1 X116.500 Y67.515 E0.95471
G1 X117.050 Y67.535 E0.03089
G1 X117.330 Y67.565 E0.01581
G1 X117.600 Y67.605 E0.01532
G1 X118.140 Y67.725 E0.03105
G1 X118.670 Y67.885 E0.03107
G1 X119.430 Y68.215 E0.04650
G1 X119.910 Y68.485 E0.03091
G1 X150.560 Y87.395 E2.02134
G1 X151.040 Y87.765 E0.03402
G1 X151.490 Y88.165 E0.03379
G1 X153.350 Y90.025 E0.14764
G1 X153.710 Y90.425 E0.03020
G1 X154.040 Y90.845 E0.02998
G1 X154.330 Y91.295 E0.03005
G1 X154.590 Y91.775 E0.03064
G1 X154.810 Y92.265 E0.03015
G1 X155.050 Y93.025 E0.04473
G1 X155.200 Y93.825 E0.04568
G1 X155.230 Y94.085 E0.01469
G1 X155.250 Y94.625 E0.03033
G1 X155.250 Y124.115 E1.65517
G1 X155.230 Y124.655 E0.03033
G1 X155.160 Y125.185 E0.03001
G1 X155.050 Y125.715 E0.03038
G1 X154.810 Y126.475 E0.04473
G1 X154.470 Y127.205 E0.04520
G1 X154.040 Y127.895 E0.04563
G1 X153.710 Y128.315 E0.02998
G1 X153.350 Y128.715 E0.03020
G1 X151.490 Y130.575 E0.14764
G1 X151.090 Y130.935 E0.03020
G1 X150.670 Y131.265 E0.02998
G1 X149.980 Y131.695 E0.04563
G1 X149.250 Y132.035 E0.04520
G1 X149.000 Y132.125 E0.01491
G1 X148.490 Y132.275 E0.02984
G1 X147.960 Y132.385 E0.03038
G1 X147.430 Y132.455 E0.03001
G1 X146.890 Y132.475 E0.03033
G1 X69.100 Y132.475 E4.36608
G1 X68.560 Y132.455 E0.03033
G1 X68.300 Y132.425 E0.01469
G1 X67.500 Y132.275 E0.04568
G1 X66.740 Y132.035 E0.04473
G1 X66.010 Y131.695 E0.04520
G1 X65.320 Y131.265 E0.04563
G1 X64.900 Y130.935 E0.02998
G1 X64.500 Y130.575 E0.03020
G1 X62.640 Y128.715 E0.14764
G1 X62.280 Y128.315 E0.03020
G1 X61.950 Y127.895 E0.02998
G1 X61.520 Y127.205 E0.04563
G1 X61.180 Y126.475 E0.04520
G1 X61.090 Y126.225 E0.01491
G1 X60.940 Y125.715 E0.02984
G1 X60.830 Y125.185 E0.03038
G1 X60.760 Y124.655 E0.03001
G1 X60.740 Y124.115 E0.03033
G1 X60.740 Y94.625 E1.65517
G1 X60.760 Y94.085 E0.03033
G1 X60.790 Y93.825 E0.01469
G1 X60.940 Y93.025 E0.04568
G1 X61.180 Y92.265 E0.04473
G1 X61.520 Y91.535 E0.04520
G1 X61.950 Y90.845 E0.04563
G1 X62.280 Y90.425 E0.02998
G1 X62.640 Y90.025 E0.03020
G1 X64.500 Y88.165 E0.14764
G1 X64.950 Y87.765 E0.03379
G1 X65.370 Y87.440 E0.02981
G1 X65.430 Y87.395 E0.00421
G1 F2760.000 E-3.20000
G1 X143.345 Y122.458 F15000.000
G1 X143.502 Y122.246 F2760.000 E3.20000
G1 X143.502 Y122.246 F1560.000
G1 X143.746 Y122.012 E0.01900
G1 X144.027 Y121.823 E0.01900
G1 X144.335 Y121.683 E0.01900
G1 X144.663 Y121.598 E0.01900
G1 X145.000 Y121.569 E0.01900
G1 X145.337 Y121.598 E0.01900
G1 X145.665 Y121.683 E0.01900
G1 X145.973 Y121.823 E0.01900
G1 X146.254 Y122.012 E0.01900
G1 X146.498 Y122.246 E0.01900
G1 X146.700 Y122.519 E0.01900
G1 X146.852 Y122.821 E0.01900
G1 X146.951 Y123.144 E0.01900
G1 X146.994 Y123.480 E0.01900
G1 X146.980 Y123.818 E0.01900
G1 X146.908 Y124.149 E0.01900
G1 X146.782 Y124.464 E0.01900
G1 X146.605 Y124.752 E0.01900
G1 X146.381 Y125.006 E0.01900
G1 X146.118 Y125.219 E0.01900
G1 X145.822 Y125.384 E0.01900
G1 X145.503 Y125.496 E0.01900
G1 X145.169 Y125.554 E0.01900
G1 X144.831 Y125.554 E0.01900
G1 X144.497 Y125.496 E0.01900
G1 X144.178 Y125.384 E0.01900
G1 X143.882 Y125.219 E0.01900
G1 X143.619 Y125.006 E0.01900
G1 X143.395 Y124.752 E0.01900
G1 X143.218 Y124.464 E0.01900
G1 X143.092 Y124.149 E0.01900
G1 X143.020 Y123.818 E0.01901
G1 X143.006 Y123.480 E0.01898
G1 X143.049 Y123.145 E0.01901
G1 X143.148 Y122.821 E0.01900
G1 X143.267 Y122.585 E0.01479
G1 X143.345 Y122.458 E0.00839
G1 X142.811 Y122.380 F2760.000 E-3.20000
G1 X144.757 Y97.201 F15000.000
G1 X144.497 Y97.156 F2760.000 E3.20000
G1 X144.497 Y97.156 F1560.000
G1 X144.178 Y97.044 E0.01900
G1 X143.882 Y96.879 E0.01900
G1 X143.619 Y96.666 E0.01900
G1 X143.395 Y96.412 E0.01900
G1 X143.218 Y96.124 E0.01900
G1 X143.092 Y95.809 E0.01900
G1 X143.020 Y95.479 E0.01900
G1 X143.006 Y95.140 E0.01900
G1 X143.049 Y94.805 E0.01900
G1 X143.148 Y94.481 E0.01900
G1 X143.300 Y94.179 E0.01900
G1 X143.502 Y93.906 E0.01900
G1 X143.746 Y93.672 E0.01900
G1 X144.027 Y93.483 E0.01900
G1 X144.335 Y93.343 E0.01900
G1 X144.663 Y93.258 E0.01900
G1 X145.000 Y93.229 E0.01900
G1 X145.337 Y93.258 E0.01900
G1 X145.665 Y93.343 E0.01900
G1 X145.973 Y93.483 E0.01900
G1 X146.254 Y93.672 E0.01900
G1 X146.498 Y93.906 E0.01900
G1 X146.700 Y94.179 E0.01900
G1 X146.852 Y94.481 E0.01900
G1 X146.951 Y94.804 E0.01900
G1 X146.994 Y95.140 E0.01900
G1 X146.980 Y95.479 E0.01900
G1 X146.908 Y95.809 E0.01900
G1 X146.782 Y96.124 E0.01900
G1 X146.605 Y96.412 E0.01900
G1 X146.381 Y96.666 E0.01900
G1 X146.118 Y96.879 E0.01900
G1 X145.822 Y97.044 E0.01900
G1 X145.503 Y97.156 E0.01900
G1 X145.169 Y97.214 E0.01900
G1 X144.906 Y97.214 E0.01479
G1 X144.757 Y97.201 E0.00839
G1 X144.874 Y97.713 F2760.000 E-3.20000
G1 X72.991 Y95.215 F15000.000
G1 X72.980 Y95.479 F2760.000 E3.20000
G1 X72.980 Y95.479 F1560.000
G1 X72.908 Y95.809 E0.01900
G1 X72.782 Y96.124 E0.01900
G1 X72.605 Y96.412 E0.01900
G1 X72.381 Y96.666 E0.01900
G1 X72.118 Y96.879 E0.01900
G1 X71.822 Y97.044 E0.01900
G1 X71.503 Y97.156 E0.01900
G1 X71.169 Y97.214 E0.01900
G1 X70.831 Y97.214 E0.01900
G1 X70.497 Y97.156 E0.01900
G1 X70.178 Y97.044 E0.01900
G1 X69.882 Y96.879 E0.01900
G1 X69.619 Y96.666 E0.01900
G1 X69.395 Y96.412 E0.01900
G1 X69.218 Y96.124 E0.01900
G1 X69.092 Y95.809 E0.01900
G1 X69.020 Y95.479 E0.01900
G1 X69.006 Y95.140 E0.01900
G1 X69.049 Y94.805 E0.01900
G1 X69.148 Y94.481 E0.01900
G1 X69.300 Y94.179 E0.01900
G1 X69.502 Y93.906 E0.01900
G1 X69.746 Y93.672 E0.01900
G1 X70.027 Y93.483 E0.01900
G1 X70.335 Y93.343 E0.01900
G1 X70.663 Y93.258 E0.01900
G1 X71.000 Y93.229 E0.01900
G1 X71.337 Y93.258 E0.01900
G1 X71.665 Y93.343 E0.01900
G1 X71.973 Y93.483 E0.01900
G1 X72.254 Y93.672 E0.01900
G1 X72.498 Y93.906 E0.01900
G1 X72.700 Y94.179 E0.01900
G1 X72.852 Y94.481 E0.01900
G1 X72.951 Y94.805 E0.01900
G1 X72.985 Y95.066 E0.01479
G1 X72.991 Y95.215 E0.00839
G1 X73.484 Y95.081 F2760.000 E-3.20000
G1 X71.075 Y121.575 F15000.000
G1 X71.337 Y121.598 F2760.000 E3.20000
G1 X71.337 Y121.598 F1560.000
G1 X71.665 Y121.683 E0.01900
G1 X71.973 Y121.823 E0.01900
G1 X72.254 Y122.012 E0.01900
G1 X72.498 Y122.246 E0.01900
G1 X72.700 Y122.519 E0.01900
G1 X72.852 Y122.821 E0.01900
G1 X72.951 Y123.145 E0.01900
G1 X72.994 Y123.480 E0.01900
G1 X72.980 Y123.819 E0.01900
G1 X72.908 Y124.149 E0.01900
G1 X72.782 Y124.464 E0.01900
G1 X72.605 Y124.752 E0.01900
G1 X72.381 Y125.006 E0.01900
G1 X72.118 Y125.219 E0.01900
G1 X71.822 Y125.384 E0.01900
G1 X71.503 Y125.496 E0.01900
G1 X71.169 Y125.554 E0.01900
G1 X70.831 Y125.554 E0.01900
G1 X70.497 Y125.496 E0.01900
G1 X70.178 Y125.384 E0.01900
G1 X69.882 Y125.219 E0.01900
G1 X69.619 Y125.006 E0.01900
G1 X69.395 Y124.752 E0.01900
G1 X69.218 Y124.464 E0.01900
G1 X69.092 Y124.149 E0.01900
G1 X69.020 Y123.818 E0.01901
G1 X69.006 Y123.480 E0.01898
G1 X69.049 Y123.145 E0.01901
G1 X69.148 Y122.821 E0.01900
G1 X69.300 Y122.519 E0.01900
G1 X69.502 Y122.246 E0.01900
G1 X69.746 Y122.012 E0.01900
G1 X70.027 Y121.823 E0.01900
G1 X70.335 Y121.683 E0.01900
G1 X70.663 Y121.598 E0.01900
G1 X70.925 Y121.575 E0.01479
G1 X71.075 Y121.575 E0.00839
G1 X70.925 Y121.074 F15000.000
G1 X70.578 Y121.103 F960.000 E0.01957
G1 X70.168 Y121.210 E0.02378
G1 X69.782 Y121.385 E0.02378
G1 X69.431 Y121.622 E0.02378
G1 X69.125 Y121.915 E0.02378
G1 X68.873 Y122.255 E0.02378
G1 X68.682 Y122.634 E0.02378
G1 X68.558 Y123.039 E0.02378
G1 X68.505 Y123.459 E0.02379
G1 X68.523 Y123.882 E0.02375
G1 X68.683 Y124.627 E0.04277
G1 X68.540 Y124.705 E0.00912
G1 X67.750 Y123.914 E0.06273
G1 X67.750 Y94.836 E1.63208
G1 X68.560 Y94.026 E0.06426
G1 X68.733 Y94.130 E0.01133
G1 X68.558 Y94.699 E0.03338
G1 X68.505 Y95.119 E0.02378
G1 X68.523 Y95.542 E0.02378
G1 X68.612 Y95.956 E0.02378
G1 X68.770 Y96.349 E0.02378
G1 X68.992 Y96.710 E0.02378
G1 X69.272 Y97.028 E0.02378
G1 X69.601 Y97.294 E0.02378
G1 X69.971 Y97.501 E0.02378
G1 X70.371 Y97.642 E0.02378
G1 X70.788 Y97.714 E0.02378
G1 X71.212 Y97.714 E0.02378
G1 X71.629 Y97.642 E0.02378
G1 X72.029 Y97.501 E0.02378
G1 X72.399 Y97.294 E0.02378
G1 X72.728 Y97.028 E0.02378
G1 X73.008 Y96.710 E0.02378
G1 X73.230 Y96.349 E0.02378
G1 X73.388 Y95.956 E0.02378
G1 X73.477 Y95.542 E0.02378
G1 X73.495 Y95.119 E0.02378
G1 X73.442 Y94.699 E0.02378
G1 X73.318 Y94.294 E0.02378
G1 X73.127 Y93.915 E0.02378
G1 X72.653 Y93.275 E0.04471
G1 X93.272 Y93.275 E1.15727
G1 X94.320 Y93.193 E0.05902
G1 X95.371 Y92.938 E0.06068
G1 X96.351 Y92.526 E0.05967
G1 X97.231 Y91.980 E0.05813
G1 X98.017 Y91.306 E0.05809
G1 X98.730 Y90.466 E0.06187
G1 X99.269 Y89.586 E0.05791
G1 X99.661 Y88.639 E0.05750
G1 X99.919 Y87.580 E0.06120
G1 X100.000 Y86.538 E0.05865
G1 X100.000 Y74.525 E0.67426
G1 X116.000 Y74.525 E0.89802
G1 X116.000 Y86.537 E0.67418
G1 X116.080 Y87.565 E0.05791
G1 X116.356 Y88.679 E0.06442
G1 X116.721 Y89.560 E0.05349
G1 X117.253 Y90.438 E0.05764
G1 X117.983 Y91.306 E0.06368
G1 X118.810 Y92.005 E0.06075
G1 X119.678 Y92.537 E0.05715
G1 X120.697 Y92.955 E0.06185
G1 X121.724 Y93.197 E0.05921
G1 X122.730 Y93.275 E0.05663
G1 X143.347 Y93.275 E1.15713
G1 X142.873 Y93.915 E0.04471
G1 X142.682 Y94.294 E0.02378
G1 X142.558 Y94.699 E0.02378
G1 X142.505 Y95.119 E0.02378
G1 X142.523 Y95.542 E0.02378
G1 X142.612 Y95.956 E0.02377
G1 X142.770 Y96.349 E0.02378
G1 X142.992 Y96.710 E0.02378
G1 X143.272 Y97.028 E0.02378
G1 X143.601 Y97.294 E0.02378
G1 X143.971 Y97.501 E0.02378
G1 X144.371 Y97.642 E0.02378
G1 X144.788 Y97.714 E0.02378
G1 X145.212 Y97.714 E0.02378
G1 X145.629 Y97.642 E0.02378
G1 X146.029 Y97.501 E0.02378
G1 X146.399 Y97.294 E0.02378
G1 X146.728 Y97.028 E0.02378
G1 X147.008 Y96.710 E0.02378
G1 X147.230 Y96.349 E0.02377
G1 X147.388 Y95.956 E0.02378
G1 X147.477 Y95.542 E0.02378
G1 X147.495 Y95.119 E0.02378
G1 X147.442 Y94.699 E0.02378
G1 X147.267 Y94.130 E0.03338
G1 X147.440 Y94.026 E0.01133
G1 X148.250 Y94.836 E0.06426
G1 X148.250 Y123.914 E1.63208
G1 X147.460 Y124.705 E0.06273
G1 X147.317 Y124.627 E0.00912
G1 X147.477 Y123.882 E0.04275
G1 X147.495 Y123.459 E0.02378
G1 X147.442 Y123.039 E0.02378
G1 X147.318 Y122.634 E0.02377
G1 X147.127 Y122.255 E0.02378
G1 X146.875 Y121.915 E0.02378
G1 X146.569 Y121.622 E0.02377
G1 X146.218 Y121.384 E0.02378
G1 X145.832 Y121.210 E0.02378
G1 X145.422 Y121.103 E0.02378
G1 X145.000 Y121.067 E0.02378
G1 X144.578 Y121.103 E0.02378
G1 X144.168 Y121.210 E0.02378
G1 X143.782 Y121.385 E0.02378
G1 X143.431 Y121.622 E0.02378
G1 X143.125 Y121.915 E0.02377
G1 X142.873 Y122.255 E0.02378
G1 X142.682 Y122.634 E0.02378
G1 X142.558 Y123.039 E0.02378
G1 X142.505 Y123.459 E0.02379
G1 X142.523 Y123.882 E0.02376
G1 X142.612 Y124.296 E0.02378
G1 X142.770 Y124.689 E0.02378
G1 X142.992 Y125.050 E0.02378
G1 X143.366 Y125.475 E0.03176
G1 X72.634 Y125.475 E3.96991
G1 X73.008 Y125.050 E0.03176
G1 X73.230 Y124.689 E0.02378
G1 X73.388 Y124.296 E0.02378
G1 X73.477 Y123.882 E0.02378
G1 X73.495 Y123.459 E0.02378
G1 X73.442 Y123.039 E0.02378
G1 X73.318 Y122.634 E0.02378
G1 X73.127 Y122.255 E0.02378
G1 X72.875 Y121.915 E0.02378
G1 X72.569 Y121.622 E0.02378
G1 X72.218 Y121.384 E0.02378
G1 X71.832 Y121.210 E0.02378
G1 X71.448 Y121.110 E0.02230
G1 X70.925 Y121.074
G1 F2760.000 E-3.20000
G1 X67.250 Y124.046 F15000.000
G1 X67.250 Y123.446 F2760.000 E3.20000
G1 X67.250 Y94.629 F780.000 E1.61745
G1 X69.104 Y92.775 E0.14713
G1 X93.257 Y92.775 E1.35567
G1 X94.235 Y92.698 E0.05501
G1 X95.197 Y92.466 E0.05555
G1 X96.104 Y92.088 E0.05517
G1 X96.930 Y91.578 E0.05450
G1 X97.667 Y90.947 E0.05444
G1 X98.296 Y90.212 E0.05431
G1 X98.821 Y89.360 E0.05619
G1 X99.190 Y88.469 E0.05413
G1 X99.424 Y87.501 E0.05584
G1 X99.500 Y86.529 E0.05473
G1 X99.500 Y74.025 E0.70183
G1 X116.500 Y74.025 E0.95415
G1 X116.500 Y86.529 E0.70180
G1 X116.576 Y87.498 E0.05453
G1 X116.818 Y88.490 E0.05732
G1 X117.174 Y89.349 E0.05221
G1 X117.690 Y90.194 E0.05557
G1 X118.333 Y90.947 E0.05556
G1 X119.060 Y91.569 E0.05369
G1 X119.934 Y92.104 E0.05755
G1 X120.833 Y92.474 E0.05455
G1 X121.757 Y92.695 E0.05329
G1 X122.743 Y92.775 E0.05557
G1 X146.896 Y92.775 E1.35563
G1 X148.750 Y94.629 E0.14713
G1 X148.750 Y124.121 E1.65533
G1 X146.896 Y125.975 E0.14713
G1 X69.104 Y125.975 E4.36624
G1 X67.303 Y124.174 E0.14292
G1 X67.250 Y124.046 E0.00778
G1 X67.705 Y123.877 F2760.000 E-3.20000
G1 X68.409 Y122.200 F15000.000
G1 X68.091 Y121.882 F2760.000 E3.20000
G1 X68.091 Y121.882 F2400.000
G1 X68.091 Y121.173 E0.03989
G1 X68.802 Y121.885 E0.05662
G1 X69.143 Y121.517 E0.02822
G1 X68.091 Y120.464 E0.08375
G1 X68.091 Y119.755 E0.03989
G1 X69.544 Y121.209 E0.11564
G1 X70.009 Y120.964 E0.02954
G1 X68.091 Y119.046 E0.15262
G1 X68.091 Y118.338 E0.03989
G1 X70.548 Y120.795 E0.19555
G1 X71.190 Y120.727 E0.03629
G1 X68.091 Y117.629 E0.24659
G1 X68.091 Y116.920 E0.03989
G1 X72.035 Y120.864 E0.31387
G1 F2760.000 E-3.20000
G1 X73.697 Y122.526 F15000.000
G1 X74.121 Y122.950 F2760.000 E3.20000
G1 X76.305 Y125.134 F1200.000 E0.17380
G1 X75.596 Y125.134 E0.03989
G1 X73.834 Y123.371 E0.14028
G1 X73.767 Y124.014 E0.03634
G1 X74.887 Y125.134 E0.08916
G1 X74.179 Y125.134 E0.03989
G1 X73.600 Y124.555 E0.04606
G1 F2760.000 E-3.20000
G1 X77.014 Y125.134 F15000.000
G1 X76.590 Y124.710 F2760.000 E3.20000
G1 X68.091 Y116.211 F1200.000 E0.67633
G1 X68.091 Y115.502 E0.03989
G1 X77.723 Y125.134 E0.76651
G1 X78.432 Y125.134 E0.03989
G1 X68.091 Y114.793 E0.82291
G1 X68.091 Y114.084 E0.03989
G1 X79.141 Y125.134 E0.87932
G1 X79.850 Y125.134 E0.03989
G1 X68.091 Y113.375 E0.93574
G1 X68.091 Y112.666 E0.03989
G1 X80.559 Y125.134 E0.99214
G1 X81.268 Y125.134 E0.03989
G1 X68.091 Y111.957 E1.04856
G1 X68.091 Y111.249 E0.03989
G1 X81.976 Y125.134 E1.10497
G1 X82.685 Y125.134 E0.03989
G1 X68.091 Y110.540 E1.16138
G1 X68.091 Y109.831 E0.03989
G1 X83.394 Y125.134 E1.21779
G1 X84.103 Y125.134 E0.03989
G1 X68.091 Y109.122 E1.27421
G1 X68.091 Y108.413 E0.03989
G1 X84.812 Y125.134 E1.33062
G1 X85.521 Y125.134 E0.03989
G1 X68.091 Y107.704 E1.38703
G1 X68.091 Y106.995 E0.03989
G1 X86.230 Y125.134 E1.44344
G1 X86.939 Y125.134 E0.03989
G1 X68.091 Y106.286 E1.49985
G1 X68.091 Y105.577 E0.03989
G1 X87.648 Y125.134 E1.55626
G1 X88.357 Y125.134 E0.03989
G1 X68.091 Y104.868 E1.61268
G1 X68.091 Y104.159 E0.03989
G1 X89.065 Y125.134 E1.66909
G1 X89.774 Y125.134 E0.03989
G1 X68.091 Y103.451 E1.72549
G1 X68.091 Y102.742 E0.03989
G1 X90.483 Y125.134 E1.78191
G1 X91.192 Y125.134 E0.03989
G1 X68.091 Y102.033 E1.83832
G1 X68.091 Y101.324 E0.03989
G1 X91.901 Y125.134 E1.89473
G1 X92.610 Y125.134 E0.03989
G1 X68.091 Y100.615 E1.95114
G1 X68.091 Y99.906 E0.03989
G1 X93.319 Y125.134 E2.00756
G1 X94.028 Y125.134 E0.03989
G1 X68.091 Y99.197 E2.06396
G1 X68.091 Y98.488 E0.03989
G1 X94.737 Y125.134 E2.12038
G1 X95.446 Y125.134 E0.03989
G1 X68.091 Y97.779 E2.17679
G1 X68.091 Y97.071 E0.03989
G1 X96.154 Y125.134 E2.23320
G1 X96.863 Y125.134 E0.03989
G1 X69.430 Y97.701 E2.18302
G1 X70.473 Y98.035 E0.06161
G1 X97.572 Y125.134 E2.15645
G1 X98.281 Y125.134 E0.03989
G1 X71.186 Y98.039 E2.15614
G1 X71.765 Y97.909 E0.03339
G1 X98.990 Y125.134 E2.16647
G1 X99.699 Y125.134 E0.03989
G1 X72.261 Y97.696 E2.18343
G1 X72.689 Y97.415 E0.02881
G1 X100.408 Y125.134 E2.20578
G1 X101.117 Y125.134 E0.03989
G1 X73.056 Y97.073 E2.23300
G1 X73.362 Y96.671 E0.02846
G1 X101.826 Y125.134 E2.26501
