; generated by Slic3r 1.0.0RC2 on 2014-01-10 at 12:37:07

; layer_height = 0.24
; perimeters = 2
; top_solid_layers = 3
; bottom_solid_layers = 3
; fill_density = 0.4
; perimeter_speed = 30
; infill_speed = 40
; travel_speed = 60
; nozzle_diameter = 0.5
; filament_diameter = 1.75
; extrusion_multiplier = 1
; perimeters extrusion width = 0.50mm
; infill extrusion width = 0.87mm
; solid infill extrusion width = 0.85mm
; top infill extrusion width = 0.85mm
; first layer extrusion width = 0.48mm

G21 ; set units to millimeters
M107
G10 P0 X0 Y0 Z0 S205.0 R160.0
G10 P1 X-34.2 Y3.8 Z0 S205.0 R160.0
G10 P2 X-12.4 Y49.0 Z0 S205.0 R160.0
G90 ; use absolute coordinates
M83 ; use relative distances for extrusion
G1 Z5 F200 ; lift nozzle
G28 X0 Y0
G1 X100 Y100 F2000
G28 Z0 F200
G1 Z5
T0
G1 F1800.000 E-2.00000
G1 Z0.240 F3600.000
G1 X62.410 Y50.410 F3600.000
G1 E2.00000 F1800.000
G1 X63.400 Y49.610 E0.06151 F540.000
G1 X64.520 Y49.010 E0.06140
G1 X65.730 Y48.640 E0.06114
G1 X67.000 Y48.520 E0.06164
G1 X133.000 Y48.520 E3.18931
G1 X134.270 Y48.640 E0.06164
G1 X135.480 Y49.010 E0.06114
G1 X136.600 Y49.610 E0.06140
G1 X137.590 Y50.410 E0.06151
G1 X138.390 Y51.400 E0.06151
G1 X138.990 Y52.520 E0.06140
G1 X139.360 Y53.730 E0.06114
G1 X139.480 Y55.000 E0.06164
G1 X139.480 Y85.000 E1.44969
G1 X139.360 Y86.270 E0.06164
G1 X138.990 Y87.480 E0.06114
G1 X138.390 Y88.600 E0.06140
G1 X137.590 Y89.590 E0.06151
G1 X136.600 Y90.390 E0.06151
G1 X135.480 Y90.990 E0.06140
G1 X134.270 Y91.360 E0.06114
G1 X133.000 Y91.480 E0.06164
G1 X67.000 Y91.480 E3.18931
G1 X65.730 Y91.360 E0.06164
G1 X64.520 Y90.990 E0.06114
G1 X63.400 Y90.390 E0.06140
G1 X62.410 Y89.590 E0.06151
G1 X61.610 Y88.600 E0.06151
G1 X61.010 Y87.480 E0.06140
G1 X60.640 Y86.270 E0.06114
G1 X60.520 Y85.000 E0.06164
G1 X60.520 Y55.000 E1.44969
G1 X60.640 Y53.730 E0.06164
G1 X61.010 Y52.520 E0.06114
G1 X61.610 Y51.400 E0.06140
G1 X62.364 Y50.467 E0.05800
G1 F1800.000 E-2.00000
G1 X71.276 Y59.276 F3600.000
G1 E2.00000 F1800.000
G1 X92.724 Y59.276 E1.03646 F540.000
G1 X92.724 Y80.724 E1.03646
G1 X71.276 Y80.724 E1.03646
G1 X71.276 Y59.348 E1.03295
G1 X71.760 Y59.760 F3600.000
G1 X92.240 Y59.760 E0.98965 F378.000
G1 X92.240 Y80.240 E0.98965
G1 X71.760 Y80.240 E0.98965
G1 X71.760 Y59.833 E0.98614
G1 X71.760 Y59.276 F3600.000
G1 X67.724 Y55.724 F3600.000
G1 X96.276 Y55.724 E1.37969 F540.000
G1 X96.276 Y84.276 E1.37969
G1 X67.724 Y84.276 E1.37969
G1 X67.724 Y55.797 E1.37618
G1 X67.240 Y55.240 F3600.000
G1 X96.760 Y55.240 E1.42649 F378.000
G1 X96.760 Y84.760 E1.42649
G1 X67.240 Y84.760 E1.42649
G1 X67.240 Y55.313 E1.42298
G1 X67.659 Y55.482 F3600.000
G1 X68.051 Y77.024 F3600.000
G1 X70.949 Y79.922 E0.19883 F720.000
G1 X70.949 Y79.234 E0.03336
G1 X68.051 Y76.336 E0.19883
G1 X68.051 Y75.649 E0.03336
G1 X70.949 Y78.547 E0.19883
G1 X70.949 Y77.859 E0.03336
G1 X68.051 Y74.961 E0.19883
G1 X68.051 Y74.273 E0.03336
G1 X70.949 Y77.171 E0.19883
G1 X70.949 Y76.484 E0.03336
G1 X68.051 Y73.586 E0.19883
G1 X68.051 Y72.898 E0.03336
G1 X70.949 Y75.796 E0.19883
G1 X70.949 Y75.108 E0.03336
G1 X68.051 Y72.210 E0.19883
G1 X68.051 Y71.523 E0.03336
G1 X70.949 Y74.421 E0.19883
G1 X70.949 Y73.733 E0.03336
G1 X68.051 Y70.835 E0.19883
G1 X68.051 Y70.148 E0.03336
G1 X70.949 Y73.045 E0.19883
G1 X70.949 Y72.358 E0.03336
G1 X68.051 Y69.460 E0.19883
G1 X68.051 Y68.772 E0.03336
G1 X70.949 Y71.670 E0.19883
G1 X70.949 Y70.983 E0.03336
G1 X68.051 Y68.085 E0.19883
G1 X68.051 Y67.397 E0.03336
G1 X70.949 Y70.295 E0.19883
G1 X70.949 Y69.607 E0.03336
G1 X68.051 Y66.709 E0.19883
G1 X68.051 Y66.022 E0.03336
G1 X70.949 Y68.920 E0.19883
G1 X70.949 Y68.232 E0.03336
G1 X68.051 Y65.334 E0.19883
G1 X68.051 Y64.647 E0.03336
G1 X70.949 Y67.544 E0.19883
G1 X70.949 Y66.857 E0.03336
G1 X68.051 Y63.959 E0.19883
G1 X68.051 Y63.271 E0.03336
G1 X70.949 Y66.169 E0.19883
G1 X70.949 Y65.481 E0.03336
G1 X68.051 Y62.584 E0.19883
G1 X68.051 Y61.896 E0.03336
G1 X70.949 Y64.794 E0.19883
G1 X70.949 Y64.106 E0.03336
G1 X68.051 Y61.208 E0.19883
G1 X68.051 Y60.521 E0.03336
G1 X70.949 Y63.419 E0.19883
G1 X70.949 Y62.731 E0.03336
G1 X68.051 Y59.833 E0.19883
G1 X68.051 Y59.145 E0.03336
G1 X70.949 Y62.043 E0.19883
G1 X70.949 Y61.356 E0.03336
G1 X68.051 Y58.458 E0.19883
G1 X68.051 Y57.770 E0.03336
G1 X70.949 Y60.668 E0.19883
G1 X70.949 Y59.980 E0.03336
G1 X68.051 Y57.083 E0.19883
G1 X68.051 Y56.395 E0.03336
G1 X70.949 Y59.293 E0.19883
G1 X71.293 Y58.949 E0.02359
G1 X68.395 Y56.051 E0.19883
G1 X69.083 Y56.051 E0.03336
G1 X71.980 Y58.949 E0.19883
G1 X72.668 Y58.949 E0.03336
G1 X69.770 Y56.051 E0.19883
G1 X70.458 Y56.051 E0.03336
G1 X73.356 Y58.949 E0.19883
G1 X74.043 Y58.949 E0.03336
G1 X71.145 Y56.051 E0.19883
G1 X71.833 Y56.051 E0.03336
G1 X74.731 Y58.949 E0.19883
G1 X75.419 Y58.949 E0.03336
G1 X72.521 Y56.051 E0.19883
G1 X73.208 Y56.051 E0.03336
G1 X76.106 Y58.949 E0.19883
G1 X76.794 Y58.949 E0.03336
G1 X73.896 Y56.051 E0.19883
G1 X74.584 Y56.051 E0.03336
G1 X77.481 Y58.949 E0.19883
G1 X78.169 Y58.949 E0.03336
G1 X75.271 Y56.051 E0.19883
G1 X75.959 Y56.051 E0.03336
G1 X78.857 Y58.949 E0.19883
G1 X79.544 Y58.949 E0.03336
G1 X76.647 Y56.051 E0.19883
G1 X77.334 Y56.051 E0.03336
G1 X80.232 Y58.949 E0.19883
G1 X80.920 Y58.949 E0.03336
G1 X78.022 Y56.051 E0.19883
G1 X78.709 Y56.051 E0.03336
G1 X81.607 Y58.949 E0.19883
G1 X82.295 Y58.949 E0.03336
G1 X79.397 Y56.051 E0.19883
G1 X80.085 Y56.051 E0.03336
G1 X82.983 Y58.949 E0.19883
G1 X83.670 Y58.949 E0.03336
G1 X80.772 Y56.051 E0.19883
G1 X81.460 Y56.051 E0.03336
G1 X84.358 Y58.949 E0.19883
G1 X85.045 Y58.949 E0.03336
G1 X82.148 Y56.051 E0.19883
G1 X82.835 Y56.051 E0.03336
G1 X85.733 Y58.949 E0.19883
G1 X86.421 Y58.949 E0.03336
G1 X83.523 Y56.051 E0.19883
G1 X84.211 Y56.051 E0.03336
G1 X87.108 Y58.949 E0.19883
G1 X87.796 Y58.949 E0.03336
G1 X84.898 Y56.051 E0.19883
G1 X85.586 Y56.051 E0.03336
G1 X88.484 Y58.949 E0.19883
G1 X89.171 Y58.949 E0.03336
G1 X86.273 Y56.051 E0.19883
G1 X86.961 Y56.051 E0.03336
G1 X89.859 Y58.949 E0.19883
G1 X90.547 Y58.949 E0.03336
G1 X87.649 Y56.051 E0.19883
G1 X88.336 Y56.051 E0.03336
G1 X91.234 Y58.949 E0.19883
G1 X91.922 Y58.949 E0.03336
G1 X89.024 Y56.051 E0.19883
G1 X89.712 Y56.051 E0.03336
G1 X92.609 Y58.949 E0.19883
G1 X93.051 Y59.391 F3600.000
G1 X95.949 Y62.288 E0.19883 F720.000
G1 X95.949 Y62.976 E0.03336
G1 X93.051 Y60.078 E0.19883
G1 X93.051 Y60.766 E0.03336
G1 X95.949 Y63.664 E0.19883
G1 X95.949 Y64.351 E0.03336
G1 X93.051 Y61.453 E0.19883
G1 X93.051 Y62.141 E0.03336
G1 X95.949 Y65.039 E0.19883
G1 X95.949 Y65.727 E0.03336
G1 X93.051 Y62.829 E0.19883
G1 X93.051 Y63.516 E0.03336
G1 X95.949 Y66.414 E0.19883
G1 X95.949 Y67.102 E0.03336
G1 X93.051 Y64.204 E0.19883
G1 X93.051 Y64.892 E0.03336
G1 X95.949 Y67.789 E0.19883
G1 X95.949 Y68.477 E0.03336
G1 X93.051 Y65.579 E0.19883
G1 X93.051 Y66.267 E0.03336
G1 X95.949 Y69.165 E0.19883
G1 X95.949 Y69.852 E0.03336
G1 X93.051 Y66.955 E0.19883
G1 X93.051 Y67.642 E0.03336
G1 X95.949 Y70.540 E0.19883
G1 X95.949 Y71.228 E0.03336
G1 X93.051 Y68.330 E0.19883
G1 X93.051 Y69.017 E0.03336
G1 X95.949 Y71.915 E0.19883
G1 X95.949 Y72.603 E0.03336
G1 X93.051 Y69.705 E0.19883
G1 X93.051 Y70.393 E0.03336
G1 X95.949 Y73.291 E0.19883
G1 X95.949 Y73.978 E0.03336
G1 X93.051 Y71.080 E0.19883
G1 X93.051 Y71.768 E0.03336
G1 X95.949 Y74.666 E0.19883
G1 X95.949 Y75.353 E0.03336
G1 X93.051 Y72.456 E0.19883
G1 X93.051 Y73.143 E0.03336
G1 X95.949 Y76.041 E0.19883
G1 X95.949 Y76.729 E0.03336
G1 X93.051 Y73.831 E0.19883
G1 X93.051 Y74.519 E0.03336
G1 X95.949 Y77.416 E0.19883
G1 X95.949 Y78.104 E0.03336
G1 X93.051 Y75.206 E0.19883
G1 X93.051 Y75.894 E0.03336
G1 X95.949 Y78.792 E0.19883
G1 X95.949 Y79.479 E0.03336
G1 X93.051 Y76.581 E0.19883
G1 X93.051 Y77.269 E0.03336
G1 X95.949 Y80.167 E0.19883
G1 X95.949 Y80.855 E0.03336
G1 X93.051 Y77.957 E0.19883
G1 X93.051 Y78.644 E0.03336
G1 X95.949 Y81.542 E0.19883
G1 X95.949 Y82.230 E0.03336
G1 X93.051 Y79.332 E0.19883
G1 X93.051 Y80.020 E0.03336
G1 X95.949 Y82.917 E0.19883
G1 X95.949 Y83.605 E0.03336
G1 X93.051 Y80.707 E0.19883
G1 X92.707 Y81.051 E0.02359
G1 X95.605 Y83.949 E0.19883
G1 X94.917 Y83.949 E0.03336
G1 X92.020 Y81.051 E0.19883
G1 X91.332 Y81.051 E0.03336
G1 X94.230 Y83.949 E0.19883
G1 X93.542 Y83.949 E0.03336
G1 X90.644 Y81.051 E0.19883
G1 X89.957 Y81.051 E0.03336
G1 X92.855 Y83.949 E0.19883
G1 X92.167 Y83.949 E0.03336
G1 X89.269 Y81.051 E0.19883
G1 X88.581 Y81.051 E0.03336
G1 X91.479 Y83.949 E0.19883
G1 X90.792 Y83.949 E0.03336
G1 X87.894 Y81.051 E0.19883
G1 X87.206 Y81.051 E0.03336
G1 X90.104 Y83.949 E0.19883
G1 X89.416 Y83.949 E0.03336
G1 X86.519 Y81.051 E0.19883
G1 X85.831 Y81.051 E0.03336
G1 X88.729 Y83.949 E0.19883
G1 X88.041 Y83.949 E0.03336
G1 X85.143 Y81.051 E0.19883
G1 X84.456 Y81.051 E0.03336
G1 X87.353 Y83.949 E0.19883
G1 X86.666 Y83.949 E0.03336
G1 X83.768 Y81.051 E0.19883
G1 X83.080 Y81.051 E0.03336
G1 X85.978 Y83.949 E0.19883
G1 X85.291 Y83.949 E0.03336
G1 X82.393 Y81.051 E0.19883
G1 X81.705 Y81.051 E0.03336
G1 X84.603 Y83.949 E0.19883
G1 X83.915 Y83.949 E0.03336
G1 X81.017 Y81.051 E0.19883
G1 X80.330 Y81.051 E0.03336
G1 X83.228 Y83.949 E0.19883
G1 X82.540 Y83.949 E0.03336
G1 X79.642 Y81.051 E0.19883
G1 X78.955 Y81.051 E0.03336
G1 X81.852 Y83.949 E0.19883
G1 X81.165 Y83.949 E0.03336
G1 X78.267 Y81.051 E0.19883
G1 X77.579 Y81.051 E0.03336
G1 X80.477 Y83.949 E0.19883
G1 X79.789 Y83.949 E0.03336
G1 X76.892 Y81.051 E0.19883
G1 X76.204 Y81.051 E0.03336
G1 X79.102 Y83.949 E0.19883
G1 X78.414 Y83.949 E0.03336
G1 X75.516 Y81.051 E0.19883
G1 X74.829 Y81.051 E0.03336
G1 X77.727 Y83.949 E0.19883
G1 X77.039 Y83.949 E0.03336
G1 X74.141 Y81.051 E0.19883
G1 X73.453 Y81.051 E0.03336
G1 X76.351 Y83.949 E0.19883
G1 X75.664 Y83.949 E0.03336
G1 X72.766 Y81.051 E0.19883
G1 X72.078 Y81.051 E0.03336
G1 X74.976 Y83.949 E0.19883
G1 X74.288 Y83.949 E0.03336
G1 X71.391 Y81.051 E0.19883
G1 X70.949 Y80.609 F3600.000
G1 X68.051 Y77.712 E0.19883 F720.000
G1 X68.051 Y78.399 E0.03336
G1 X73.601 Y83.949 E0.38078
G1 X72.913 Y83.949 E0.03336
G1 X68.051 Y79.087 E0.33360
G1 X68.051 Y79.774 E0.03336
G1 X72.226 Y83.949 E0.28642
G1 X71.538 Y83.949 E0.03336
G1 X68.051 Y80.462 E0.23924
G1 X68.051 Y81.150 E0.03336
G1 X70.850 Y83.949 E0.19206
G1 X70.163 Y83.949 E0.03336
G1 X68.051 Y81.837 E0.14488
G1 X68.051 Y82.525 E0.03336
G1 X69.475 Y83.949 E0.09770
G1 X68.787 Y83.949 E0.03336
G1 X68.051 Y83.213 E0.05052
G1 X68.051 Y83.900 E0.03336
G1 X68.100 Y83.949 E0.00334
G1 F1800.000 E-2.00000
G1 X90.399 Y56.051 F3600.000
G1 E2.00000 F1800.000
G1 X95.949 Y61.601 E0.38078 F720.000
G1 X95.949 Y60.913 E0.03336
G1 X91.087 Y56.051 E0.33360
G1 X91.774 Y56.051 E0.03336
G1 X95.949 Y60.226 E0.28642
G1 X95.949 Y59.538 E0.03336
G1 X92.462 Y56.051 E0.23924
G1 X93.150 Y56.051 E0.03336
G1 X95.949 Y58.850 E0.19206
G1 X95.949 Y58.163 E0.03336
G1 X93.837 Y56.051 E0.14488
G1 X94.525 Y56.051 E0.03336
G1 X95.949 Y57.475 E0.09770
G1 X95.949 Y56.787 E0.03336
G1 X95.213 Y56.051 E0.05052
G1 X95.900 Y56.051 E0.03336
G1 X95.949 Y56.100 E0.00334
G1 F1800.000 E-5.00000
T1
G1 F1800.000 E-2.00000
G1 X86.276 Y60.724 F3600.000
G1 E2.00000 F1800.000
G1 X86.276 Y74.276 E0.65484 F540.000
G1 X72.724 Y74.276 E0.65484
G1 X72.724 Y60.724 E0.65484
G1 X86.203 Y60.724 E0.65133
G1 X86.760 Y60.240 F3600.000
G1 X86.760 Y74.760 E0.70165 F378.000
G1 X72.240 Y74.760 E0.70165
G1 X72.240 Y60.240 E0.70165
G1 X86.687 Y60.240 E0.69814
G1 X86.518 Y60.659 F3600.000
G1 X85.949 Y61.100 F3600.000
G1 X85.900 Y61.051 E0.00340 F720.000
G1 X85.206 Y61.051 E0.03404
G1 X85.949 Y61.794 E0.05154
G1 X85.949 Y62.489 E0.03404
G1 X84.511 Y61.051 E0.09967
G1 X83.816 Y61.051 E0.03404
G1 X85.949 Y63.184 E0.14781
G1 X85.949 Y63.878 E0.03404
G1 X83.122 Y61.051 E0.19594
G1 X82.427 Y61.051 E0.03404
G1 X85.949 Y64.573 E0.24408
G1 X85.949 Y65.267 E0.03404
G1 X81.733 Y61.051 E0.29221
G1 X81.038 Y61.051 E0.03404
G1 X85.949 Y65.962 E0.34034
G1 X85.949 Y66.656 E0.03404
G1 X80.344 Y61.051 E0.38848
G1 X79.649 Y61.051 E0.03404
G1 X85.949 Y67.351 E0.43661
G1 X85.949 Y68.045 E0.03404
G1 X78.955 Y61.051 E0.48475
G1 X78.260 Y61.051 E0.03404
G1 X85.949 Y68.740 E0.53288
G1 X85.949 Y69.435 E0.03404
G1 X77.565 Y61.051 E0.58102
G1 X76.871 Y61.051 E0.03404
G1 X85.949 Y70.129 E0.62915
G1 X85.949 Y70.824 E0.03404
G1 X76.176 Y61.051 E0.67729
G1 X75.482 Y61.051 E0.03404
G1 X85.949 Y71.518 E0.72542
G1 X85.949 Y72.213 E0.03404
G1 X74.787 Y61.051 E0.77355
G1 X74.093 Y61.051 E0.03404
G1 X85.949 Y72.907 E0.82169
G1 X85.949 Y73.602 E0.03404
G1 X73.398 Y61.051 E0.86982
G1 X73.051 Y61.398 E0.02407
G1 X85.602 Y73.949 E0.86982
G1 X84.907 Y73.949 E0.03404
G1 X73.051 Y62.093 E0.82169
G1 X73.051 Y62.787 E0.03404
G1 X84.213 Y73.949 E0.77355
G1 X83.518 Y73.949 E0.03404
G1 X73.051 Y63.482 E0.72542
G1 X73.051 Y64.176 E0.03404
G1 X82.824 Y73.949 E0.67729
G1 X82.129 Y73.949 E0.03404
G1 X73.051 Y64.871 E0.62915
G1 X73.051 Y65.565 E0.03404
G1 X81.435 Y73.949 E0.58102
G1 X80.740 Y73.949 E0.03404
G1 X73.051 Y66.260 E0.53288
G1 X73.051 Y66.955 E0.03404
G1 X80.045 Y73.949 E0.48475
G1 X79.351 Y73.949 E0.03404
G1 X73.051 Y67.649 E0.43661
G1 X73.051 Y68.344 E0.03404
G1 X78.656 Y73.949 E0.38848
G1 X77.962 Y73.949 E0.03404
G1 X73.051 Y69.038 E0.34034
G1 X73.051 Y69.733 E0.03404
G1 X77.267 Y73.949 E0.29221
G1 X76.573 Y73.949 E0.03404
G1 X73.051 Y70.427 E0.24408
G1 X73.051 Y71.122 E0.03404
G1 X75.878 Y73.949 E0.19594
G1 X75.184 Y73.949 E0.03404
G1 X73.051 Y71.816 E0.14781
G1 X73.051 Y72.511 E0.03404
G1 X74.489 Y73.949 E0.09967
G1 X73.794 Y73.949 E0.03404
G1 X73.051 Y73.206 E0.05154
G1 X73.051 Y73.900 E0.03404
G1 X73.100 Y73.949 E0.00340
G1 F1800.000 E-5.00000
T0
G1 X107.276 Y80.724 F3600.000
G1 E7.00000 F1800.000
G1 X107.276 Y59.276 E1.03646 F540.000
G1 X128.724 Y59.276 E1.03646
G1 X128.724 Y80.724 E1.03646
G1 X107.348 Y80.724 E1.03295
G1 X107.760 Y80.240 F3600.000
G1 X107.760 Y59.760 E0.98965 F378.000
G1 X128.240 Y59.760 E0.98965
G1 X128.240 Y80.240 E0.98965
G1 X107.833 Y80.240 E0.98614
G1 X107.276 Y80.240 F3600.000
G1 X103.724 Y84.276 F3600.000
G1 X103.724 Y55.724 E1.37969 F540.000
G1 X132.276 Y55.724 E1.37969
G1 X132.276 Y84.276 E1.37969
G1 X103.797 Y84.276 E1.37618
G1 X103.240 Y84.760 F3600.000
G1 X103.240 Y55.240 E1.42649 F378.000
G1 X132.760 Y55.240 E1.42649
G1 X132.760 Y84.760 E1.42649
G1 X103.313 Y84.760 E1.42298
G1 X103.482 Y84.341 F3600.000
G1 X104.100 Y83.949 F3600.000
G1 X104.051 Y83.900 E0.00334 F720.000
G1 X104.051 Y83.213 E0.03336
G1 X104.787 Y83.949 E0.05052
G1 X105.475 Y83.949 E0.03336
G1 X104.051 Y82.525 E0.09770
G1 X104.051 Y81.837 E0.03336
G1 X106.163 Y83.949 E0.14488
G1 X106.850 Y83.949 E0.03336
G1 X104.051 Y81.150 E0.19206
G1 X104.051 Y80.462 E0.03336
G1 X107.538 Y83.949 E0.23924
G1 X108.226 Y83.949 E0.03336
G1 X104.051 Y79.774 E0.28642
G1 X104.051 Y79.087 E0.03336
G1 X108.913 Y83.949 E0.33360
G1 X109.601 Y83.949 E0.03336
G1 X104.051 Y78.399 E0.38078
G1 X104.051 Y77.712 E0.03336
G1 X106.949 Y80.609 E0.19883
G1 X107.391 Y81.051 F3600.000
G1 X110.288 Y83.949 E0.19883 F720.000
G1 X110.976 Y83.949 E0.03336
G1 X108.078 Y81.051 E0.19883
G1 X108.766 Y81.051 E0.03336
G1 X111.664 Y83.949 E0.19883
G1 X112.351 Y83.949 E0.03336
G1 X109.453 Y81.051 E0.19883
G1 X110.141 Y81.051 E0.03336
G1 X113.039 Y83.949 E0.19883
G1 X113.727 Y83.949 E0.03336
G1 X110.829 Y81.051 E0.19883
G1 X111.516 Y81.051 E0.03336
G1 X114.414 Y83.949 E0.19883
G1 X115.102 Y83.949 E0.03336
G1 X112.204 Y81.051 E0.19883
G1 X112.892 Y81.051 E0.03336
G1 X115.789 Y83.949 E0.19883
G1 X116.477 Y83.949 E0.03336
G1 X113.579 Y81.051 E0.19883
G1 X114.267 Y81.051 E0.03336
G1 X117.165 Y83.949 E0.19883
G1 X117.852 Y83.949 E0.03336
G1 X114.955 Y81.051 E0.19883
G1 X115.642 Y81.051 E0.03336
G1 X118.540 Y83.949 E0.19883
G1 X119.228 Y83.949 E0.03336
G1 X116.330 Y81.051 E0.19883
G1 X117.017 Y81.051 E0.03336
G1 X119.915 Y83.949 E0.19883
G1 X120.603 Y83.949 E0.03336
G1 X117.705 Y81.051 E0.19883
G1 X118.393 Y81.051 E0.03336
G1 X121.291 Y83.949 E0.19883
G1 X121.978 Y83.949 E0.03336
G1 X119.080 Y81.051 E0.19883
G1 X119.768 Y81.051 E0.03336
G1 X122.666 Y83.949 E0.19883
G1 X123.353 Y83.949 E0.03336
G1 X120.456 Y81.051 E0.19883
G1 X121.143 Y81.051 E0.03336
G1 X124.041 Y83.949 E0.19883
G1 X124.729 Y83.949 E0.03336
