; generated by Slic3r 0.9.8-dev on 2013-01-15 at 09:14:06

; layer_height = 0.4
; perimeters = 2
; top_solid_layers = 3
; bottom_solid_layers = 2
; fill_density = 0.2
; perimeter_speed = 32
; infill_speed = 50
; travel_speed = 250
; scale = 1
; nozzle_diameter = 0.5
; filament_diameter = 1.75
; extrusion_multiplier = 0.88
; perimeters extrusion width = 0.50mm
; infill extrusion width = 0.50mm
; first layer extrusion width = 0.50mm

M107
M190 S57 ; wait for bed temperature to be reached
M104 S200 ; set temperature
G28 X0 Y0
G1 X75 Y75 F12000
G28 Z0
G1 Z0.3 F200
G1 X15 Y20 F12000
M109 S200 ; wait for temperature to be reached
G90 ; use absolute coordinates
G21 ; set units to millimeters
G92 E0
M82 ; use absolute distances for extrusion
G1 F4800.000 E-2.40000
G92 E0
G1 Z0.400 F15000.000
G1 X44.050 Y43.240
G1 X44.430 Y42.870 F4800.000 E2.40000
G1 X44.430 Y42.870 F1920.000
G1 X45.050 Y42.390 E2.45737
G1 X45.720 Y41.980 E2.51485
G1 X46.190 Y41.760 E2.55282
G1 X46.680 Y41.570 E2.59128
G1 X47.440 Y41.370 E2.64878
G1 X47.700 Y41.320 E2.66816
G1 X48.220 Y41.260 E2.70646
G1 X48.740 Y41.240 E2.74454
G1 X165.250 Y41.240 E11.26984
G1 X165.770 Y41.260 E11.30792
G1 X166.290 Y41.320 E11.34622
G1 X166.810 Y41.430 E11.38511
G1 X167.310 Y41.570 E11.42310
G1 X167.550 Y41.660 E11.44186
G1 X168.040 Y41.870 E11.48087
G1 X168.500 Y42.110 E11.51883
G1 X169.150 Y42.540 E11.57586
G1 X169.560 Y42.870 E11.61437
G1 X170.120 Y43.430 E11.67232
G1 X170.450 Y43.840 E11.71083
G1 X170.880 Y44.490 E11.76786
G1 X171.010 Y44.720 E11.78719
G1 X171.230 Y45.190 E11.82516
G1 X171.420 Y45.680 E11.86362
G1 X171.620 Y46.440 E11.92112
G1 X171.670 Y46.700 E11.94050
G1 X171.730 Y47.220 E11.97880
G1 X171.750 Y47.740 E12.01688
G1 X171.750 Y156.250 E19.95680
G1 X171.730 Y156.770 E19.99488
G1 X171.670 Y157.290 E20.03318
G1 X171.560 Y157.810 E20.07207
G1 X171.420 Y158.310 E20.11007
G1 X171.330 Y158.550 E20.12882
G1 X171.120 Y159.040 E20.16783
G1 X170.880 Y159.500 E20.20580
G1 X170.450 Y160.150 E20.26282
G1 X170.120 Y160.560 E20.30134
G1 X169.560 Y161.120 E20.35928
G1 X169.150 Y161.450 E20.39780
G1 X168.500 Y161.880 E20.45482
G1 X168.270 Y162.010 E20.47416
G1 X167.800 Y162.230 E20.51213
G1 X167.310 Y162.420 E20.55058
G1 X166.550 Y162.620 E20.60809
G1 X166.290 Y162.670 E20.62746
G1 X165.770 Y162.730 E20.66576
G1 X165.250 Y162.750 E20.70384
G1 X48.740 Y162.750 E29.22914
G1 X48.220 Y162.730 E29.26722
G1 X47.700 Y162.670 E29.30552
G1 X47.180 Y162.560 E29.34442
G1 X46.680 Y162.420 E29.38241
G1 X46.440 Y162.330 E29.40116
G1 X45.950 Y162.120 E29.44017
G1 X45.490 Y161.880 E29.47814
G1 X44.840 Y161.450 E29.53517
G1 X44.430 Y161.120 E29.57368
G1 X43.870 Y160.560 E29.63163
G1 X43.540 Y160.150 E29.67014
G1 X43.110 Y159.500 E29.72717
G1 X42.980 Y159.270 E29.74650
G1 X42.760 Y158.800 E29.78447
G1 X42.570 Y158.310 E29.82292
G1 X42.370 Y157.550 E29.88043
G1 X42.320 Y157.290 E29.89980
G1 X42.260 Y156.770 E29.93810
G1 X42.240 Y156.250 E29.97618
G1 X42.240 Y47.740 E37.91611
G1 X42.260 Y47.220 E37.95419
G1 X42.320 Y46.700 E37.99249
G1 X42.430 Y46.180 E38.03138
G1 X42.570 Y45.680 E38.06937
G1 X42.660 Y45.440 E38.08813
G1 X42.870 Y44.950 E38.12714
G1 X43.110 Y44.490 E38.16510
G1 X43.540 Y43.840 E38.22213
G1 X43.998 Y43.294 E38.27427
G1 X44.050 Y43.240 E38.27976
G1 F4800.000 E35.87976
G92 E0
G1 X62.691 Y86.366 F15000.000
G1 X63.291 Y86.366 F4800.000 E2.40000
G1 X71.384 Y86.366 F780.000 E2.99221
G1 X71.384 Y91.634 E3.37770
G1 X62.616 Y91.634 E4.01930
G1 X62.616 Y86.816 E4.37186
G1 X62.691 Y86.366
G1 X63.191 Y86.866 F15000.000
G1 X70.884 Y86.866 F780.000 E4.93480
G1 X70.884 Y91.134 E5.24712
G1 X63.116 Y91.134 E5.81554
G1 X63.116 Y86.941 E6.12238
G1 X63.191 Y86.866 E6.13014
G1 X62.616 Y86.816 F4800.000 E3.73014
G92 E0
G1 X120.457 Y85.676 F15000.000
G1 X120.551 Y85.083 F4800.000 E2.40000
G1 X120.570 Y84.960 F960.000 E2.40910
G1 X120.933 Y84.248 E2.46759
G1 X121.498 Y83.683 E2.52609
G1 X122.210 Y83.320 E2.58458
G1 X123.000 Y83.195 E2.64307
G1 X123.790 Y83.320 E2.70157
G1 X124.502 Y83.683 E2.76006
G1 X125.067 Y84.248 E2.81855
G1 X125.623 Y85.339 E2.90810
G1 X125.623 Y75.873 E3.60074
G1 X150.377 Y75.873 E5.41210
G1 X150.377 Y85.339 E6.10476
G1 X150.933 Y84.248 E6.19431
G1 X151.498 Y83.683 E6.25280
G1 X152.210 Y83.320 E6.31130
G1 X153.000 Y83.195 E6.36979
G1 X153.790 Y83.320 E6.42829
G1 X154.502 Y83.683 E6.48678
G1 X155.067 Y84.248 E6.54527
G1 X155.430 Y84.960 E6.60377
G1 X155.555 Y85.750 E6.66226
G1 X155.430 Y86.540 E6.72075
G1 X155.067 Y87.252 E6.77925
G1 X154.502 Y87.817 E6.83774
G1 X153.790 Y88.180 E6.89623
G1 X153.000 Y88.305 E6.95472
G1 X152.210 Y88.180 E7.01322
G1 X151.498 Y87.817 E7.07171
G1 X150.933 Y87.252 E7.13021
G1 X150.377 Y86.161 E7.21976
G1 X150.377 Y95.627 E7.91241
G1 X125.623 Y95.627 E9.72378
G1 X125.623 Y86.161 E10.41642
G1 X125.067 Y87.252 E10.50597
G1 X124.502 Y87.817 E10.56446
G1 X123.790 Y88.180 E10.62295
G1 X123.000 Y88.305 E10.68144
G1 X122.210 Y88.180 E10.73994
G1 X121.498 Y87.817 E10.79843
G1 X120.933 Y87.252 E10.85692
G1 X120.570 Y86.540 E10.91541
G1 X120.515 Y86.194 E10.94098
G1 X120.457 Y85.676
G1 X120.963 Y85.676 F15000.000
G1 X121.051 Y85.117 F780.000 E10.98240
G1 X121.342 Y84.546 E11.02930
G1 X121.796 Y84.092 E11.07620
G1 X122.367 Y83.801 E11.12311
G1 X123.000 Y83.701 E11.17001
G1 X123.633 Y83.801 E11.21692
G1 X124.204 Y84.092 E11.26382
G1 X124.657 Y84.546 E11.31072
G1 X124.949 Y85.117 E11.35763
G1 X125.049 Y85.750 E11.40453
G1 X124.949 Y86.383 E11.45143
G1 X124.657 Y86.954 E11.49834
G1 X124.204 Y87.408 E11.54524
G1 X123.633 Y87.699 E11.59215
G1 X123.000 Y87.799 E11.63905
G1 X122.367 Y87.699 E11.68596
G1 X121.796 Y87.408 E11.73286
G1 X121.342 Y86.954 E11.77976
G1 X121.051 Y86.383 E11.82666
G1 X120.963 Y85.824 E11.86808
G1 X120.963 Y85.676 E11.87892
G1 X120.515 Y86.194 F4800.000 E9.47892
G92 E0
G1 X150.963 Y85.676 F15000.000
G1 X151.051 Y85.117 F4800.000 E2.40000
G1 X151.051 Y85.117 F1560.000
G1 X151.342 Y84.546 E2.44690
G1 X151.796 Y84.092 E2.49381
G1 X152.367 Y83.801 E2.54071
G1 X153.000 Y83.701 E2.58761
G1 X153.633 Y83.801 E2.63452
G1 X154.204 Y84.092 E2.68142
G1 X154.657 Y84.546 E2.72832
G1 X154.949 Y85.117 E2.77523
G1 X155.049 Y85.750 E2.82213
G1 X154.949 Y86.383 E2.86904
G1 X154.657 Y86.954 E2.91594
G1 X154.204 Y87.408 E2.96285
G1 X153.633 Y87.699 E3.00975
G1 X153.000 Y87.799 E3.05665
G1 X152.367 Y87.699 E3.10356
G1 X151.796 Y87.408 E3.15046
G1 X151.342 Y86.954 E3.19736
G1 X151.051 Y86.383 E3.24427
G1 X150.963 Y85.824 E3.28568
G1 X150.963 Y85.676 E3.29652
G1 X150.463 Y85.824 F4800.000 E0.89652
G92 E0
G1 X149.877 Y76.448 F15000.000
G1 X149.877 Y77.048 F4800.000 E2.40000
G1 X149.877 Y95.127 F780.000 E3.72294
G1 X126.123 Y95.127 E5.46113
G1 X126.123 Y76.373 E6.83346
G1 X149.802 Y76.373 E8.56616
G1 X149.877 Y76.448 E8.57392
G1 X149.863 Y76.869 F4800.000 E6.17392
G92 E0
G1 X164.675 Y100.250 F15000.000
G1 X164.075 Y100.250 F4800.000 E2.40000
G1 X49.250 Y100.250 F960.000 E10.80201
G1 X49.250 Y48.250 E14.60697
G1 X164.750 Y48.250 E23.05837
G1 X164.750 Y99.800 E26.83040
G1 X164.675 Y100.250
G1 X165.175 Y100.750 F15000.000
G1 X48.750 Y100.750 F780.000 E35.34949
G1 X48.750 Y47.750 E39.22762
G1 X165.250 Y47.750 E47.75219
G1 X165.250 Y100.675 E51.62483
G1 X165.175 Y100.750 E51.63260
G1 X164.750 Y99.800 F4800.000 E49.23260
G92 E0
G1 X164.409 Y88.516 F15000.000
G1 X163.985 Y88.092 F4800.000 E2.40000
G1 X124.484 Y48.591 F1200.000 E6.48853
G1 X125.191 Y48.591 E6.54028
G1 X164.409 Y87.809 E10.59952
G1 X164.409 Y87.102 E10.65128
G1 X125.898 Y48.591 E14.63732
G1 X126.606 Y48.591 E14.68909
G1 X164.409 Y86.395 E18.60193
G1 X164.409 Y85.687 E18.65368
G1 X127.313 Y48.591 E22.49333
G1 X128.020 Y48.591 E22.54509
G1 X164.409 Y84.980 E26.31146
G1 X164.409 Y84.273 E26.36322
G1 X128.727 Y48.591 E30.05640
G1 X129.435 Y48.591 E30.10821
G1 X164.409 Y83.565 E33.72819
G1 X164.409 Y82.858 E33.77993
G1 X130.142 Y48.591 E37.32674
G1 X130.849 Y48.591 E37.37850
G1 X164.409 Y82.151 E40.85209
G1 X164.409 Y81.443 E40.90385
G1 X131.557 Y48.591 E44.30424
G1 X132.264 Y48.591 E44.35600
G1 X164.409 Y80.736 E47.68318
G1 X164.409 Y80.029 E47.73494
G1 X132.971 Y48.591 E50.98891
G1 X133.678 Y48.591 E51.04067
G1 X164.409 Y79.322 E54.22144
G1 X164.409 Y78.615 E54.27320
G1 X134.385 Y48.591 E57.38077
G1 X135.093 Y48.590 E57.43258
G1 X164.410 Y77.907 E60.46695
G1 X164.410 Y77.200 E60.51870
G1 X135.800 Y48.591 E63.47987
G1 X136.508 Y48.591 E63.53162
G1 X164.409 Y76.492 E66.41958
G1 X164.409 Y75.785 E66.47133
G1 X137.215 Y48.591 E69.28608
G1 X137.922 Y48.591 E69.33785
G1 X164.409 Y75.078 E72.07938
G1 X164.409 Y74.371 E72.13114
G1 X138.629 Y48.591 E74.79948
G1 X139.336 Y48.591 E74.85123
G1 X164.409 Y73.664 E77.44637
G1 X164.409 Y72.956 E77.49812
G1 X140.044 Y48.591 E80.02005
G1 X140.751 Y48.591 E80.07181
G1 X164.409 Y72.249 E82.52053
G1 X164.410 Y71.541 E82.57234
G1 X141.459 Y48.590 E84.94787
G1 X142.166 Y48.591 E84.99962
G1 X164.409 Y70.834 E87.30193
G1 X164.409 Y70.127 E87.35369
G1 X142.873 Y48.591 E89.58280
G1 X143.580 Y48.591 E89.63456
G1 X164.409 Y69.420 E91.79046
G1 X164.409 Y68.713 E91.84222
G1 X144.287 Y48.591 E93.92491
G1 X144.995 Y48.591 E93.97667
G1 X164.409 Y68.005 E95.98616
G1 X164.409 Y67.298 E96.03792
G1 X145.702 Y48.591 E97.97421
G1 X146.409 Y48.591 E98.02596
G1 X164.409 Y66.591 E99.88905
G1 X164.409 Y65.884 E99.94080
G1 X147.116 Y48.591 E101.73068
G1 X147.824 Y48.590 E101.78249
G1 X164.410 Y65.176 E103.49917
G1 X164.409 Y64.469 E103.55093
G1 X148.531 Y48.591 E105.19440
G1 X149.238 Y48.591 E105.24616
G1 X164.409 Y63.762 E106.81642
G1 X164.409 Y63.054 E106.86818
G1 X149.946 Y48.591 E108.36523
G1 X150.653 Y48.591 E108.41699
G1 X164.409 Y62.347 E109.84084
G1 X164.409 Y61.640 E109.89260
G1 X151.360 Y48.591 E111.24324
G1 X152.067 Y48.591 E111.29500
G1 X164.409 Y60.933 E112.57244
G1 X164.409 Y60.226 E112.62420
G1 X152.774 Y48.591 E113.82844
G1 X153.482 Y48.591 E113.88020
G1 X164.409 Y59.518 E115.01123
G1 X164.410 Y58.811 E115.06305
G1 X154.189 Y48.590 E116.12087
G1 X154.897 Y48.591 E116.17263
G1 X164.409 Y58.103 E117.15725
G1 X164.409 Y57.396 E117.20901
G1 X155.604 Y48.591 E118.12043
G1 X156.311 Y48.591 E118.17219
G1 X164.409 Y56.689 E119.01040
G1 X164.409 Y55.982 E119.06215
G1 X157.018 Y48.591 E119.82716
G1 X157.725 Y48.591 E119.87892
G1 X164.409 Y55.275 E120.57072
G1 X164.409 Y54.567 E120.62248
G1 X158.433 Y48.591 E121.24107
G1 X159.140 Y48.591 E121.29283
G1 X164.409 Y53.860 E121.83823
G1 X164.409 Y53.153 E121.88999
G1 X159.847 Y48.591 E122.36217
G1 X160.555 Y48.590 E122.41398
G1 X164.410 Y52.445 E122.81296
G1 X164.409 Y51.738 E122.86472
G1 X161.262 Y48.591 E123.19050
G1 X161.969 Y48.591 E123.24226
G1 X164.409 Y51.031 E123.49483
G1 X164.409 Y50.324 E123.54658
G1 X162.676 Y48.591 E123.72595
G1 X163.384 Y48.591 E123.77771
G1 X164.409 Y49.616 E123.88387
G1 X164.409 Y48.909 E123.93562
G1 X164.091 Y48.591 E123.96858
G1 F4800.000 E121.56858
G92 E0
G1 X91.243 Y48.591 F15000.000
G1 X91.667 Y49.015 F4800.000 E2.40000
G1 X125.282 Y82.630 F1200.000 E5.87930
G1 X125.282 Y81.923 E5.93106
G1 X91.950 Y48.591 E9.38107
G1 X92.657 Y48.591 E9.43283
G1 X125.282 Y81.215 E12.80964
G1 X125.282 Y80.508 E12.86140
G1 X93.364 Y48.591 E16.16500
G1 X94.072 Y48.591 E16.21676
G1 X125.282 Y79.801 E19.44716
G1 X125.282 Y79.094 E19.49892
G1 X94.779 Y48.591 E22.65612
G1 X95.486 Y48.591 E22.70787
G1 X125.282 Y78.387 E25.79187
G1 X125.282 Y77.680 E25.84363
G1 X96.193 Y48.591 E28.85442
G1 X96.900 Y48.591 E28.90618
G1 X125.281 Y76.972 E31.84376
G1 X125.282 Y76.264 E31.89557
G1 X97.608 Y48.591 E34.75994
G1 X98.315 Y48.591 E34.81169
G1 X125.282 Y75.557 E37.60286
G1 X125.964 Y75.532 E37.65278
G1 X99.023 Y48.591 E40.44130
G1 X99.730 Y48.591 E40.49306
G1 X126.671 Y75.532 E43.28158
G1 X127.378 Y75.532 E43.33333
G1 X100.437 Y48.591 E46.12185
G1 X101.144 Y48.591 E46.17361
G1 X128.085 Y75.532 E48.96213
G1 X128.792 Y75.532 E49.01388
G1 X101.851 Y48.591 E51.80240
G1 X102.559 Y48.591 E51.85417
G1 X129.500 Y75.532 E54.64268
G1 X130.207 Y75.532 E54.69443
G1 X103.266 Y48.591 E57.48294
G1 X103.974 Y48.591 E57.53475
G1 X130.915 Y75.532 E60.32327
G1 X131.622 Y75.532 E60.37503
G1 X104.681 Y48.591 E63.16355
G1 X105.388 Y48.591 E63.21530
G1 X132.329 Y75.532 E66.00382
G1 X133.036 Y75.532 E66.05558
G1 X106.095 Y48.591 E68.84410
G1 X106.802 Y48.591 E68.89586
G1 X133.743 Y75.532 E71.68437
G1 X134.451 Y75.532 E71.73613
G1 X107.509 Y48.591 E74.52465
G1 X108.217 Y48.591 E74.57641
G1 X135.158 Y75.532 E77.36493
G1 X135.865 Y75.532 E77.41668
G1 X108.924 Y48.591 E80.20519
G1 X109.631 Y48.591 E80.25695
G1 X136.572 Y75.532 E83.04547
G1 X137.280 Y75.532 E83.09728
G1 X110.339 Y48.591 E85.88580
G1 X111.046 Y48.591 E85.93755
G1 X137.987 Y75.532 E88.72607
G1 X138.694 Y75.532 E88.77783
G1 X111.753 Y48.591 E91.56635
G1 X112.460 Y48.591 E91.61811
G1 X139.402 Y75.532 E94.40662
G1 X140.109 Y75.532 E94.45838
G1 X113.168 Y48.591 E97.24690
G1 X113.875 Y48.591 E97.29866
G1 X140.816 Y75.532 E100.08718
G1 X141.523 Y75.532 E100.13893
G1 X114.582 Y48.591 E102.92744
G1 X115.289 Y48.591 E102.97920
G1 X142.230 Y75.532 E105.76771
G1 X142.938 Y75.532 E105.81948
G1 X115.996 Y48.591 E108.60799
G1 X116.704 Y48.591 E108.65980
G1 X143.645 Y75.532 E111.44832
G1 X144.353 Y75.532 E111.50008
G1 X117.412 Y48.591 E114.28860
G1 X118.119 Y48.591 E114.34035
G1 X145.060 Y75.532 E117.12887
G1 X145.767 Y75.532 E117.18063
G1 X118.826 Y48.591 E119.96915
G1 X119.533 Y48.591 E120.02091
G1 X146.474 Y75.532 E122.80942
G1 X147.181 Y75.532 E122.86118
G1 X120.240 Y48.591 E125.64969
G1 X120.947 Y48.591 E125.70145
G1 X147.888 Y75.532 E128.48996
G1 X148.596 Y75.532 E128.54172
G1 X121.655 Y48.591 E131.33024
G1 X122.362 Y48.591 E131.38200
G1 X149.303 Y75.532 E134.17052
G1 X150.011 Y75.532 E134.22233
G1 X123.070 Y48.591 E137.01084
G1 X123.777 Y48.591 E137.06260
G1 X150.718 Y75.532 E139.85112
G1 F4800.000 E137.45112
G92 E0
G1 X120.586 Y84.299 F15000.000
G1 X120.162 Y83.875 F4800.000 E2.40000
G1 X84.877 Y48.591 F1200.000 E6.05210
G1 X84.170 Y48.591 E6.10392
G1 X120.347 Y84.768 E9.84843
G1 X120.191 Y85.320 E9.89036
G1 X83.462 Y48.591 E13.69195
G1 X82.755 Y48.591 E13.74371
G1 X120.102 Y85.938 E17.60931
G1 X120.236 Y86.778 E17.67158
G1 X82.048 Y48.591 E21.62416
G1 F4800.000 E19.22416
G92 E0
G1 X121.247 Y83.546 F15000.000
G1 X120.823 Y83.121 F4800.000 E2.40000
G1 X86.292 Y48.591 F1200.000 E5.97408
G1 X85.585 Y48.591 E6.02584
G1 X120.893 Y83.899 E9.68044
G1 F4800.000 E7.28044
G92 E0
G1 X125.281 Y83.338 F15000.000
G1 X124.857 Y82.913 F4800.000 E2.40000
G1 X90.535 Y48.591 F1200.000 E5.95251
G1 X89.828 Y48.591 E6.00427
G1 X124.370 Y83.133 E9.57952
G1 X123.419 Y82.889 E9.65135
G1 X89.121 Y48.591 E13.20138
G1 X88.413 Y48.591 E13.25314
G1 X122.737 Y82.915 E16.80582
G1 X122.147 Y83.031 E16.84987
G1 X87.706 Y48.591 E20.41464
G1 X86.999 Y48.591 E20.46639
G1 X121.678 Y83.270 E24.05587
G1 F4800.000 E21.65587
G92 E0
G1 X125.282 Y96.068 F15000.000
G1 X124.857 Y95.644 F4800.000 E2.40000
G1 X77.804 Y48.591 F1200.000 E7.27021
G1 X78.512 Y48.590 E7.32202
G1 X125.282 Y95.361 E12.16294
G1 X125.282 Y94.653 E12.21470
G1 X79.219 Y48.591 E16.98240
G1 X79.926 Y48.591 E17.03416
G1 X125.282 Y93.946 E21.72866
G1 X125.282 Y93.239 E21.78041
G1 X80.634 Y48.591 E26.40171
G1 X81.341 Y48.591 E26.45347
G1 X125.282 Y92.532 E31.00156
G1 X125.282 Y91.825 E31.05332
G1 X121.972 Y88.514 E31.39593
G1 X122.812 Y88.648 E31.45820
G1 X125.282 Y91.117 E31.71384
G1 X125.282 Y90.410 E31.76560
G1 X123.430 Y88.559 E31.95723
G1 X123.982 Y88.403 E31.99916
G1 X125.282 Y89.703 E32.13371
G1 X125.282 Y88.995 E32.18553
G1 X124.451 Y88.164 E32.27157
G1 X124.919 Y87.925 E32.31005
G1 X125.282 Y88.288 E32.34761
G1 F4800.000 E29.94761
G92 E0
G1 X71.388 Y86.025 F15000.000
G1 X70.964 Y85.601 F4800.000 E2.40000
G1 X49.591 Y64.228 F1200.000 E4.61222
G1 X49.591 Y63.520 E4.66399
G1 X85.980 Y99.909 E8.43040
G1 X86.687 Y99.909 E8.48216
G1 X49.591 Y62.813 E12.32178
G1 X49.591 Y62.106 E12.37354
G1 X87.394 Y99.909 E16.28637
G1 X88.101 Y99.909 E16.33813
G1 X49.591 Y61.399 E20.32416
G1 X49.591 Y60.691 E20.37592
G1 X88.809 Y99.909 E24.43516
G1 X89.516 Y99.909 E24.48693
G1 X49.591 Y59.984 E28.61937
G1 X49.591 Y59.277 E28.67113
G1 X90.223 Y99.909 E32.87678
G1 X90.931 Y99.909 E32.92854
