; generated by Slic3r 0.9.8-dev on 2012-12-21 at 15:39:25

; layer_height = 0.3
; perimeters = 2
; top_solid_layers = 3
; bottom_solid_layers = 2
; fill_density = 0.2
; perimeter_speed = 32
; infill_speed = 50
; travel_speed = 250
; scale = 1
; nozzle_diameter = 0.5
; filament_diameter = 1.75
; extrusion_multiplier = 0.9
; perimeters extrusion width = 0.50mm
; infill extrusion width = 0.50mm
; first layer extrusion width = 0.50mm

M107
M190 S57 ; wait for bed temperature to be reached
M104 S200 ; set temperature
G28 X0 Y0
G1 X75 Y75 F12000
G28 Z0
G1 Z0.3 F200
G1 X15 Y20 F12000
M109 S200 ; wait for temperature to be reached
G90 ; use absolute coordinates
G21 ; set units to millimeters
M83 ; use relative distances for extrusion
G1 F2760.000 E-3.20000
G1 Z0.300 F15000.000
G1 X61.550 Y71.870
G1 X61.960 Y71.540 F2760.000 E3.20000
G1 X61.960 Y71.540 F1920.000
G1 X62.610 Y71.110 E0.04374
G1 X63.070 Y70.870 E0.02912
G1 X63.560 Y70.660 E0.02992
G1 X63.800 Y70.570 E0.01439
G1 X64.300 Y70.430 E0.02914
G1 X64.820 Y70.320 E0.02983
G1 X65.340 Y70.260 E0.02938
G1 X65.860 Y70.240 E0.02921
G1 X107.970 Y70.240 E2.36349
G1 X151.790 Y70.660 E2.45958
G1 X152.630 Y70.720 E0.04727
G1 X153.180 Y70.820 E0.03138
G1 X153.980 Y71.060 E0.04688
G1 X154.240 Y71.160 E0.01564
G1 X154.750 Y71.400 E0.03164
G1 X155.230 Y71.680 E0.03119
G1 X155.690 Y72.000 E0.03145
G1 X156.320 Y72.550 E0.04694
G1 X158.680 Y74.900 E0.18693
G1 X159.040 Y75.300 E0.03020
G1 X159.370 Y75.720 E0.02998
G1 X159.670 Y76.170 E0.03036
G1 X159.930 Y76.650 E0.03064
G1 X160.240 Y77.390 E0.04503
G1 X160.390 Y77.910 E0.03038
G1 X160.500 Y78.440 E0.03038
G1 X160.570 Y78.970 E0.03001
G1 X160.590 Y79.510 E0.03033
G1 X160.590 Y116.300 E2.06489
G1 X160.570 Y116.840 E0.03033
G1 X160.450 Y117.630 E0.04485
G1 X160.240 Y118.410 E0.04534
G1 X160.150 Y118.660 E0.01491
G1 X159.930 Y119.150 E0.03015
G1 X159.810 Y119.390 E0.01506
G1 X159.530 Y119.860 E0.03071
G1 X159.220 Y120.290 E0.02975
G1 X158.690 Y120.900 E0.04535
G1 X156.330 Y123.260 E0.18732
G1 X155.930 Y123.620 E0.03020
G1 X155.280 Y124.110 E0.04569
G1 X154.570 Y124.510 E0.04574
G1 X154.080 Y124.720 E0.02992
G1 X153.570 Y124.900 E0.03036
G1 X152.780 Y125.080 E0.04548
G1 X152.240 Y125.140 E0.03049
G1 X93.920 Y129.730 E3.28342
G1 X93.410 Y129.750 E0.02865
G1 X73.810 Y129.750 E1.10008
G1 X73.260 Y129.730 E0.03089
G1 X72.980 Y129.700 E0.01581
G1 X72.160 Y129.540 E0.04689
G1 X71.370 Y129.280 E0.04668
G1 X70.870 Y129.050 E0.03089
G1 X70.390 Y128.780 E0.03091
G1 X69.710 Y128.290 E0.04704
G1 X69.290 Y127.930 E0.03105
G1 X68.910 Y127.520 E0.03138
G1 X64.330 Y121.810 E0.41084
G1 X63.850 Y121.110 E0.04764
G1 X63.700 Y120.860 E0.01636
G1 X63.450 Y120.350 E0.03188
G1 X63.340 Y120.080 E0.01636
G1 X63.160 Y119.540 E0.03195
G1 X62.980 Y118.710 E0.04767
G1 X59.400 Y84.430 E1.93448
G1 X59.360 Y83.750 E0.03823
G1 X59.360 Y76.740 E0.39345
G1 X59.380 Y76.220 E0.02921
G1 X59.440 Y75.700 E0.02938
G1 X59.550 Y75.180 E0.02983
G1 X59.690 Y74.680 E0.02914
G1 X59.880 Y74.190 E0.02950
G1 X60.100 Y73.720 E0.02913
G1 X60.230 Y73.490 E0.01483
G1 X60.660 Y72.840 E0.04374
G1 X60.990 Y72.430 E0.02954
G1 X61.496 Y71.922 E0.04024
G1 X61.550 Y71.870 E0.00421
G1 F2760.000 E-3.20000
G1 X101.670 Y79.394 F15000.000
G1 X102.095 Y78.969 F2760.000 E3.20000
G1 X103.107 Y77.957 F780.000 E0.08034
G1 X105.213 Y77.957 E0.11823
G1 X106.703 Y79.447 E0.11823
G1 X106.703 Y81.553 E0.11823
G1 X105.213 Y83.043 E0.11823
G1 X103.107 Y83.043 E0.11823
G1 X101.617 Y81.553 E0.11823
G1 X101.617 Y79.897 E0.09297
G1 X101.670 Y79.394
G1 X102.170 Y79.601 F15000.000
G1 X103.314 Y78.457 F780.000 E0.09077
G1 X105.006 Y78.457 E0.09498
G1 X106.203 Y79.654 E0.09498
G1 X106.203 Y81.346 E0.09498
G1 X105.006 Y82.543 E0.09498
G1 X103.314 Y82.543 E0.09498
G1 X102.117 Y81.346 E0.09498
G1 X102.117 Y79.729 E0.09077
G1 X102.170 Y79.601 E0.00778
G1 X101.617 Y79.897 F2760.000 E-3.20000
G1 X75.703 Y79.522 F15000.000
G1 X75.703 Y80.122 F2760.000 E3.20000
G1 X75.703 Y81.553 F780.000 E0.08034
G1 X74.213 Y83.043 E0.11823
G1 X72.107 Y83.043 E0.11823
G1 X70.617 Y81.554 E0.11821
G1 X70.617 Y79.446 E0.11829
G1 X72.107 Y77.957 E0.11821
G1 X74.213 Y77.957 E0.11823
G1 X75.385 Y79.129 E0.09297
G1 X75.703 Y79.522
G1 X75.203 Y79.729 F15000.000
G1 X75.203 Y81.346 F780.000 E0.09077
G1 X74.006 Y82.543 E0.09498
G1 X72.314 Y82.543 E0.09498
G1 X71.117 Y81.346 E0.09497
G1 X71.117 Y79.654 E0.09501
G1 X72.314 Y78.457 E0.09497
G1 X74.006 Y78.457 E0.09498
G1 X75.150 Y79.601 E0.09077
G1 X75.203 Y79.729 E0.00778
G1 X75.385 Y79.129 F2760.000 E-3.20000
G1 X77.843 Y107.491 F15000.000
G1 X78.310 Y107.468 F2760.000 E3.20000
G1 X78.310 Y107.468 F1560.000
G1 X78.852 Y107.495 E0.03047
G1 X79.389 Y107.575 E0.03047
G1 X79.916 Y107.707 E0.03047
G1 X80.427 Y107.890 E0.03047
G1 X80.918 Y108.122 E0.03046
G1 X81.383 Y108.401 E0.03047
G1 X81.819 Y108.724 E0.03047
G1 X82.221 Y109.089 E0.03047
G1 X82.586 Y109.491 E0.03047
G1 X82.909 Y109.927 E0.03047
G1 X83.188 Y110.392 E0.03047
G1 X83.420 Y110.883 E0.03047
G1 X83.603 Y111.394 E0.03047
G1 X83.735 Y111.921 E0.03047
G1 X83.815 Y112.458 E0.03047
G1 X83.842 Y113.000 E0.03047
G1 X83.815 Y113.542 E0.03047
G1 X83.735 Y114.079 E0.03047
G1 X83.603 Y114.606 E0.03047
G1 X83.420 Y115.117 E0.03047
G1 X83.188 Y115.608 E0.03047
G1 X82.909 Y116.073 E0.03047
G1 X82.586 Y116.509 E0.03047
G1 X82.221 Y116.911 E0.03047
G1 X81.819 Y117.276 E0.03047
G1 X81.383 Y117.599 E0.03047
G1 X80.918 Y117.878 E0.03047
G1 X80.427 Y118.110 E0.03047
G1 X79.916 Y118.293 E0.03047
G1 X79.389 Y118.425 E0.03047
G1 X78.852 Y118.505 E0.03047
G1 X78.310 Y118.532 E0.03047
G1 X77.768 Y118.505 E0.03047
G1 X77.231 Y118.425 E0.03047
G1 X76.704 Y118.293 E0.03047
G1 X76.193 Y118.110 E0.03047
G1 X75.703 Y117.878 E0.03047
G1 X75.237 Y117.599 E0.03047
G1 X74.801 Y117.276 E0.03047
G1 X74.399 Y116.911 E0.03047
G1 X74.034 Y116.509 E0.03047
G1 X73.711 Y116.073 E0.03047
G1 X73.432 Y115.608 E0.03047
G1 X73.200 Y115.117 E0.03047
G1 X73.017 Y114.606 E0.03047
G1 X72.885 Y114.079 E0.03047
G1 X72.805 Y113.542 E0.03047
G1 X72.778 Y113.000 E0.03047
G1 X72.805 Y112.458 E0.03047
G1 X72.885 Y111.921 E0.03047
G1 X73.017 Y111.394 E0.03047
G1 X73.200 Y110.883 E0.03047
G1 X73.432 Y110.392 E0.03047
G1 X73.711 Y109.927 E0.03047
G1 X74.034 Y109.491 E0.03047
G1 X74.399 Y109.089 E0.03047
G1 X74.801 Y108.724 E0.03047
G1 X75.237 Y108.401 E0.03047
G1 X75.702 Y108.122 E0.03047
G1 X76.193 Y107.890 E0.03047
G1 X76.704 Y107.707 E0.03047
G1 X77.231 Y107.575 E0.03047
G1 X77.694 Y107.506 E0.02626
G1 X77.843 Y107.491 E0.00841
G1 X77.706 Y107.004 F15000.000
G1 X77.133 Y107.084 F960.000 E0.03247
G1 X76.559 Y107.228 E0.03323
G1 X76.002 Y107.427 E0.03323
G1 X75.467 Y107.680 E0.03322
G1 X74.959 Y107.984 E0.03323
G1 X74.483 Y108.337 E0.03322
G1 X74.045 Y108.735 E0.03323
G1 X73.647 Y109.173 E0.03323
G1 X73.295 Y109.649 E0.03322
G1 X72.990 Y110.156 E0.03322
G1 X72.737 Y110.692 E0.03323
G1 X72.538 Y111.249 E0.03322
G1 X72.409 Y111.763 E0.02976
G1 X72.307 Y112.409 E0.03668
G1 X72.278 Y113.000 E0.03322
G1 X72.307 Y113.591 E0.03322
G1 X72.394 Y114.177 E0.03322
G1 X72.538 Y114.751 E0.03323
G1 X72.737 Y115.308 E0.03322
G1 X72.990 Y115.844 E0.03323
G1 X73.295 Y116.351 E0.03322
G1 X73.647 Y116.827 E0.03322
G1 X74.038 Y117.258 E0.03268
G1 X69.910 Y117.258 E0.23170
G1 X69.910 Y83.250 E1.90876
G1 X66.361 Y83.250 E0.19922
G1 X66.361 Y77.250 E0.33676
G1 X107.410 Y77.250 E2.30396
G1 X107.410 Y105.250 E1.57154
G1 X96.642 Y105.250 E0.60439
G1 X96.292 Y105.267 E0.01963
G1 X95.928 Y105.321 E0.02066
G1 X95.571 Y105.411 E0.02066
G1 X95.225 Y105.535 E0.02066
G1 X94.892 Y105.692 E0.02066
G1 X94.576 Y105.881 E0.02066
G1 X94.280 Y106.101 E0.02066
G1 X94.008 Y106.348 E0.02066
G1 X93.761 Y106.620 E0.02066
G1 X93.541 Y106.916 E0.02066
G1 X93.352 Y107.232 E0.02066
G1 X93.195 Y107.565 E0.02066
G1 X93.071 Y107.911 E0.02066
G1 X92.981 Y108.268 E0.02066
G1 X92.927 Y108.632 E0.02065
G1 X92.910 Y108.982 E0.01964
G1 X92.910 Y122.750 E0.77276
G1 X86.885 Y122.750 E0.33816
G1 X86.885 Y114.619 E0.45636
G1 X87.666 Y115.400 E0.06198
G1 X89.654 Y115.400 E0.11159
G1 X91.060 Y113.994 E0.11159
G1 X91.060 Y112.006 E0.11159
G1 X89.654 Y110.600 E0.11159
G1 X87.666 Y110.600 E0.11159
G1 X86.885 Y111.381 E0.06198
G1 X86.885 Y99.874 E0.64582
G1 X87.426 Y100.068 E0.03225
G1 X87.831 Y100.169 E0.02341
G1 X88.243 Y100.230 E0.02341
G1 X88.660 Y100.251 E0.02341
G1 X89.077 Y100.230 E0.02341
G1 X89.489 Y100.169 E0.02341
G1 X89.894 Y100.068 E0.02341
G1 X90.287 Y99.927 E0.02341
G1 X90.664 Y99.749 E0.02341
G1 X91.022 Y99.535 E0.02341
G1 X91.357 Y99.286 E0.02341
G1 X91.666 Y99.006 E0.02341
G1 X91.946 Y98.697 E0.02341
G1 X92.195 Y98.362 E0.02341
G1 X92.409 Y98.004 E0.02341
G1 X92.587 Y97.627 E0.02341
G1 X92.728 Y97.234 E0.02341
G1 X92.829 Y96.829 E0.02341
G1 X92.890 Y96.417 E0.02341
G1 X92.911 Y96.000 E0.02341
G1 X92.890 Y95.583 E0.02341
G1 X92.829 Y95.171 E0.02341
G1 X92.728 Y94.766 E0.02341
G1 X92.587 Y94.373 E0.02341
G1 X92.409 Y93.996 E0.02341
G1 X92.195 Y93.638 E0.02341
G1 X91.946 Y93.303 E0.02341
G1 X91.666 Y92.994 E0.02341
G1 X91.357 Y92.714 E0.02341
G1 X91.022 Y92.465 E0.02341
G1 X90.664 Y92.251 E0.02341
G1 X90.287 Y92.073 E0.02341
G1 X89.894 Y91.932 E0.02341
G1 X89.489 Y91.831 E0.02341
G1 X89.077 Y91.770 E0.02341
G1 X88.660 Y91.749 E0.02341
G1 X88.243 Y91.770 E0.02341
G1 X87.831 Y91.831 E0.02341
G1 X87.426 Y91.932 E0.02341
G1 X87.033 Y92.073 E0.02341
G1 X86.656 Y92.251 E0.02341
G1 X86.298 Y92.465 E0.02341
G1 X85.963 Y92.714 E0.02341
G1 X85.654 Y92.994 E0.02341
G1 X85.374 Y93.303 E0.02341
G1 X85.126 Y93.638 E0.02341
G1 X84.911 Y93.996 E0.02341
G1 X84.733 Y94.373 E0.02342
G1 X84.592 Y94.766 E0.02341
G1 X84.471 Y95.250 E0.02800
G1 X84.385 Y95.250 E0.00482
G1 X84.385 Y112.095 E0.94545
G1 X83.883 Y110.692 E0.08366
G1 X83.630 Y110.156 E0.03323
G1 X83.326 Y109.649 E0.03323
G1 X82.973 Y109.173 E0.03322
G1 X82.575 Y108.735 E0.03323
G1 X82.137 Y108.337 E0.03323
G1 X81.661 Y107.984 E0.03322
G1 X81.153 Y107.680 E0.03323
G1 X80.618 Y107.427 E0.03322
G1 X80.061 Y107.228 E0.03323
G1 X79.487 Y107.084 E0.03322
G1 X78.901 Y106.997 E0.03323
G1 X78.310 Y106.968 E0.03323
G1 X78.230 Y106.972 E0.00450
G1 X77.706 Y107.004
G1 F2760.000 E-3.20000
G1 X84.385 Y113.980 F15000.000
G1 X84.385 Y114.580 F2760.000 E3.20000
G1 X84.385 Y122.750 F780.000 E0.45856
G1 X74.310 Y122.750 E0.56547
G1 X74.310 Y117.534 E0.29273
G1 X74.959 Y118.016 E0.04533
G1 X75.467 Y118.320 E0.03323
G1 X76.002 Y118.573 E0.03322
G1 X76.559 Y118.772 E0.03323
G1 X77.133 Y118.916 E0.03323
G1 X77.719 Y119.003 E0.03322
G1 X78.310 Y119.032 E0.03323
G1 X78.901 Y119.003 E0.03322
G1 X79.487 Y118.916 E0.03323
G1 X80.061 Y118.772 E0.03322
G1 X80.618 Y118.573 E0.03323
G1 X81.154 Y118.320 E0.03322
G1 X81.661 Y118.016 E0.03323
G1 X82.183 Y117.621 E0.03667
G1 X82.575 Y117.265 E0.02976
G1 X82.973 Y116.827 E0.03322
G1 X83.326 Y116.351 E0.03323
G1 X83.630 Y115.844 E0.03323
G1 X83.883 Y115.308 E0.03323
G1 X84.233 Y114.329 E0.05840
G1 X84.385 Y113.980
G1 F2760.000 E-3.20000
G1 X86.438 Y113.465 F15000.000
G1 X86.862 Y113.889 F2760.000 E3.20000
G1 X87.873 Y114.900 F780.000 E0.08022
G1 X89.447 Y114.900 E0.08834
G1 X90.560 Y113.787 E0.08834
G1 X90.560 Y112.213 E0.08834
G1 X89.447 Y111.100 E0.08834
G1 X87.873 Y111.100 E0.08834
G1 X86.385 Y112.588 E0.11811
G1 X86.385 Y99.004 E0.76245
G1 X86.892 Y99.307 E0.03318
G1 X87.225 Y99.465 E0.02066
G1 X87.571 Y99.589 E0.02066
G1 X87.928 Y99.678 E0.02066
G1 X88.292 Y99.732 E0.02066
G1 X88.660 Y99.750 E0.02066
G1 X89.028 Y99.732 E0.02066
G1 X89.392 Y99.678 E0.02066
G1 X89.749 Y99.589 E0.02066
G1 X90.095 Y99.465 E0.02066
G1 X90.428 Y99.307 E0.02066
G1 X90.744 Y99.118 E0.02066
G1 X91.039 Y98.899 E0.02066
G1 X91.312 Y98.652 E0.02066
G1 X91.559 Y98.379 E0.02066
G1 X91.778 Y98.084 E0.02066
G1 X91.967 Y97.768 E0.02066
G1 X92.125 Y97.435 E0.02066
G1 X92.249 Y97.089 E0.02066
G1 X92.338 Y96.732 E0.02066
G1 X92.392 Y96.368 E0.02066
G1 X92.410 Y96.000 E0.02066
G1 X92.392 Y95.632 E0.02066
G1 X92.338 Y95.268 E0.02066
G1 X92.249 Y94.911 E0.02066
G1 X92.125 Y94.565 E0.02066
G1 X91.967 Y94.232 E0.02066
G1 X91.778 Y93.916 E0.02066
G1 X91.559 Y93.621 E0.02066
G1 X91.312 Y93.348 E0.02066
G1 X91.039 Y93.101 E0.02066
G1 X90.744 Y92.882 E0.02066
G1 X90.428 Y92.693 E0.02066
G1 X90.095 Y92.535 E0.02066
G1 X89.749 Y92.411 E0.02066
G1 X89.392 Y92.322 E0.02066
G1 X89.028 Y92.268 E0.02066
G1 X88.660 Y92.250 E0.02066
G1 X88.292 Y92.268 E0.02066
G1 X87.928 Y92.322 E0.02066
G1 X87.571 Y92.411 E0.02066
G1 X87.225 Y92.535 E0.02066
G1 X86.892 Y92.693 E0.02066
G1 X86.576 Y92.882 E0.02066
G1 X86.281 Y93.101 E0.02066
G1 X86.008 Y93.348 E0.02066
G1 X85.761 Y93.621 E0.02066
G1 X85.542 Y93.916 E0.02066
G1 X85.353 Y94.232 E0.02066
G1 X85.195 Y94.565 E0.02066
G1 X85.071 Y94.911 E0.02066
G1 X84.982 Y95.268 E0.02066
G1 X84.910 Y95.750 E0.02733
G1 X84.885 Y95.750 E0.00142
G1 X84.885 Y123.250 E1.54348
G1 X73.810 Y123.250 E0.62160
G1 X73.810 Y117.758 E0.30824
G1 X69.410 Y117.758 E0.24696
G1 X69.410 Y83.750 E1.90876
G1 X65.861 Y83.750 E0.19922
G1 X65.861 Y76.750 E0.39289
G1 X107.910 Y76.750 E2.36009
G1 X107.910 Y105.750 E1.62767
G1 X96.654 Y105.750 E0.63177
G1 X96.341 Y105.765 E0.01756
G1 X96.026 Y105.812 E0.01790
G1 X95.717 Y105.890 E0.01790
G1 X95.416 Y105.997 E0.01790
G1 X95.128 Y106.133 E0.01790
G1 X94.854 Y106.297 E0.01790
G1 X94.598 Y106.487 E0.01790
G1 X94.362 Y106.702 E0.01790
G1 X94.148 Y106.938 E0.01790
G1 X93.957 Y107.194 E0.01790
G1 X93.794 Y107.468 E0.01790
G1 X93.657 Y107.756 E0.01790
G1 X93.550 Y108.056 E0.01790
G1 X93.472 Y108.366 E0.01790
G1 X93.425 Y108.681 E0.01790
G1 X93.410 Y108.994 E0.01756
G1 X93.410 Y123.250 E0.80014
G1 X86.385 Y123.250 E0.39429
G1 X86.385 Y113.487 E0.54796
G1 X86.438 Y113.465 E0.00322
G1 X86.811 Y113.183 F15000.000
G1 X86.877 Y113.342 F780.000 E0.00964
G1 X86.759 Y113.067 F15000.000
G1 X86.782 Y113.114 F780.000 E0.00294
G1 X86.759 Y112.933 F15000.000
G1 X86.782 Y112.886 F780.000 E0.00294
G1 X86.811 Y112.817 F15000.000
G1 X86.877 Y112.658 F780.000 E0.00964
G1 X86.782 Y112.886 F2760.000 E-3.20000
G1 X87.226 Y100.820 F15000.000
G1 X87.650 Y101.244 F2760.000 E3.20000
G1 X93.254 Y106.848 F1200.000 E0.44791
G1 X92.999 Y107.305 E0.02958
G1 X87.226 Y101.532 E0.46144
G1 X87.226 Y102.244 E0.04024
G1 X92.792 Y107.810 E0.44491
G1 X92.643 Y108.373 E0.03292
G1 X87.226 Y102.956 E0.43300
G1 X87.226 Y103.668 E0.04024
G1 X92.575 Y109.017 E0.42754
G1 X92.569 Y109.723 E0.03994
G1 X87.226 Y104.380 E0.42710
G1 X87.226 Y105.092 E0.04024
G1 X92.569 Y110.435 E0.42710
G1 X92.569 Y111.147 E0.04024
G1 X87.226 Y105.804 E0.42710
G1 X87.226 Y106.516 E0.04024
G1 X92.569 Y111.859 E0.42710
G1 X92.569 Y112.571 E0.04024
G1 X87.226 Y107.228 E0.42710
G1 X87.226 Y107.940 E0.04024
G1 X89.545 Y110.259 E0.18537
G1 X88.833 Y110.259 E0.04024
G1 X87.226 Y108.652 E0.12845
G1 X87.226 Y109.364 E0.04024
G1 X88.121 Y110.259 E0.07154
G1 F2760.000 E-3.20000
G1 X87.627 Y100.509 F15000.000
G1 X88.051 Y100.933 F2760.000 E3.20000
G1 X93.555 Y106.437 F1200.000 E0.43993
G1 X93.902 Y106.072 E0.02847
G1 X88.419 Y100.588 E0.43832
G1 X89.093 Y100.551 E0.03818
G1 X94.290 Y105.748 E0.41542
G1 X94.721 Y105.466 E0.02907
G1 X89.690 Y100.435 E0.40212
G1 X90.229 Y100.263 E0.03201
G1 X95.196 Y105.230 E0.39701
G1 X95.732 Y105.054 E0.03189
G1 X90.720 Y100.041 E0.40066
G1 X91.164 Y99.774 E0.02933
G1 X96.330 Y104.939 E0.41284
G1 X97.012 Y104.909 E0.03860
G1 X91.568 Y99.466 E0.43511
G1 X91.934 Y99.119 E0.02847
G1 X97.724 Y104.909 E0.46277
G1 X98.436 Y104.909 E0.04024
G1 X92.262 Y98.736 E0.49345
G1 X92.552 Y98.313 E0.02895
G1 X99.148 Y104.909 E0.52722
G1 X99.860 Y104.909 E0.04024
G1 X92.801 Y97.850 E0.56427
G1 X93.004 Y97.341 E0.03095
G1 X100.572 Y104.909 E0.60489
G1 X101.284 Y104.909 E0.04024
G1 X93.157 Y96.782 E0.64957
G1 X93.237 Y96.150 E0.03602
G1 X101.996 Y104.909 E0.70011
G1 X102.708 Y104.909 E0.04024
G1 X93.232 Y95.433 E0.75741
G1 X93.073 Y94.562 E0.05008
G1 X103.420 Y104.909 E0.82708
G1 X104.132 Y104.909 E0.04024
G1 X92.492 Y93.269 E0.93038
G1 X91.391 Y92.168 F15000.000
G1 X76.814 Y77.591 F1200.000 E1.16512
G1 X76.102 Y77.591 E0.04024
G1 X90.098 Y91.587 E1.11873
G1 X89.227 Y91.428 E0.05007
G1 X75.390 Y77.591 E1.10599
G1 X74.678 Y77.591 F15000.000
