; GCode generated by RepRap Java Host Software
; Created: 2012-07-26:16-45-04
;#!RECTANGLE: <BOX x:[l:33.0, h:110.30280303955078], y:[l:34.0, h:95.0]>
M110
G21
G90
T0
M83
M104 S205.0
G92 E0
G28 X0
G28 Y0
G28 Z0
M109 S205.0
G1 X31.0 Y32.0 F2500.0
G1 X112.3 E2.54
G1 Y97.0 E2.03
G1 X31.0 E2.54
G1 Y32.0 E2.03
G1 F5612.6
G1 E-3.12
G1 F2500.0
;#!LAYER: 1/29
G92 E0
G1 Z0.25 F200.0
G1 X69.0 Y46.3 F15000.0
T0
G1 F5612.6
G1 E3.12
G1 F2500.0
G1 F78.0
G1 E0.06
G1 F2500.0
G1 X69.5 Y48.1 E0.06 F2250.0
G1 X70.2 Y48.8 E0.03
G1 X71.0 Y49.1 E0.03
G1 X72.3 E0.04
G1 X73.4 Y48.5 E0.04
G1 X73.9 Y48.0 E0.02
G1 X74.3 Y46.7 E0.04
G1 Y46.0 E0.02
G1 X73.6 Y44.6 E0.05
G1 X73.2 Y44.2 E0.02
G1 X71.6 Y43.7 E0.05
G1 X70.6 Y44.0 E0.03
G1 X69.9 Y44.5 E0.03
G1 X69.3 Y45.1 E0.03
G1 X69.0 Y46.3 E0.04
G1 X69.3 E0.01
G1 X69.7 Y47.8 E0.05
G1 X70.1 Y48.4 E0.02
G1 X71.0 Y48.8 E0.03
G1 X72.2 E0.04
G1 X73.3 Y48.3 E0.04
G1 X73.6 Y47.9 E0.02
G1 X74.0 Y46.9 E0.03
G1 Y46.0 E0.03
G1 X73.4 Y44.8 E0.04
G1 X73.0 Y44.5 E0.02
G1 X71.8 Y44.0 E0.04
G1 X70.6 Y44.3 E0.04
G1 X69.6 Y45.2 E0.04
G1 X69.3 Y46.3 E0.04
G1 F5612.6
G1 E-3.12
G1 F2500.0
G1 X69.0
G1 X101.5 Y44.1 F15000.0
G1 F5612.6
G1 E3.12
G1 F2500.0
G1 F78.0
G1 E0.06
G1 F2500.0
G1 X100.7 Y44.5 E0.03 F2250.0
G1 X100.1 Y45.2 E0.03
G1 X99.8 Y46.0 E0.03
G1 X100.0 Y47.4 E0.04
G1 X100.6 Y48.4 E0.04
G1 X101.7 Y49.0 E0.04
G1 X103.8 E0.07
G1 Y52.5 E0.11
G1 X39.5 E2.0
G1 Y49.0 E0.11
G1 X41.3 E0.06
G1 X42.7 Y48.3 E0.05
G1 X43.1 Y47.9 E0.02
G1 X43.5 Y46.9 E0.03
G1 X43.4 Y45.7 E0.04
G1 X42.8 Y44.8 E0.03
G1 X42.2 Y44.3 E0.02
G1 X41.5 Y44.0 E0.02
G1 X39.5 Y43.9 E0.06
G1 Y40.5 E0.11
G1 X103.8 Y40.6 E2.0
G1 Y44.0 E0.11
G1 X101.5 Y44.1 E0.07
G1 X101.6 Y44.3 E0.01
G1 X100.9 Y44.8 E0.03
G1 X100.4 Y45.4 E0.02
G1 X100.1 Y46.1 E0.02
G1 X100.2 Y47.3 E0.04
G1 X100.7 Y48.0 E0.03
G1 X101.2 Y48.4 E0.02
G1 X101.8 Y48.7 E0.02
G1 X104.1 Y48.8 E0.07
G1 Y52.8 E0.12
G1 X39.2 Y52.7 E2.02
G1 Y48.7 E0.12
G1 X41.3 E0.07
G1 X42.2 Y48.4 E0.03
G1 X42.8 Y47.8 E0.03
G1 X43.2 Y46.9 E0.03
G1 X43.1 Y45.8 E0.03
G1 X42.6 Y45.0 E0.03
G1 X42.1 Y44.6 E0.02
G1 X41.5 Y44.3 E0.02
G1 X39.2 Y44.2 E0.07
G1 Y40.2 E0.12
G1 X104.1 Y40.3 E2.02
G1 X104.0 Y44.3 E0.12
G1 X101.6 E0.07
G1 F5612.6
G1 E-3.12
G1 F2500.0
G1 X101.5 Y44.1
G1 X101.8 Y43.9 F15000.0
G1 F5612.6
G1 E3.12
G1 F2500.0
G1 F78.0
G1 E0.06
G1 F2500.0
G1 X103.7 Y42.1 E0.08
G1 Y42.4 E0.01
G1 X102.3 Y43.9 E0.06
G1 X102.6 E0.01
G1 X103.7 Y43.0 E0.04
G1 Y43.2 E0.01
G1 X103.2 Y43.9 E0.03
G1 X103.7 Y43.7 E0.02
G1 F5612.6
G1 E-3.12
G1 F2500.0
G1 X102.1 Y49.1 F15000.0
G1 F5612.6
G1 E3.12
G1 F2500.0
G1 F78.0
G1 E0.06
G1 F2500.0
G1 X98.9 Y52.4 E0.14
G1 X99.2 E0.01
G1 X102.5 Y49.1 E0.15
G1 X102.8 E0.01
G1 X99.7 Y52.4 E0.14
G1 X100.0 E0.01
G1 X103.4 Y49.1 E0.15
G1 X103.7 Y49.3 E0.01
G1 X100.6 Y52.4 E0.14
G1 X100.9 E0.01
G1 X103.7 Y49.7 E0.12
G1 Y50.0 E0.01
G1 X101.5 Y52.4 E0.1
G1 X101.7 E0.01
G1 X103.7 Y50.6 E0.08
G1 Y50.8 E0.01
G1 X102.3 Y52.4 E0.07
G1 X102.5 E0.01
G1 X103.7 Y51.4 E0.05
G1 Y51.7 E0.01
G1 X103.2 Y52.4 E0.03
G1 X103.7 Y52.3 E0.02
G1 F5612.6
G1 E-3.12
G1 F2500.0
G1 X101.8 Y49.1 F15000.0
G1 F5612.6
G1 E3.12
G1 F2500.0
G1 F78.0
G1 E0.06
G1 F2500.0
G1 X98.3 Y52.4 E0.15
G1 X98.0 E0.01
G1 X101.3 Y49.0 E0.15
G1 X101.2 Y48.8 E0.01
G1 X97.5 Y52.4 E0.16
G1 X97.2 E0.01
G1 X100.8 Y48.7 E0.16
G1 X100.7 Y48.5 E0.01
G1 X96.6 Y52.4 E0.18
G1 X96.4 E0.01
G1 X100.3 Y48.2 E0.18
G1 Y48.1 E0.0
G1 X95.8 Y52.4 E0.19
G1 X95.5 E0.01
G1 X100.0 Y47.8 E0.2
G1 X99.9 Y47.6 E0.01
G1 X94.9 Y52.4 E0.22
G1 X94.7 E0.01
G1 X99.8 Y47.1 E0.23
G1 X99.7 Y46.9 E0.01
G1 X94.1 Y52.4 E0.24
G1 X93.8 E0.01
G1 X99.7 Y46.3 E0.26
G1 Y46.0 E0.01
G1 X93.2 Y52.4 E0.28
G1 X92.9 E0.01
G1 X100.1 Y45.1 E0.32
G1 X101.0 Y44.2 E0.04
G1 X103.7 Y41.5 E0.12
G1 Y41.2 E0.01
G1 X92.4 Y52.4 E0.5
G1 X92.1 E0.01
G1 X103.7 Y40.7 E0.51
G1 X103.4 Y40.6 E0.01
G1 X91.6 Y52.4 E0.52
G1 X91.3 E0.01
G1 X102.9 Y40.6 E0.52
G1 X102.6 E0.01
G1 X90.7 Y52.4 E0.52
G1 X90.4 E0.01
G1 X102.0 Y40.6 E0.52
G1 X101.8 E0.01
G1 X89.8 Y52.4 E0.52
G1 X89.6 E0.01
G1 X101.2 Y40.6 E0.52
G1 X100.9 E0.01
G1 X89.0 Y52.4 E0.52
G1 X88.7 E0.01
G1 X100.3 Y40.6 E0.52
G1 X100.1 E0.01
G1 X88.1 Y52.4 E0.52
G1 X87.8 E0.01
G1 X99.5 Y40.6 E0.52
G1 X99.2 E0.01
G1 X87.3 Y52.4 E0.52
G1 X87.0 E0.01
G1 X98.6 Y40.6 E0.52
G1 X98.3 E0.01
G1 X86.5 Y52.4 E0.52
G1 X86.2 E0.01
G1 X97.8 Y40.6 E0.52
G1 X97.5 E0.01
G1 X85.6 Y52.4 E0.52
G1 X85.3 E0.01
G1 X97.0 Y40.6 E0.52
G1 X96.7 E0.01
G1 X84.7 Y52.4 E0.52
G1 X84.5 E0.01
G1 X96.1 Y40.6 E0.52
G1 X95.8 E0.01
G1 X83.9 Y52.4 E0.52
G1 X83.6 E0.01
G1 X95.2 Y40.6 E0.52
G1 X95.0 E0.01
G1 X83.0 Y52.4 E0.52
G1 X82.8 E0.01
G1 X94.4 Y40.6 E0.52
G1 X94.1 E0.01
G1 X82.2 Y52.4 E0.52
G1 X81.9 E0.01
G1 X93.5 Y40.6 E0.52
G1 X93.2 E0.01
G1 X81.4 Y52.4 E0.52
G1 X81.1 E0.01
G1 X92.7 Y40.6 E0.52
G1 X92.4 E0.01
G1 X80.5 Y52.4 E0.52
G1 X80.2 E0.01
G1 X91.9 Y40.6 E0.52
G1 X91.6 E0.01
G1 X79.7 Y52.4 E0.52
G1 X79.4 E0.01
G1 X91.0 Y40.6 E0.52
G1 X90.7 E0.01
G1 X78.8 Y52.4 E0.52
G1 X78.5 E0.01
G1 X90.1 Y40.6 E0.52
G1 X89.9 E0.01
G1 X77.9 Y52.4 E0.52
G1 X77.7 E0.01
G1 X89.3 Y40.6 E0.52
G1 X89.0 E0.01
G1 X77.1 Y52.4 E0.52
G1 X76.9 E0.01
G1 X88.4 Y40.6 E0.51
G1 X88.2 E0.01
G1 X76.3 Y52.4 E0.52
G1 X76.0 E0.01
G1 X87.6 Y40.6 E0.52
G1 X87.3 E0.01
G1 X75.4 Y52.4 E0.52
G1 X75.1 E0.01
G1 X86.8 Y40.6 E0.52
G1 X86.5 E0.01
G1 X74.6 Y52.4 E0.52
G1 X74.3 E0.01
G1 X85.9 Y40.6 E0.52
G1 X85.6 E0.01
G1 X73.7 Y52.4 E0.52
G1 X73.4 E0.01
G1 X85.1 Y40.6 E0.52
G1 X84.8 E0.01
G1 X72.9 Y52.4 E0.52
G1 X72.6 E0.01
G1 X84.2 Y40.6 E0.52
G1 X83.9 E0.01
G1 X72.0 Y52.4 E0.52
G1 X71.8 E0.01
G1 X83.3 Y40.6 E0.51
G1 X83.1 E0.01
G1 X71.2 Y52.4 E0.52
G1 X70.9 E0.01
G1 X82.5 Y40.6 E0.52
G1 X82.3 E0.01
G1 X70.3 Y52.4 E0.52
G1 X70.1 E0.01
G1 X81.7 Y40.6 E0.52
G1 X81.4 E0.01
G1 X74.1 Y47.9 E0.32
G1 F5612.6
G1 E-3.12
G1 F2500.0
G1 X73.1 Y48.9 F15000.0
G1 F5612.6
G1 E3.12
G1 F2500.0
G1 F78.0
G1 E0.06
G1 F2500.0
G1 X69.5 Y52.4 E0.16
G1 X69.2 E0.01
G1 X72.3 Y49.3 E0.14
G1 X71.8 E0.02
G1 X68.6 Y52.4 E0.14
G1 X68.3 E0.01
G1 X71.3 Y49.3 E0.13
G1 X71.0 E0.01
G1 X67.8 Y52.4 E0.14
G1 X67.5 E0.01
G1 X70.6 Y49.1 E0.14
G1 X70.4 Y49.0 E0.01
G1 X67.0 Y52.4 E0.15
G1 X66.7 E0.01
G1 X70.1 Y48.8 E0.15
G1 F5612.6
G1 E-3.12
G1 F2500.0
G1 X69.9 Y48.7 F15000.0
G1 F5612.6
G1 E3.12
G1 F2500.0
G1 F78.0
G1 E0.06
G1 F2500.0
G1 X66.1 Y52.4 E0.17
G1 X65.8 E0.01
G1 X69.7 Y48.4 E0.17
G1 X69.5 Y48.3 E0.01
G1 X65.2 Y52.4 E0.19
G1 X65.0 E0.01
G1 X69.3 Y47.9 E0.19
G1 X69.2 Y47.7 E0.01
G1 X64.4 Y52.4 E0.21
G1 X64.1 E0.01
G1 X69.1 Y47.3 E0.22
G1 X69.0 Y47.0 E0.01
G1 X63.5 Y52.4 E0.24
G1 X63.2 E0.01
G1 X68.9 Y46.6 E0.25
G1 Y46.3 E0.01
G1 X62.7 Y52.4 E0.27
G1 X62.4 E0.01
G1 X68.9 Y45.7 E0.29
G1 X69.1 Y45.2 E0.02
G1 X61.9 Y52.4 E0.32
G1 X61.6 E0.01
G1 X73.2 Y40.6 E0.52
G1 X72.9 E0.01
G1 X61.0 Y52.4 E0.52
G1 X60.7 E0.01
G1 X72.3 Y40.6 E0.52
G1 X72.1 E0.01
G1 X60.1 Y52.4 E0.52
G1 X59.9 E0.01
G1 X71.5 Y40.6 E0.52
G1 X71.2 E0.01
G1 X59.3 Y52.4 E0.52
G1 X59.0 E0.01
G1 X70.6 Y40.6 E0.52
G1 X70.4 E0.01
G1 X58.4 Y52.4 E0.52
G1 X58.2 E0.01
G1 X69.8 Y40.6 E0.52
G1 X69.5 E0.01
G1 X57.6 Y52.4 E0.52
G1 X57.3 E0.01
G1 X68.9 Y40.6 E0.52
G1 X68.6 E0.01
G1 X56.8 Y52.4 E0.52
G1 X56.5 E0.01
G1 X68.1 Y40.6 E0.52
G1 X67.8 E0.01
G1 X55.9 Y52.4 E0.52
G1 X55.6 E0.01
G1 X67.3 Y40.6 E0.52
G1 X67.0 E0.01
G1 X55.1 Y52.4 E0.52
G1 X54.8 E0.01
G1 X66.4 Y40.6 E0.52
G1 X66.1 E0.01
G1 X54.2 Y52.4 E0.52
G1 X53.9 E0.01
G1 X65.5 Y40.6 E0.52
G1 X65.3 E0.01
G1 X53.3 Y52.4 E0.52
G1 X53.1 E0.01
G1 X64.7 Y40.6 E0.52
G1 X64.4 E0.01
G1 X52.5 Y52.4 E0.52
G1 X52.3 E0.01
G1 X63.8 Y40.6 E0.51
G1 X63.5 E0.01
G1 X51.7 Y52.4 E0.52
G1 X51.4 E0.01
G1 X63.0 Y40.6 E0.52
G1 X62.7 E0.01
G1 X50.8 Y52.4 E0.52
G1 X50.5 E0.01
G1 X62.2 Y40.6 E0.52
G1 X61.9 E0.01
G1 X50.0 Y52.4 E0.52
G1 X49.7 E0.01
G1 X61.3 Y40.6 E0.52
G1 X61.0 E0.01
G1 X49.1 Y52.4 E0.52
G1 X48.8 E0.01
G1 X60.4 Y40.6 E0.52
G1 X60.2 E0.01
G1 X48.2 Y52.4 E0.52
G1 X48.0 E0.01
G1 X59.6 Y40.6 E0.52
G1 X59.3 E0.01
G1 X47.4 Y52.4 E0.52
G1 X47.2 E0.01
G1 X58.7 Y40.6 E0.51
G1 X58.5 E0.01
G1 X46.6 Y52.4 E0.52
G1 X46.3 E0.01
G1 X57.9 Y40.6 E0.52
G1 X57.6 E0.01
G1 X45.7 Y52.4 E0.52
G1 X45.4 E0.01
G1 X57.1 Y40.6 E0.52
G1 X56.8 E0.01
G1 X44.9 Y52.4 E0.52
G1 X44.6 E0.01
G1 X56.2 Y40.6 E0.52
G1 X55.9 E0.01
G1 X44.0 Y52.4 E0.52
G1 X43.7 E0.01
G1 X55.4 Y40.6 E0.52
G1 X55.1 E0.01
G1 X43.2 Y52.4 E0.52
G1 X42.9 E0.01
G1 X54.5 Y40.6 E0.52
G1 X54.2 E0.01
G1 X42.3 Y52.4 E0.52
G1 X42.1 E0.01
G1 X53.6 Y40.6 E0.51
G1 X53.4 E0.01
G1 X41.5 Y52.4 E0.52
G1 X41.2 E0.01
G1 X52.8 Y40.6 E0.52
G1 X52.6 E0.01
G1 X40.6 Y52.4 E0.52
G1 X40.4 E0.01
G1 X52.0 Y40.6 E0.52
G1 X51.7 E0.01
G1 X39.8 Y52.4 E0.52
G1 X39.6 Y52.3 E0.01
G1 X51.1 Y40.6 E0.51
G1 X50.8 E0.01
G1 X39.6 Y51.7 E0.49
G1 Y51.4 E0.01
G1 X42.0 Y49.0 E0.11
G1 X41.5 Y49.1 E0.02
G1 X39.6 Y50.9 E0.08
G1 Y50.6 E0.01
G1 X40.9 Y49.1 E0.06
G1 X40.6 E0.01
G1 X39.6 Y50.0 E0.04
G1 Y49.7 E0.01
G1 X40.1 Y49.1 E0.02
G1 X39.6 Y49.3 E0.02
G1 F5612.6
G1 E-3.12
G1 F2500.0
G1 X42.5 Y44.3 F15000.0
G1 F5612.6
G1 E3.12
G1 F2500.0
G1 F78.0
G1 E0.06
G1 F2500.0
G1 X46.2 Y40.6 E0.16
G1 X46.4 E0.01
G1 X42.7 Y44.6 E0.17
G1 X42.8 E0.0
G1 X47.0 Y40.6 E0.18
G1 X47.3 E0.01
G1 X43.1 Y45.0 E0.19
G1 X43.2 Y45.2 E0.01
G1 X47.9 Y40.6 E0.21
G1 X48.1 E0.01
G1 X43.4 Y45.5 E0.21
G1 X43.5 Y45.7 E0.01
G1 X48.7 Y40.6 E0.23
G1 X49.0 E0.01
G1 X43.6 Y46.2 E0.24
G1 Y46.4 E0.01
G1 X49.6 Y40.6 E0.26
G1 X49.9 E0.01
G1 X43.6 Y47.0 E0.28
G1 X43.4 Y47.5 E0.02
G1 X50.4 Y40.6 E0.31
G1 F5612.6
G1 E-3.12
G1 F2500.0
G1 X45.7 F15000.0
G1 F5612.6
G1 E3.12
G1 F2500.0
G1 F78.0
G1 E0.06
G1 F2500.0
G1 X42.1 Y44.2 E0.16
G1 X41.9 Y44.0 E0.01
G1 X45.2 Y40.6 E0.15
G1 X44.9 E0.01
G1 X41.5 Y43.9 E0.15
G1 X41.2 E0.01
G1 X44.3 Y40.6 E0.14
G1 X44.0 E0.01
G1 X40.7 Y43.9 E0.15
G1 X40.4 E0.01
G1 X43.5 Y40.6 E0.14
G1 X43.2 E0.01
G1 X39.9 Y43.8 E0.14
G1 X39.6 E0.01
G1 X42.6 Y40.6 E0.14
G1 X42.4 E0.01
G1 X39.6 Y43.2 E0.12
G1 Y43.0 E0.01
G1 X41.8 Y40.6 E0.1
G1 X41.5 E0.01
G1 X39.6 Y42.4 E0.08
G1 Y42.1 E0.01
G1 X41.0 Y40.6 E0.06
G1 X40.7 E0.01
G1 X39.6 Y41.6 E0.05
G1 Y41.3 E0.01
G1 X40.1 Y40.6 E0.03
G1 X39.8 E0.01
G1 X39.6 Y40.8 E0.01
G1 F5612.6
G1 E-3.12
G1 F2500.0
G1 X70.3 Y44.1 F15000.0
G1 F5612.6
G1 E3.12
G1 F2500.0
G1 F78.0
G1 E0.06
G1 F2500.0
G1 X73.7 Y40.6 E0.15
G1 X74.0 E0.01
G1 X71.0 Y43.7 E0.13
G1 X71.4 E0.01
G1 X74.6 Y40.6 E0.14
G1 F5612.6
G1 E-3.12
G1 F2500.0
G1 X72.0 Y43.7 F15000.0
G1 F5612.6
G1 E3.12
G1 F2500.0
G1 F78.0
G1 E0.06
G1 F2500.0
G1 X75.0 Y40.6 E0.13
G1 X75.3 E0.01
G1 X72.3 Y43.7 E0.13
G1 X72.5 Y43.8 E0.01
G1 X75.9 Y40.6 E0.15
G1 X76.1 E0.01
G1 X73.0 Y44.0 E0.14
G1 X73.1 E0.0
G1 X76.7 Y40.6 E0.15
G1 X77.0 E0.01
G1 X73.5 Y44.3 E0.16
G1 X73.6 Y44.5 E0.01
G1 X77.6 Y40.6 E0.17
G1 X77.8 E0.01
G1 X73.9 Y44.8 E0.18
G1 X74.0 Y44.9 E0.0
G1 X78.4 Y40.6 E0.19
G1 X78.7 E0.01
G1 X74.2 Y45.3 E0.2
G1 X74.3 Y45.5 E0.01
G1 X79.3 Y40.6 E0.22
G1 X79.6 E0.01
G1 X74.4 Y45.9 E0.23
G1 X74.5 Y46.1 E0.01
G1 X80.1 Y40.6 E0.24
G1 X80.4 E0.01
G1 X74.5 Y46.7 E0.26
G1 Y47.0 E0.01
G1 X80.9 Y40.6 E0.28
G1 F5612.6
G1 E-3.12
G1 F2500.0
G1 X68.7 Y60.5 F15000.0
G1 F5612.6
G1 E3.12
G1 F2500.0
G1 F78.0
G1 E0.06
G1 F2500.0
G1 X68.0 Y61.2 E0.03 F2250.0
G1 X67.5 Y62.6 E0.05
G1 X67.7 Y65.0 E0.08
G1 X68.4 Y66.2 E0.04
G1 X68.9 Y66.5 E0.02
G1 X74.6 Y66.4 E0.18
G1 X75.2 Y65.9 E0.02
G1 X75.8 Y64.3 E0.05
G1 X76.0 Y63.4 E0.03
G1 X75.7 Y62.0 E0.04
G1 X74.9 Y60.8 E0.04
G1 X74.5 Y60.5 E0.02
G1 X68.7 E0.18
G1 X68.8 Y60.8 E0.01
G1 X68.3 Y61.3 E0.02
G1 X67.7 Y63.0 E0.06
G1 X67.9 Y64.7 E0.05
G1 X68.6 Y66.0 E0.05
G1 X68.9 Y66.2 E0.01
G1 X74.6 Y66.1 E0.18
G1 X74.9 Y65.7 E0.02
G1 X75.5 Y64.3 E0.05
G1 Y62.6 E0.05
G1 X75.4 Y62.2 E0.01
G1 X74.6 Y61.0 E0.04
G1 X74.4 Y60.8 E0.01
G1 X68.8 E0.17
G1 F5612.6
G1 E-3.12
G1 F2500.0
G1 X68.7 Y60.5
G1 X100.0 Y64.4 F15000.0
G1 F5612.6
G1 E3.12
G1 F2500.0
G1 F78.0
G1 E0.06
G1 F2500.0
G1 X100.6 Y65.3 E0.03 F2250.0
G1 X101.9 Y66.0 E0.05
G1 X103.8 Y66.1 E0.06
G1 X103.7 Y69.5 E0.11
G1 X39.5 Y69.4 E2.0
G1 Y66.0 E0.11
G1 X41.8 Y65.9 E0.07
G1 X42.8 Y65.3 E0.04
G1 X43.3 Y64.6 E0.03
G1 X43.5 Y63.8 E0.03
G1 X43.4 Y62.7 E0.03
G1 X42.8 Y61.7 E0.04
G1 X42.4 Y61.4 E0.02
G1 X41.6 Y61.0 E0.03
G1 X39.5 E0.07
G1 Y57.5 E0.11
G1 X103.8 E2.0
G1 Y61.0 E0.11
G1 X101.6 E0.07
G1 X100.6 Y61.6 E0.04
G1 X100.2 Y62.1 E0.02
G1 X99.8 Y63.0 E0.03
G1 X100.0 Y64.4 E0.04
G1 X100.2 Y64.3 E0.01
G1 X100.7 Y65.0 E0.03
G1 X101.2 Y65.4 E0.02
G1 X102.0 Y65.7 E0.03
G1 X104.1 Y65.8 E0.07
G1 X104.0 Y69.8 E0.12
G1 X39.2 Y69.7 E2.02
G1 Y65.7 E0.12
G1 X41.6 Y65.6 E0.07
G1 X42.5 Y65.0 E0.03
G1 X42.8 Y64.7 E0.01
G1 X43.2 Y63.8 E0.03
G1 X43.1 Y62.8 E0.03
G1 X42.6 Y62.0 E0.03
G1 X42.2 Y61.6 E0.02
G1 X41.5 Y61.3 E0.02
G1 X39.2 Y61.2 E0.07
G1 Y57.2 E0.12
G1 X104.1 E2.02
G1 Y61.3 E0.13
G1 X101.6 E0.08
G1 X100.5 Y62.2 E0.04
G1 X100.1 Y63.1 E0.03
G1 X100.2 Y64.3 E0.04
G1 F5612.6
G1 E-3.12
G1 F2500.0
G1 X100.0 Y64.4
G1 X102.5 Y66.1 F15000.0
G1 F5612.6
G1 E3.12
G1 F2500.0
G1 F78.0
G1 E0.06
G1 F2500.0
G1 X99.2 Y69.4 E0.15
G1 X98.9 E0.01
G1 X102.0 Y66.1 E0.14
G1 X101.8 E0.01
G1 X98.3 Y69.4 E0.15
G1 X98.0 E0.01
G1 X101.3 Y65.9 E0.15
G1 X101.2 Y65.8 E0.0
G1 X97.4 Y69.4 E0.16
G1 X97.2 E0.01
G1 X100.8 Y65.6 E0.16
G1 X100.7 Y65.5 E0.0
G1 X96.6 Y69.4 E0.18
G1 X96.4 E0.01
G1 X100.3 Y65.2 E0.18
G1 Y65.1 E0.0
G1 X95.8 Y69.4 E0.19
G1 X95.5 E0.01
G1 X100.0 Y64.7 E0.2
G1 X99.9 Y64.6 E0.0
G1 X94.9 Y69.4 E0.22
G1 X94.6 E0.01
G1 X99.8 Y64.1 E0.23
G1 X99.7 Y63.8 E0.01
G1 X94.1 Y69.4 E0.25
G1 X93.8 E0.01
G1 X99.7 Y63.3 E0.26
G1 Y63.0 E0.01
G1 X93.2 Y69.4 E0.28
G1 X92.9 E0.01
G1 X100.1 Y62.1 E0.32
G1 X100.9 Y61.3 E0.04
G1 X103.7 Y58.5 E0.12
G1 Y58.2 E0.01
G1 X92.4 Y69.4 E0.5
G1 X92.1 E0.01
G1 X103.7 Y57.8 E0.51
G1 X103.3 Y57.7 E0.01
G1 X91.5 Y69.4 E0.52
G1 X91.3 E0.01
G1 X102.8 Y57.7 E0.51
G1 X102.5 E0.01
G1 X90.7 Y69.4 E0.52
G1 X90.4 E0.01
G1 X101.9 Y57.7 E0.51
G1 X101.7 E0.01
G1 X89.8 Y69.4 E0.52
G1 X89.6 E0.01
G1 X101.1 Y57.7 E0.51
G1 X100.9 E0.01
G1 X89.0 Y69.4 E0.52
G1 X88.7 E0.01
G1 X100.3 Y57.7 E0.51
G1 X100.0 E0.01
G1 X88.1 Y69.4 E0.52
G1 X87.8 E0.01
G1 X99.4 Y57.7 E0.51
G1 X99.1 E0.01
G1 X87.3 Y69.4 E0.52
G1 X87.0 E0.01
G1 X98.6 Y57.7 E0.51
G1 X98.3 E0.01
G1 X86.5 Y69.4 E0.52
G1 X86.2 E0.01
G1 X97.7 Y57.7 E0.51
G1 X97.4 E0.01
G1 X85.6 Y69.4 E0.52
G1 X85.3 E0.01
G1 X96.8 Y57.7 E0.51
G1 X96.6 E0.01
G1 X84.7 Y69.4 E0.52
G1 X84.5 E0.01
G1 X96.0 Y57.7 E0.51
G1 X95.8 E0.01
G1 X83.9 Y69.4 E0.52
G1 X83.6 E0.01
G1 X95.2 Y57.7 E0.51
G1 X94.9 E0.01
G1 X83.0 Y69.4 E0.52
G1 X82.7 E0.01
G1 X94.3 Y57.7 E0.51
G1 X94.0 E0.01
G1 X82.2 Y69.4 E0.52
G1 X81.9 E0.01
G1 X93.5 Y57.7 E0.51
G1 X93.2 E0.01
G1 X81.4 Y69.4 E0.52
G1 X81.1 E0.01
G1 X92.6 Y57.7 E0.51
G1 X92.3 E0.01
G1 X80.5 Y69.4 E0.52
G1 X80.2 E0.01
G1 X91.8 Y57.7 E0.51
G1 X91.5 E0.01
G1 X79.6 Y69.4 E0.52
G1 X79.4 E0.01
G1 X90.9 Y57.7 E0.51
G1 X90.7 E0.01
G1 X78.8 Y69.4 E0.52
G1 X78.5 E0.01
G1 X90.1 Y57.7 E0.51
G1 X89.8 E0.01
G1 X77.9 Y69.4 E0.52
G1 X77.7 E0.01
G1 X89.2 Y57.7 E0.51
G1 X89.0 E0.01
G1 X77.1 Y69.4 E0.52
G1 X76.8 E0.01
G1 X88.4 Y57.7 E0.51
G1 X88.1 E0.01
G1 X76.3 Y69.4 E0.52
G1 X76.0 E0.01
G1 X87.5 Y57.7 E0.51
G1 X87.2 E0.01
G1 X75.4 Y69.4 E0.52
G1 X75.1 E0.01
G1 X86.7 Y57.7 E0.51
G1 X86.4 E0.01
G1 X74.6 Y69.4 E0.52
G1 X74.3 E0.01
G1 X85.9 Y57.7 E0.51
G1 X85.6 E0.01
G1 X73.7 Y69.4 E0.52
G1 X73.4 E0.01
G1 X85.0 Y57.7 E0.51
G1 X84.7 E0.01
G1 X72.8 Y69.4 E0.52
G1 X72.6 E0.01
G1 X84.1 Y57.7 E0.51
G1 X83.9 E0.01
G1 X72.0 Y69.4 E0.52
G1 X71.8 E0.01
G1 X74.3 Y66.6 E0.12
G1 X74.1 E0.01
G1 X71.2 Y69.3 E0.12
G1 X70.9 E0.01
G1 X73.5 Y66.6 E0.12
G1 X73.2 E0.01
G1 X70.4 Y69.3 E0.12
G1 X70.1 E0.01
G1 X72.7 Y66.6 E0.12
G1 X72.4 E0.01
G1 X69.5 Y69.3 E0.12
G1 X69.2 E0.01
G1 X71.8 Y66.6 E0.12
G1 X71.5 E0.01
G1 X68.7 Y69.3 E0.12
G1 X68.4 E0.01
G1 X71.0 Y66.6 E0.12
G1 X70.7 E0.01
G1 X67.8 Y69.3 E0.12
G1 X67.6 E0.01
G1 X70.1 Y66.6 E0.11
G1 X69.8 E0.01
G1 X67.0 Y69.3 E0.12
G1 X66.7 E0.01
G1 X69.2 Y66.6 E0.11
G1 X69.0 E0.01
G1 X66.1 Y69.3 E0.12
G1 X65.9 E0.01
G1 X68.5 Y66.5 E0.12
G1 X68.4 Y66.4 E0.0
G1 X65.3 Y69.3 E0.13
G1 X65.0 E0.01
G1 X68.1 Y66.1 E0.14
G1 X68.0 Y65.9 E0.01
G1 X64.4 Y69.3 E0.15
G1 X64.1 E0.01
G1 X67.8 Y65.5 E0.17
G1 X67.7 Y65.3 E0.01
G1 X63.6 Y69.3 E0.18
G1 X63.3 E0.01
G1 X67.5 Y65.0 E0.19
G1 X67.4 Y64.7 E0.01
G1 X62.8 Y69.3 E0.2
G1 X62.5 E0.01
G1 X67.4 Y64.3 E0.22
G1 X67.3 Y64.0 E0.01
G1 X61.9 Y69.3 E0.24
G1 X61.6 E0.01
G1 X67.3 Y63.5 E0.25
G1 Y63.2 E0.01
G1 X61.0 Y69.3 E0.27
G1 X60.8 E0.01
G1 X67.4 Y62.5 E0.3
G1 X67.5 Y62.2 E0.01
G1 X60.2 Y69.3 E0.32
G1 X59.9 E0.01
G1 X68.0 Y61.1 E0.36
G1 X68.8 Y60.4 E0.03
G1 X71.5 Y57.6 E0.12
G1 X71.2 E0.01
G1 X59.3 Y69.3 E0.52
G1 X59.0 E0.01
G1 X70.6 Y57.6 E0.51
G1 X70.3 E0.01
G1 X58.5 Y69.3 E0.52
G1 X58.2 E0.01
G1 X69.8 Y57.6 E0.51
G1 X69.5 E0.01
G1 X57.7 Y69.3 E0.52
G1 X57.4 E0.01
G1 X68.9 Y57.6 E0.51
G1 X68.6 E0.01
G1 X56.8 Y69.3 E0.52
G1 X56.5 E0.01
G1 X68.1 Y57.6 E0.51
G1 X67.8 E0.01
G1 X56.0 Y69.3 E0.52
G1 X55.7 E0.01
G1 X67.2 Y57.6 E0.51
G1 X67.0 E0.01
G1 X55.1 Y69.3 E0.52
G1 X54.8 E0.01
G1 X66.4 Y57.6 E0.51
G1 X66.1 E0.01
G1 X54.2 Y69.3 E0.52
G1 X54.0 E0.01
G1 X65.5 Y57.6 E0.51
G1 X65.3 E0.01
G1 X53.4 Y69.3 E0.52
G1 X53.2 E0.01
G1 X64.7 Y57.6 E0.51
G1 X64.4 E0.01
G1 X52.6 Y69.3 E0.52
G1 X52.3 E0.01
G1 X63.8 Y57.6 E0.51
G1 X63.5 E0.01
G1 X51.7 Y69.3 E0.52
G1 X51.4 E0.01
G1 X63.0 Y57.6 E0.51
G1 X62.7 E0.01
G1 X50.9 Y69.3 E0.52
G1 X50.6 E0.01
G1 X62.2 Y57.6 E0.51
G1 X61.9 E0.01
G1 X50.0 Y69.3 E0.52
G1 X49.7 E0.01
G1 X61.3 Y57.6 E0.51
G1 X61.0 E0.01
G1 X49.1 Y69.3 E0.52
G1 X48.9 E0.01
G1 X60.4 Y57.6 E0.51
G1 X60.2 E0.01
G1 X48.3 Y69.3 E0.52
G1 X48.1 E0.01
G1 X59.6 Y57.6 E0.51
G1 X59.3 E0.01
G1 X47.5 Y69.3 E0.52
G1 X47.2 E0.01
G1 X58.7 Y57.6 E0.51
G1 X58.4 E0.01
G1 X46.6 Y69.3 E0.52
G1 X46.3 E0.01
G1 X57.9 Y57.6 E0.51
G1 X57.6 E0.01
G1 X45.8 Y69.3 E0.52
G1 X45.5 E0.01
G1 X57.1 Y57.6 E0.51
G1 X56.8 E0.01
G1 X44.9 Y69.3 E0.52
G1 X44.6 E0.01
G1 X56.2 Y57.6 E0.51
G1 X55.9 E0.01
G1 X44.1 Y69.3 E0.52
G1 X43.8 E0.01
G1 X55.3 Y57.6 E0.51
G1 X55.1 E0.01
G1 X43.2 Y69.3 E0.52
G1 X43.0 E0.01
G1 X54.5 Y57.6 E0.51
G1 X54.2 E0.01
G1 X42.4 Y69.3 E0.52
G1 X42.1 E0.01
G1 X53.6 Y57.6 E0.51
G1 X53.4 E0.01
G1 X41.5 Y69.3 E0.52
G1 X41.3 E0.01
G1 X52.8 Y57.6 E0.51
G1 X52.5 E0.01
G1 X40.7 Y69.3 E0.52
G1 X40.4 E0.01
G1 X52.0 Y57.6 E0.51
G1 X51.7 E0.01
G1 X39.8 Y69.3 E0.52
G1 X39.6 Y69.2 E0.01
G1 X51.1 Y57.6 E0.51
G1 X50.8 E0.01
G1 X39.6 Y68.7 E0.49
G1 Y68.4 E0.01
G1 X41.9 Y66.0 E0.1
G1 X41.5 Y66.1 E0.01
G1 X39.6 Y67.9 E0.08
G1 Y67.6 E0.01
G1 X41.0 Y66.1 E0.06
G1 X40.7 E0.01
G1 X39.6 Y67.0 E0.04
G1 Y66.7 E0.01
G1 X40.1 Y66.1 E0.02
G1 F5612.6
G1 E-3.12
G1 F2500.0
G1 X42.5 Y61.3 F15000.0
G1 F5612.6
G1 E3.12
G1 F2500.0
G1 F78.0
G1 E0.06
G1 F2500.0
G1 X46.1 Y57.6 E0.16
G1 X46.4 E0.01
G1 X42.7 Y61.5 E0.17
G1 X42.8 Y61.6 E0.0
G1 X47.0 Y57.6 E0.18
G1 X47.3 E0.01
G1 X43.1 Y62.0 E0.19
G1 X43.2 Y62.2 E0.01
G1 X47.9 Y57.6 E0.21
G1 X48.1 E0.01
G1 X43.4 Y62.5 E0.21
G1 X43.5 Y62.7 E0.01
G1 X48.7 Y57.6 E0.23
G1 X49.0 E0.01
G1 X43.6 Y63.2 E0.24
G1 Y63.4 E0.01
G1 X49.6 Y57.6 E0.26
G1 X49.9 E0.01
G1 X43.6 Y64.0 E0.28
G1 X43.4 Y64.4 E0.01
G1 X50.4 Y57.6 E0.3
G1 F5612.6
G1 E-3.12
G1 F2500.0
G1 X45.7 F15000.0
G1 F5612.6
G1 E3.12
G1 F2500.0
G1 F78.0
G1 E0.06
G1 F2500.0
G1 X42.1 Y61.1 E0.16
G1 X41.9 Y61.0 E0.01
G1 X45.2 Y57.6 E0.15
G1 X44.9 E0.01
G1 X41.5 Y60.9 E0.15
G1 X41.2 E0.01
G1 X44.3 Y57.6 E0.14
G1 X44.0 E0.01
G1 X40.6 Y60.9 E0.15
G1 X40.3 E0.01
G1 X43.4 Y57.6 E0.14
G1 X43.2 E0.01
G1 X39.8 Y60.8 E0.15
G1 X39.6 E0.01
G1 X42.6 Y57.6 E0.14
G1 X42.4 E0.01
G1 X39.6 Y60.2 E0.12
G1 Y59.9 E0.01
G1 X41.8 Y57.6 E0.1
G1 X41.5 E0.01
G1 X39.6 Y59.3 E0.08
G1 Y59.1 E0.01
G1 X41.0 Y57.6 E0.06
G1 X40.6 E0.01
G1 X39.6 Y58.5 E0.04
G1 Y58.2 E0.01
G1 X40.1 Y57.6 E0.02
G1 X39.8 E0.01
G1 X39.6 Y57.8 E0.01
G1 F5612.6
G1 E-3.12
G1 F2500.0
G1 X69.2 Y60.4 F15000.0
G1 F5612.6
G1 E3.12
G1 F2500.0
G1 F78.0
G1 E0.06
G1 F2500.0
G1 X72.0 Y57.7 E0.12
G1 X72.2 E0.01
G1 X69.7 Y60.4 E0.11
G1 X70.0 E0.01
G1 X72.8 Y57.7 E0.12
G1 X73.1 E0.01
G1 X70.6 Y60.4 E0.11
G1 X70.8 E0.01
G1 X73.7 Y57.7 E0.12
G1 X74.0 E0.01
G1 X71.4 Y60.4 E0.12
G1 X71.7 E0.01
G1 X74.5 Y57.7 E0.12
G1 X74.8 E0.01
G1 X72.2 Y60.4 E0.12
G1 X72.5 E0.01
G1 X75.4 Y57.7 E0.12
G1 X75.7 E0.01
G1 X73.1 Y60.4 E0.12
G1 X73.4 E0.01
G1 X76.2 Y57.7 E0.12
G1 X76.5 E0.01
G1 X73.9 Y60.4 E0.12
G1 X74.2 E0.01
G1 X77.0 Y57.7 E0.12
G1 F5612.6
G1 E-3.12
G1 F2500.0
G1 X74.7 Y60.5 F15000.0
G1 F5612.6
G1 E3.12
G1 F2500.0
G1 F78.0
G1 E0.06
G1 F2500.0
G1 X77.5 Y57.7 E0.12
G1 X77.8 E0.01
G1 X75.0 Y60.7 E0.13
G1 X75.1 Y60.8 E0.0
G1 X78.4 Y57.7 E0.14
G1 X78.6 E0.01
G1 X75.3 Y61.1 E0.15
G1 X75.4 Y61.3 E0.01
G1 X79.2 Y57.7 E0.16
G1 X79.4 E0.01
G1 X75.6 Y61.7 E0.17
G1 X75.7 Y61.9 E0.01
G1 X80.0 Y57.7 E0.19
G1 X80.3 E0.01
G1 X75.9 Y62.2 E0.2
G1 Y62.5 E0.01
G1 X80.9 Y57.7 E0.22
G1 X81.2 E0.01
G1 X76.0 Y63.0 E0.23
G1 Y63.2 E0.01
G1 X81.7 Y57.7 E0.25
G1 X82.0 E0.01
G1 X76.0 Y63.8 E0.27
G1 Y64.1 E0.01
G1 X82.6 Y57.7 E0.29
G1 X82.9 E0.01
G1 X75.8 Y64.9 E0.32
G1 X75.6 Y65.3 E0.01
G1 X83.4 Y57.7 E0.34
G1 F5612.6
G1 E-3.12
G1 F2500.0
G1 X101.8 Y60.9 F15000.0
G1 F5612.6
G1 E3.12
G1 F2500.0
G1 F78.0
G1 E0.06
G1 F2500.0
G1 X103.7 Y59.0 E0.08
G1 Y59.3 E0.01
G1 X102.2 Y60.9 E0.07
G1 X102.5 E0.01
G1 X103.7 Y59.9 E0.05
G1 Y60.2 E0.01
G1 X103.1 Y60.9 E0.03
G1 X103.3 E0.01
G1 X103.7 Y60.7 E0.01
G1 F5612.6
G1 E-3.12
G1 F2500.0
G1 X103.0 Y66.1 F15000.0
G1 F5612.6
G1 E3.12
G1 F2500.0
G1 F78.0
G1 E0.06
G1 F2500.0
G1 X99.7 Y69.4 E0.15
G1 X100.0 E0.01
G1 X103.3 Y66.2 E0.14
G1 X103.7 E0.01
G1 X100.6 Y69.4 E0.14
G1 X100.9 E0.01
G1 X103.7 Y66.7 E0.12
G1 Y67.0 E0.01
G1 X101.5 Y69.4 E0.1
G1 X101.7 E0.01
G1 X103.7 Y67.6 E0.08
G1 Y67.8 E0.01
G1 X102.3 Y69.4 E0.07
G1 X102.5 E0.01
G1 X103.7 Y68.4 E0.05
G1 Y68.6 E0.01
G1 X103.1 Y69.4 E0.03
G1 X103.3 E0.01
G1 X103.7 Y69.2 E0.01
G1 F5612.6
G1 E-3.12
G1 F2500.0
G1 X72.4 Y86.8 F15000.0
G1 F5612.6
G1 E3.12
G1 F2500.0
G1 F78.0
G1 E0.06
G1 F2500.0
G1 X72.8 E0.01 F2250.0
G1 X74.3 Y85.9 E0.05
G1 X75.3 Y85.0 E0.04
G1 X75.9 Y83.5 E0.05
G1 X76.0 Y82.2 E0.04
G1 X75.7 Y80.9 E0.04
G1 X74.9 Y79.7 E0.04
G1 X74.1 Y78.8 E0.04
G1 X72.7 Y78.2 E0.05
G1 X71.0 E0.05
G1 X70.4 Y78.3 E0.02
G1 X68.9 Y79.1 E0.05
G1 X68.0 Y80.0 E0.04
G1 X67.4 Y81.5 E0.05
G1 X67.3 Y82.8 E0.04
G1 X67.5 Y83.9 E0.03
G1 X68.3 Y85.3 E0.05
G1 X69.2 Y86.2 E0.04
G1 X70.6 Y86.8 E0.05
G1 X72.4 E0.06
G1 Y86.5 E0.01
G1 X73.0 Y86.3 E0.02
G1 X74.2 Y85.7 E0.04
G1 X75.0 Y84.8 E0.04
G1 X75.6 Y83.5 E0.04
G1 X75.7 Y82.3 E0.04
G1 X75.5 Y81.2 E0.03
G1 X74.7 Y79.9 E0.05
G1 X73.9 Y79.1 E0.04
G1 X72.6 Y78.5 E0.04
G1 X71.0 E0.05
G1 X70.4 Y78.6 E0.02
G1 X69.1 Y79.4 E0.05
G1 X68.3 Y80.3 E0.04
G1 X67.7 Y81.6 E0.04
G1 X67.6 Y82.8 E0.04
G1 X67.8 Y83.8 E0.03
G1 X68.5 Y85.0 E0.04
G1 X69.4 Y85.9 E0.04
G1 X71.1 Y86.5 E0.06
G1 X72.4 E0.04
G1 F5612.6
G1 E-3.12
G1 F2500.0
G1 Y86.8
G1 X42.2 Y80.3 F15000.0
G1 F5612.6
G1 E3.12
G1 F2500.0
G1 F78.0
G1 E0.06
G1 F2500.0
G1 X41.5 Y80.0 E0.02 F2250.0
G1 X39.5 Y79.9 E0.06
G1 Y76.5 E0.11
G1 X103.8 Y76.6 E2.0
G1 Y80.0 E0.11
G1 X101.5 E0.07
G1 X100.6 Y80.6 E0.03
G1 X100.2 Y81.1 E0.02
G1 X99.8 Y82.0 E0.03
G1 X99.9 Y83.3 E0.04
G1 X100.6 Y84.3 E0.04
G1 X101.7 Y85.0 E0.04
G1 X103.8 E0.07
G1 Y88.5 E0.11
G1 X39.5 E2.0
G1 Y85.0 E0.11
G1 X41.3 E0.06
G1 X42.7 Y84.3 E0.05
G1 X43.1 Y83.9 E0.02
G1 X43.5 Y82.9 E0.03
G1 X43.4 Y81.7 E0.04
G1 X42.8 Y80.8 E0.03
G1 X42.2 Y80.3 E0.02
G1 X42.1 Y80.6 E0.01
G1 X41.5 Y80.3 E0.02
G1 X39.2 Y80.2 E0.07
G1 Y76.2 E0.12
G1 X104.1 Y76.3 E2.02
G1 X104.0 Y80.3 E0.12
G1 X101.5 Y80.4 E0.08
G1 X100.8 Y80.9 E0.03
G1 X100.4 Y81.4 E0.02
G1 X100.1 Y82.1 E0.02
G1 X100.3 Y83.4 E0.04
G1 X101.1 Y84.4 E0.04
G1 X101.8 Y84.7 E0.02
G1 X104.1 Y84.8 E0.07
G1 Y88.8 E0.12
G1 X39.2 Y88.7 E2.02
G1 Y84.7 E0.12
G1 X41.3 E0.07
G1 X42.2 Y84.4 E0.03
G1 X42.8 Y83.8 E0.03
G1 X43.2 Y82.9 E0.03
G1 X43.1 Y81.8 E0.03
G1 X42.6 Y81.0 E0.03
G1 X42.1 Y80.6 E0.02
G1 F5612.6
G1 E-3.12
G1 F2500.0
G1 X42.2 Y80.3
G1 X41.6 Y79.9 F15000.0
G1 F5612.6
G1 E3.12
G1 F2500.0
G1 F78.0
G1 E0.06
G1 F2500.0
G1 X44.9 Y76.6 E0.15
G1 X45.2 E0.01
G1 X41.9 Y80.0 E0.15
G1 X42.1 Y80.2 E0.01
G1 X45.8 Y76.6 E0.16
G1 X46.1 E0.01
G1 X42.5 Y80.4 E0.16
G1 X42.7 Y80.5 E0.01
G1 X46.7 Y76.6 E0.17
G1 X46.9 E0.01
G1 X43.0 Y80.8 E0.18
G1 X43.1 Y80.9 E0.0
G1 X47.5 Y76.6 E0.19
G1 X47.8 E0.01
G1 X43.3 Y81.3 E0.2
G1 X43.4 Y81.5 E0.01
G1 X48.4 Y76.6 E0.22
G1 X48.7 E0.01
G1 X43.6 Y81.9 E0.23
G1 Y82.1 E0.01
G1 X49.2 Y76.6 E0.24
G1 X49.5 E0.01
G1 X43.7 Y82.6 E0.26
G1 X43.6 Y82.9 E0.01
G1 X50.0 Y76.6 E0.28
G1 F5612.6
G1 E-3.12
G1 F2500.0
G1 X44.5 F15000.0
G1 F5612.6
G1 E3.12
G1 F2500.0
G1 F78.0
G1 E0.06
G1 F2500.0
G1 X41.2 Y79.9 E0.15
G1 X40.9 E0.01
G1 X44.0 Y76.6 E0.14
G1 X43.7 E0.01
G1 X40.3 Y79.9 E0.15
G1 X40.0 E0.01
G1 X43.1 Y76.6 E0.14
G1 X42.8 E0.01
G1 X39.6 Y79.7 E0.14
G1 Y79.4 E0.01
G1 X42.2 Y76.6 E0.12
G1 X42.0 E0.01
G1 X39.6 Y78.8 E0.1
G1 Y78.6 E0.01
G1 X41.4 Y76.6 E0.08
G1 X41.2 E0.01
G1 X39.6 Y78.0 E0.07
G1 Y77.8 E0.01
G1 X40.6 Y76.6 E0.05
G1 X40.3 E0.01
G1 X39.6 Y77.2 E0.03
G1 Y76.9 E0.01
G1 X39.8 Y76.6 E0.01
G1 F5612.6
G1 E-3.12
G1 F2500.0
G1 X43.3 Y83.8 F15000.0
G1 F5612.6
G1 E3.12
G1 F2500.0
G1 F78.0
G1 E0.06
G1 F2500.0
G1 X50.5 Y76.6 E0.32
G1 X50.8 E0.01
G1 X39.6 Y87.9 E0.5
G1 Y88.2 E0.01
G1 X51.3 Y76.6 E0.51
G1 X51.6 E0.01
G1 X40.0 Y88.4 E0.52
G1 X40.3 E0.01
G1 X52.2 Y76.6 E0.52
G1 X52.4 E0.01
G1 X40.9 Y88.4 E0.51
G1 X41.1 E0.01
G1 X53.0 Y76.6 E0.52
G1 X53.3 E0.01
G1 X41.7 Y88.4 E0.52
G1 X41.9 E0.01
G1 X53.9 Y76.6 E0.52
G1 X54.1 E0.01
G1 X42.5 Y88.4 E0.52
G1 X42.8 E0.01
G1 X54.7 Y76.6 E0.52
G1 X55.0 E0.01
G1 X43.4 Y88.4 E0.52
G1 X43.7 E0.01
G1 X55.6 Y76.6 E0.52
G1 X55.9 E0.01
G1 X44.2 Y88.4 E0.52
G1 X44.5 E0.01
G1 X56.4 Y76.6 E0.52
G1 X56.7 E0.01
G1 X45.1 Y88.4 E0.52
G1 X45.4 E0.01
G1 X57.2 Y76.6 E0.52
G1 X57.5 E0.01
G1 X45.9 Y88.4 E0.52
G1 X46.2 E0.01
G1 X58.1 Y76.6 E0.52
G1 X58.4 E0.01
G1 X46.8 Y88.4 E0.52
G1 X47.0 E0.01
G1 X59.0 Y76.6 E0.52
G1 X59.2 E0.01
G1 X47.6 Y88.4 E0.52
G1 X47.9 E0.01
G1 X59.8 Y76.6 E0.52
G1 X60.1 E0.01
G1 X48.5 Y88.4 E0.52
G1 X48.7 E0.01
G1 X60.7 Y76.6 E0.52
G1 X61.0 E0.01
G1 X49.3 Y88.4 E0.52
G1 X49.6 E0.01
G1 X61.5 Y76.6 E0.52
G1 X61.8 E0.01
G1 X50.2 Y88.4 E0.52
G1 X50.5 E0.01
G1 X62.3 Y76.6 E0.52
G1 X62.6 E0.01
G1 X51.0 Y88.4 E0.52
G1 X51.3 E0.01
G1 X63.2 Y76.6 E0.52
G1 X63.5 E0.01
G1 X51.8 Y88.4 E0.52
G1 X52.1 E0.01
G1 X64.1 Y76.6 E0.52
G1 X64.3 E0.01
G1 X52.7 Y88.4 E0.52
G1 X53.0 E0.01
G1 X64.9 Y76.6 E0.52
G1 X65.2 E0.01
G1 X53.6 Y88.4 E0.52
G1 X53.8 E0.01
G1 X65.8 Y76.6 E0.52
G1 X66.0 E0.01
G1 X54.4 Y88.4 E0.52
G1 X54.7 E0.01
G1 X66.6 Y76.6 E0.52
G1 X66.9 E0.01
G1 X55.3 Y88.4 E0.52
G1 X55.6 E0.01
G1 X67.4 Y76.6 E0.52
G1 X67.7 E0.01
G1 X56.1 Y88.4 E0.52
G1 X56.4 E0.01
G1 X68.3 Y76.6 E0.52
G1 X68.6 E0.01
G1 X56.9 Y88.4 E0.52
G1 X57.2 E0.01
G1 X69.1 Y76.6 E0.52
G1 X69.4 E0.01
G1 X57.8 Y88.4 E0.52
G1 X58.1 E0.01
G1 X70.0 Y76.6 E0.52
G1 X70.3 E0.01
G1 X58.7 Y88.4 E0.52
G1 X58.9 E0.01
G1 X70.9 Y76.6 E0.52
G1 X71.1 E0.01
G1 X59.5 Y88.4 E0.52
G1 X59.8 E0.01
G1 X67.6 Y80.8 E0.34
G1 X67.4 Y81.2 E0.01
G1 X60.4 Y88.4 E0.31
G1 X60.6 E0.01
G1 X67.3 Y81.9 E0.29
G1 X67.2 Y82.3 E0.01
G1 X61.2 Y88.4 E0.27
G1 X61.5 E0.01
G1 X67.2 Y82.9 E0.25
G1 X67.3 Y83.1 E0.01
G1 X62.0 Y88.4 E0.23
G1 X62.3 E0.01
G1 X67.3 Y83.5 E0.22
G1 X67.4 Y83.8 E0.01
G1 X62.9 Y88.4 E0.2
G1 X63.2 E0.01
G1 X67.5 Y84.2 E0.19
G1 X67.6 Y84.4 E0.01
G1 X63.7 Y88.4 E0.17
G1 X64.0 E0.01
G1 X67.9 Y84.8 E0.17
G1 Y84.9 E0.0
G1 X64.6 Y88.4 E0.15
G1 X64.9 E0.01
G1 X68.2 Y85.3 E0.14
G1 X68.3 Y85.4 E0.0
G1 X65.5 Y88.4 E0.13
G1 X65.7 E0.01
G1 X68.6 Y85.7 E0.12
G1 X68.7 Y85.9 E0.01
G1 X66.3 Y88.4 E0.11
G1 X66.5 E0.01
G1 X69.0 Y86.2 E0.1
G1 X69.2 Y86.3 E0.01
G1 X67.1 Y88.4 E0.09
G1 X67.4 E0.01
G1 X69.5 Y86.5 E0.09
G1 X69.7 E0.01
G1 X68.0 Y88.4 E0.08
G1 X68.3 E0.01
G1 X70.1 Y86.7 E0.08
G1 F5612.6
G1 E-3.12
G1 F2500.0
G1 X70.4 Y86.8 F15000.0
G1 F5612.6
G1 E3.12
G1 F2500.0
G1 F78.0
G1 E0.06
G1 F2500.0
G1 X68.8 Y88.4 E0.07
G1 X69.1 E0.01
G1 X70.7 Y86.9 E0.07
G1 X71.0 E0.01
G1 X69.7 Y88.4 E0.06
G1 X70.0 E0.01
G1 X71.5 Y87.0 E0.06
G1 X71.8 E0.01
G1 X70.6 Y88.4 E0.06
G1 X70.8 E0.01
G1 X72.4 Y86.9 E0.07
G1 X72.9 Y86.8 E0.02
G1 X71.4 Y88.4 E0.07
G1 X71.6 E0.01
G1 X73.7 Y86.4 E0.09
G1 F5612.6
G1 E-3.12
G1 F2500.0
G1 X73.9 Y78.7 F15000.0
G1 F5612.6
G1 E3.12
G1 F2500.0
G1 F78.0
G1 E0.06
G1 F2500.0
G1 X76.0 Y76.6 E0.09
G1 X76.2 E0.01
G1 X74.2 Y78.8 E0.09
G1 X74.3 Y78.9 E0.0
G1 X76.8 Y76.6 E0.11
G1 X77.0 E0.01
G1 X74.6 Y79.2 E0.11
G1 X74.8 Y79.3 E0.01
G1 X77.6 Y76.6 E0.12
G1 X77.9 E0.01
G1 X75.1 Y79.6 E0.13
G1 X75.2 Y79.7 E0.0
G1 X78.5 Y76.6 E0.14
G1 X78.8 E0.01
G1 X75.4 Y80.2 E0.15
G1 X75.5 Y80.3 E0.0
G1 X79.3 Y76.6 E0.17
G1 X79.6 E0.01
G1 X75.7 Y80.7 E0.18
G1 X75.8 Y80.9 E0.01
G1 X80.2 Y76.6 E0.19
G1 X80.5 E0.01
G1 X76.0 Y81.2 E0.2
G1 Y81.5 E0.01
G1 X81.0 Y76.6 E0.22
G1 X81.3 E0.01
G1 X76.1 Y82.0 E0.23
G1 Y82.2 E0.01
G1 X81.9 Y76.6 E0.25
G1 X82.1 E0.01
G1 X76.1 Y82.8 E0.27
G1 Y83.1 E0.01
G1 X82.7 Y76.6 E0.29
G1 X83.0 E0.01
G1 X76.0 Y83.8 E0.31
G1 X75.7 Y84.3 E0.02
G1 X83.6 Y76.6 E0.34
G1 X83.8 E0.01
G1 X72.2 Y88.4 E0.52
G1 X72.5 E0.01
G1 X84.4 Y76.6 E0.52
G1 X84.7 E0.01
G1 X73.1 Y88.4 E0.52
G1 X73.4 E0.01
G1 X85.3 Y76.6 E0.52
G1 X85.6 E0.01
G1 X73.9 Y88.4 E0.52
G1 X74.2 E0.01
G1 X86.1 Y76.6 E0.52
G1 X86.4 E0.01
G1 X74.8 Y88.4 E0.52
G1 X75.1 E0.01
G1 X86.9 Y76.6 E0.52
G1 X87.2 E0.01
G1 X75.6 Y88.4 E0.52
G1 X75.9 E0.01
G1 X87.8 Y76.6 E0.52
G1 X88.1 E0.01
G1 X76.5 Y88.4 E0.52
G1 X76.7 E0.01
G1 X88.7 Y76.6 E0.52
G1 X88.9 E0.01
G1 X77.3 Y88.4 E0.52
G1 X77.6 E0.01
G1 X89.5 Y76.6 E0.52
G1 X89.8 E0.01
G1 X78.2 Y88.4 E0.52
G1 X78.4 E0.01
G1 X90.4 Y76.6 E0.52
G1 X90.7 E0.01
G1 X79.0 Y88.4 E0.52
G1 X79.3 E0.01
G1 X91.2 Y76.6 E0.52
G1 X91.5 E0.01
G1 X79.9 Y88.4 E0.52
G1 X80.2 E0.01
G1 X92.0 Y76.6 E0.52
G1 X92.3 E0.01
G1 X80.7 Y88.4 E0.52
G1 X81.0 E0.01
G1 X92.9 Y76.6 E0.52
G1 X93.2 E0.01
G1 X81.5 Y88.4 E0.52
G1 X81.8 E0.01
G1 X93.8 Y76.6 E0.52
G1 X94.0 E0.01
G1 X82.4 Y88.4 E0.52
G1 X82.7 E0.01
G1 X94.6 Y76.6 E0.52
G1 X94.9 E0.01
G1 X83.3 Y88.4 E0.52
G1 X83.5 E0.01
G1 X95.5 Y76.6 E0.52
G1 X95.7 E0.01
G1 X84.1 Y88.4 E0.52
G1 X84.4 E0.01
G1 X96.3 Y76.6 E0.52
G1 X96.6 E0.01
G1 X85.0 Y88.4 E0.52
G1 X85.3 E0.01
G1 X97.1 Y76.6 E0.52
G1 X97.4 E0.01
G1 X85.8 Y88.4 E0.52
G1 X86.1 E0.01
G1 X98.0 Y76.6 E0.52
G1 X98.3 E0.01
G1 X86.6 Y88.4 E0.52
G1 X86.9 E0.01
G1 X98.8 Y76.6 E0.52
G1 X99.1 E0.01
G1 X87.5 Y88.4 E0.52
G1 X87.8 E0.01
G1 X99.7 Y76.6 E0.52
G1 X100.0 E0.01
G1 X88.4 Y88.4 E0.52
G1 X88.6 E0.01
G1 X100.6 Y76.6 E0.52
G1 X100.8 E0.01
G1 X89.2 Y88.4 E0.52
G1 X89.5 E0.01
G1 X101.4 Y76.6 E0.52
G1 X101.6 E0.01
G1 X90.1 Y88.4 E0.51
G1 X90.3 E0.01
G1 X102.2 Y76.6 E0.52
G1 X102.5 E0.01
G1 X90.9 Y88.4 E0.52
G1 X91.2 E0.01
G1 X103.1 Y76.6 E0.52
G1 X103.4 E0.01
G1 X91.7 Y88.4 E0.52
G1 X92.0 E0.01
G1 X103.7 Y76.9 E0.51
G1 Y77.2 E0.01
G1 X92.6 Y88.4 E0.49
G1 X92.9 E0.01
G1 X99.9 Y81.5 E0.31
G1 X99.7 Y82.0 E0.02
G1 X93.4 Y88.4 E0.28
G1 X93.7 E0.01
G1 X99.7 Y82.6 E0.26
G1 Y82.8 E0.01
G1 X94.3 Y88.4 E0.24
G1 X94.6 E0.01
G1 X99.8 Y83.3 E0.23
G1 Y83.5 E0.01
G1 X95.2 Y88.4 E0.21
G1 X95.4 E0.01
G1 X100.1 Y83.9 E0.2
G1 X100.2 Y84.1 E0.01
G1 X96.0 Y88.4 E0.19
G1 X96.2 E0.01
G1 X100.4 Y84.4 E0.18
G1 X100.6 Y84.5 E0.01
G1 X96.8 Y88.4 E0.17
G1 X97.1 E0.01
G1 X100.9 Y84.7 E0.17
G1 X101.2 Y84.8 E0.01
G1 X97.7 Y88.4 E0.16
G1 X98.0 E0.01
G1 X101.5 Y85.0 E0.15
G1 X101.7 Y85.1 E0.01
G1 X98.5 Y88.4 E0.14
G1 X98.8 E0.01
G1 X102.2 Y85.1 E0.15
G1 X102.5 E0.01
G1 X99.4 Y88.4 E0.14
G1 X99.7 E0.01
G1 X103.1 Y85.1 E0.15
G1 X103.3 E0.01
G1 X100.3 Y88.4 E0.14
G1 X100.5 E0.01
G1 X103.7 Y85.4 E0.14
G1 Y85.6 E0.01
G1 X101.1 Y88.4 E0.12
G1 X101.3 E0.01
G1 X103.7 Y86.2 E0.1
G1 Y86.5 E0.01
G1 X101.9 Y88.4 E0.08
G1 X102.2 E0.01
G1 X103.7 Y87.1 E0.06
G1 Y87.4 E0.01
G1 X102.8 Y88.4 E0.04
G1 X103.1 E0.01
G1 X103.7 Y87.9 E0.02
G1 Y88.3 E0.01
G1 F5612.6
G1 E-3.12
G1 F2500.0
G1 X103.2 Y79.9 F15000.0
G1 F5612.6
G1 E3.12
G1 F2500.0
G1 F78.0
G1 E0.06
G1 F2500.0
G1 X103.7 Y79.4 E0.02
G1 Y79.8 E0.01
G1 F5612.6
G1 E-3.12
G1 F2500.0
G1 Y79.0 F15000.0
G1 F5612.6
G1 E3.12
G1 F2500.0
G1 F78.0
G1 E0.06
G1 F2500.0
G1 X102.6 Y79.9 E0.04
G1 X102.4 E0.01
G1 X103.7 Y78.4 E0.06
G1 Y78.1 E0.01
G1 X101.8 Y79.9 E0.08
G1 X101.3 Y80.0 E0.02
G1 X103.7 Y77.7 E0.1
G1 F5612.6
G1 E-3.12
G1 F2500.0
G1 X75.5 Y76.6 F15000.0
G1 F5612.6
G1 E3.12
G1 F2500.0
G1 F78.0
G1 E0.06
G1 F2500.0
G1 X73.6 Y78.5 E0.08
G1 X73.3 Y78.4 E0.01
G1 X74.9 Y76.6 E0.08
G1 X74.6 E0.01
G1 X73.0 Y78.2 E0.07
G1 X72.7 Y78.1 E0.01
G1 X74.1 Y76.6 E0.06
G1 X73.8 E0.01
G1 X72.2 Y78.1 E0.07
G1 X72.0 Y78.0 E0.01
G1 X73.3 Y76.6 E0.06
G1 X73.0 E0.01
G1 X71.5 Y78.0 E0.06
G1 X71.2 E0.01
G1 X72.4 Y76.6 E0.06
G1 X72.1 E0.01
G1 X70.6 Y78.1 E0.07
G1 F5612.6
G1 E-3.12
G1 F2500.0
G1 X69.0 Y78.9 F15000.0
G1 F5612.6
G1 E3.12
G1 F2500.0
G1 F78.0
G1 E0.06
G1 F2500.0
G1 X69.5 Y78.6 E0.02
G1 X71.6 Y76.6 E0.09
G1 F5612.6
G1 E-3.12
G1 F2500.0
G1 X42.4 Y84.7 F15000.0
G1 F5612.6
G1 E3.12
G1 F2500.0
G1 F78.0
G1 E0.06
G1 F2500.0
G1 X39.6 Y87.4 E0.12
G1 Y87.1 E0.01
G1 X41.6 Y85.0 E0.09
G1 X41.1 Y85.1 E0.02
G1 X39.6 Y86.5 E0.06
G1 Y86.2 E0.01
G1 X40.6 Y85.1 E0.05
G1 X40.3 E0.01
G1 X39.6 Y85.7 E0.03
G1 Y85.4 E0.01
G1 X39.8 Y85.1 E0.01
G1 F5612.6
G1 E-3.12
G1 F2500.0
;#!LAYER: 2/29
G92 E0
G1 Z0.5 F200.0
G1 X42.8 Y44.8 F15000.0
T0
G1 F5612.6
G1 E3.12
G1 F2500.0
G1 F78.0
G1 E0.06
G1 F2500.0
G1 X42.2 Y44.3 E0.02 F2250.0
G1 X41.5 Y44.0 E0.02
G1 X39.5 Y43.9 E0.06
G1 Y40.5 E0.11
G1 X103.8 Y40.6 E2.0
G1 Y44.0 E0.11
G1 X101.5 E0.07
G1 X100.6 Y44.6 E0.03
G1 X100.2 Y45.1 E0.02
G1 X99.8 Y46.0 E0.03
G1 X99.9 Y47.3 E0.04
G1 X100.6 Y48.3 E0.04
G1 X101.7 Y49.0 E0.04
G1 X103.8 E0.07
G1 Y52.5 E0.11
G1 X39.5 E2.0
G1 Y49.0 E0.11
G1 X41.3 E0.06
G1 X42.7 Y48.3 E0.05
G1 X43.1 Y47.9 E0.02
G1 X43.5 Y46.9 E0.03
G1 X43.4 Y45.7 E0.04
G1 X42.8 Y44.8 E0.03
G1 X42.6 Y45.0 E0.01
G1 X42.1 Y44.6 E0.02
G1 X41.5 Y44.3 E0.02
G1 X39.2 Y44.2 E0.07
G1 Y40.2 E0.12
G1 X104.1 Y40.3 E2.02
G1 X104.0 Y44.3 E0.12
G1 X101.5 Y44.4 E0.08
G1 X100.8 Y44.9 E0.03
G1 X100.4 Y45.4 E0.02
G1 X100.1 Y46.1 E0.02
G1 X100.3 Y47.4 E0.04
G1 X101.1 Y48.4 E0.04
G1 X101.8 Y48.7 E0.02
G1 X104.1 Y48.8 E0.07
G1 Y52.8 E0.12
G1 X39.2 Y52.7 E2.02
G1 Y48.7 E0.12
G1 X41.3 E0.07
G1 X42.2 Y48.4 E0.03
G1 X42.8 Y47.8 E0.03
G1 X43.2 Y46.9 E0.03
G1 X43.1 Y45.8 E0.03
G1 X42.6 Y45.0 E0.03
G1 F5612.6
G1 E-3.12
G1 F2500.0
G1 X42.8 Y44.8
G1 X73.1 Y44.2 F15000.0
G1 F5612.6
G1 E3.12
G1 F2500.0
G1 F78.0
G1 E0.06
G1 F2500.0
G1 X71.6 Y43.7 E0.05 F2250.0
G1 X70.7 Y43.9 E0.03
G1 X69.3 Y45.1 E0.06
G1 X69.1 Y47.6 E0.08
G1 X70.2 Y48.8 E0.05
G1 X71.8 Y49.3 E0.05
G1 X72.8 Y49.0 E0.03
G1 X73.9 Y48.1 E0.04
G1 X74.3 Y46.7 E0.05
G1 Y46.1 E0.02
G1 X74.1 Y45.4 E0.02
G1 X73.6 Y44.6 E0.03
G1 X73.1 Y44.2 E0.02
G1 X73.0 Y44.5 E0.01
G1 X71.7 Y44.0 E0.04
G1 X70.8 Y44.2 E0.03
G1 X70.0 Y44.8 E0.03
G1 X69.6 Y45.2 E0.02
G1 X69.4 Y47.4 E0.07
G1 X69.8 Y48.0 E0.02
G1 X70.4 Y48.6 E0.03
G1 X71.7 Y49.0 E0.04
G1 X72.8 Y48.6 E0.04
G1 X73.6 Y47.9 E0.03
G1 X74.1 Y46.4 E0.05
G1 X73.8 Y45.4 E0.03
G1 X73.0 Y44.5 E0.04
G1 F5612.6
G1 E-3.12
G1 F2500.0
G1 X73.1 Y44.2
G1 X72.8 Y43.9 F15000.0
G1 F5612.6
G1 E3.12
G1 F2500.0
G1 F78.0
G1 E0.06
G1 F2500.0
G1 X69.5 Y40.6 E0.15
G1 X69.8 E0.01
G1 X81.7 Y52.4 E0.52
G1 X82.0 E0.01
G1 X70.3 Y40.6 E0.52
G1 X70.6 E0.01
G1 X82.6 Y52.4 E0.52
G1 X82.8 E0.01
G1 X71.2 Y40.6 E0.52
G1 X71.5 E0.01
G1 X83.4 Y52.4 E0.52
G1 X83.6 E0.01
G1 X72.1 Y40.6 E0.51
G1 X72.3 E0.01
G1 X84.2 Y52.4 E0.52
G1 X84.5 E0.01
G1 X72.9 Y40.6 E0.52
G1 X73.1 E0.01
G1 X85.1 Y52.4 E0.52
G1 X85.4 E0.01
G1 X73.7 Y40.6 E0.52
G1 X74.0 E0.01
G1 X85.9 Y52.4 E0.52
G1 X86.2 E0.01
G1 X74.6 Y40.6 E0.52
G1 X74.9 E0.01
G1 X86.8 Y52.4 E0.52
G1 X87.1 E0.01
G1 X75.4 Y40.6 E0.52
G1 X75.7 E0.01
G1 X87.6 Y52.4 E0.52
G1 X87.9 E0.01
G1 X76.3 Y40.6 E0.52
G1 X76.6 E0.01
G1 X88.5 Y52.4 E0.52
G1 X88.7 E0.01
G1 X77.2 Y40.6 E0.51
G1 X77.4 E0.01
G1 X89.3 Y52.4 E0.52
G1 X89.6 E0.01
G1 X78.0 Y40.6 E0.52
G1 X78.2 E0.01
G1 X90.2 Y52.4 E0.52
G1 X90.4 E0.01
G1 X78.8 Y40.6 E0.52
G1 X79.1 E0.01
G1 X91.0 Y52.4 E0.52
G1 X91.3 E0.01
G1 X79.7 Y40.6 E0.52
G1 X80.0 E0.01
G1 X91.9 Y52.4 E0.52
G1 X92.2 E0.01
G1 X80.5 Y40.6 E0.52
G1 X80.8 E0.01
G1 X92.7 Y52.4 E0.52
G1 X93.0 E0.01
G1 X81.4 Y40.6 E0.52
G1 X81.7 E0.01
G1 X93.5 Y52.4 E0.52
G1 X93.8 E0.01
G1 X82.2 Y40.6 E0.52
G1 X82.5 E0.01
G1 X94.4 Y52.4 E0.52
G1 X94.7 E0.01
G1 X83.1 Y40.6 E0.52
G1 X83.3 E0.01
G1 X95.3 Y52.4 E0.52
G1 X95.5 E0.01
G1 X83.9 Y40.6 E0.52
G1 X84.2 E0.01
G1 X96.1 Y52.4 E0.52
G1 X96.4 E0.01
G1 X84.8 Y40.6 E0.52
G1 X85.0 E0.01
G1 X97.0 Y52.4 E0.52
G1 X97.3 E0.01
G1 X85.6 Y40.6 E0.52
G1 X85.9 E0.01
G1 X97.8 Y52.4 E0.52
G1 X98.1 E0.01
G1 X86.5 Y40.6 E0.52
G1 X86.8 E0.01
G1 X98.6 Y52.4 E0.52
G1 X98.9 E0.01
G1 X87.3 Y40.6 E0.52
G1 X87.6 E0.01
G1 X99.5 Y52.4 E0.52
G1 X99.8 E0.01
G1 X88.1 Y40.6 E0.52
G1 X88.4 E0.01
G1 X100.4 Y52.4 E0.52
G1 X100.6 E0.01
G1 X89.0 Y40.6 E0.52
G1 X89.3 E0.01
G1 X101.2 Y52.4 E0.52
G1 X101.5 E0.01
G1 X89.9 Y40.6 E0.52
G1 X90.1 E0.01
G1 X102.1 Y52.4 E0.52
G1 X102.3 E0.01
G1 X90.7 Y40.6 E0.52
G1 X91.0 E0.01
G1 X102.9 Y52.4 E0.52
G1 X103.2 E0.01
G1 X91.6 Y40.6 E0.52
G1 X91.9 E0.01
G1 X103.7 Y52.3 E0.52
G1 Y52.0 E0.01
G1 X92.4 Y40.6 E0.5
G1 X92.7 E0.01
G1 X100.1 Y47.9 E0.32
G1 X99.8 Y47.3 E0.02
G1 X93.2 Y40.6 E0.29
G1 X93.5 E0.01
G1 X99.7 Y46.7 E0.27
G1 Y46.3 E0.01
G1 X94.1 Y40.6 E0.25
G1 F5612.6
G1 E-3.12
G1 F2500.0
G1 X96.2 F15000.0
G1 F5612.6
G1 E3.12
G1 F2500.0
G1 F78.0
G1 E0.06
G1 F2500.0
G1 X100.3 Y44.8 E0.18
G1 X100.2 Y44.9 E0.0
G1 X95.6 Y40.6 E0.2
G1 X95.4 E0.01
G1 X100.0 Y45.3 E0.21
G1 X99.8 Y45.5 E0.01
G1 X94.8 Y40.6 E0.22
G1 X94.5 E0.01
G1 X99.7 Y45.8 E0.23
G1 F5612.6
G1 E-3.12
G1 F2500.0
G1 X100.5 Y44.5 F15000.0
G1 F5612.6
G1 E3.12
G1 F2500.0
G1 F78.0
G1 E0.06
G1 F2500.0
G1 X96.6 Y40.6 E0.17
G1 X96.9 E0.01
G1 X100.7 Y44.4 E0.17
G1 X101.0 Y44.2 E0.01
G1 X97.5 Y40.6 E0.16
G1 X97.8 E0.01
G1 X101.3 Y44.0 E0.15
G1 X101.5 Y43.9 E0.01
G1 X98.3 Y40.6 E0.14
G1 X98.6 E0.01
G1 X102.1 Y43.9 E0.15
G1 X102.4 E0.01
G1 X99.2 Y40.6 E0.14
G1 X99.5 E0.01
G1 X102.9 Y43.9 E0.15
G1 X103.1 E0.01
G1 X100.0 Y40.6 E0.14
G1 X100.3 E0.01
G1 X103.7 Y43.8 E0.15
G1 Y43.6 E0.01
G1 X100.9 Y40.6 E0.13
G1 X101.2 E0.01
G1 X103.7 Y43.0 E0.11
G1 Y42.7 E0.01
G1 X101.8 Y40.6 E0.09
G1 X102.0 E0.01
G1 X103.7 Y42.1 E0.07
G1 Y41.9 E0.01
G1 X102.6 Y40.6 E0.05
G1 X102.8 E0.01
G1 X103.7 Y41.3 E0.04
G1 Y41.0 E0.01
G1 X103.4 Y40.6 E0.02
G1 F5612.6
G1 E-3.12
G1 F2500.0
G1 X100.9 Y48.7 F15000.0
G1 F5612.6
G1 E3.12
G1 F2500.0
G1 F78.0
G1 E0.06
G1 F2500.0
G1 X103.7 Y51.5 E0.12
G1 Y51.2 E0.01
G1 X101.7 Y49.1 E0.09
G1 X102.0 E0.01
G1 X103.7 Y50.6 E0.07
G1 Y50.3 E0.01
G1 X102.6 Y49.1 E0.05
G1 X102.9 E0.01
G1 X103.7 Y49.7 E0.03
G1 Y49.6 E0.0
G1 X103.4 Y49.1 E0.02
G1 F5612.6
G1 E-3.12
G1 F2500.0
G1 X74.2 Y45.4 F15000.0
G1 F5612.6
G1 E3.12
G1 F2500.0
G1 F78.0
G1 E0.06
G1 F2500.0
G1 X81.1 Y52.4 E0.31
G1 X80.8 E0.01
G1 X74.5 Y46.1 E0.28
G1 Y46.4 E0.01
G1 X80.3 Y52.4 E0.26
G1 X80.0 E0.01
G1 X74.5 Y46.9 E0.24
G1 X74.4 Y47.2 E0.01
G1 X79.4 Y52.4 E0.22
G1 X79.1 E0.01
G1 X74.2 Y47.6 E0.21
G1 Y47.8 E0.01
G1 X78.5 Y52.4 E0.2
G1 X78.3 E0.01
G1 X74.0 Y48.2 E0.19
G1 X73.9 Y48.3 E0.0
G1 X77.7 Y52.4 E0.17
G1 X77.5 E0.01
G1 X73.6 Y48.6 E0.17
G1 X73.4 Y48.8 E0.01
G1 X76.9 Y52.4 E0.16
G1 X76.6 E0.01
G1 X73.1 Y48.9 E0.15
G1 F5612.6
G1 E-3.12
G1 F2500.0
G1 X72.8 Y49.1 F15000.0
G1 F5612.6
G1 E3.12
G1 F2500.0
G1 F78.0
G1 E0.06
G1 F2500.0
G1 X76.0 Y52.4 E0.14
G1 X75.7 E0.01
G1 X72.5 Y49.2 E0.14
G1 X72.2 Y49.3 E0.01
G1 X75.2 Y52.4 E0.13
G1 X74.9 E0.01
G1 X71.8 Y49.4 E0.13
G1 X71.4 Y49.3 E0.01
G1 X74.3 Y52.4 E0.13
G1 X74.0 E0.01
G1 X70.9 Y49.2 E0.14
G1 F5612.6
G1 E-3.12
G1 F2500.0
G1 X70.1 Y48.9 F15000.0
G1 F5612.6
G1 E3.12
G1 F2500.0
G1 F78.0
G1 E0.06
G1 F2500.0
G1 X73.5 Y52.4 E0.15
G1 X73.2 E0.01
G1 X61.3 Y40.6 E0.52
G1 X61.0 E0.01
G1 X72.6 Y52.4 E0.52
G1 X72.4 E0.01
G1 X60.4 Y40.6 E0.52
G1 X60.2 E0.01
G1 X71.8 Y52.4 E0.52
G1 X71.5 E0.01
G1 X59.6 Y40.6 E0.52
G1 X59.3 E0.01
G1 X70.9 Y52.4 E0.52
G1 X70.7 E0.01
G1 X58.7 Y40.6 E0.52
G1 X58.4 E0.01
G1 X70.1 Y52.4 E0.52
G1 X69.8 E0.01
G1 X57.9 Y40.6 E0.52
G1 X57.6 E0.01
G1 X69.2 Y52.4 E0.52
G1 X68.9 E0.01
G1 X57.1 Y40.6 E0.52
G1 X56.8 E0.01
G1 X68.4 Y52.4 E0.52
G1 X68.1 E0.01
G1 X56.2 Y40.6 E0.52
G1 X55.9 E0.01
G1 X67.6 Y52.4 E0.52
G1 X67.3 E0.01
G1 X55.3 Y40.6 E0.52
G1 X55.1 E0.01
G1 X66.7 Y52.4 E0.52
G1 X66.4 E0.01
G1 X54.5 Y40.6 E0.52
G1 X54.2 E0.01
G1 X65.8 Y52.4 E0.52
G1 X65.6 E0.01
G1 X53.6 Y40.6 E0.52
G1 X53.4 E0.01
G1 X65.0 Y52.4 E0.52
G1 X64.7 E0.01
G1 X52.8 Y40.6 E0.52
G1 X52.5 E0.01
G1 X64.1 Y52.4 E0.52
G1 X63.8 E0.01
G1 X52.0 Y40.6 E0.52
G1 X51.7 E0.01
G1 X63.3 Y52.4 E0.52
G1 X63.0 E0.01
G1 X51.1 Y40.6 E0.52
G1 X50.8 E0.01
G1 X62.5 Y52.4 E0.52
G1 X62.2 E0.01
G1 X50.3 Y40.6 E0.52
G1 X50.0 E0.01
G1 X61.6 Y52.4 E0.52
G1 X61.3 E0.01
G1 X49.4 Y40.6 E0.52
G1 X49.1 E0.01
G1 X60.7 Y52.4 E0.52
G1 X60.5 E0.01
G1 X48.5 Y40.6 E0.52
G1 X48.3 E0.01
G1 X59.9 Y52.4 E0.52
G1 X59.6 E0.01
G1 X47.7 Y40.6 E0.52
G1 X47.5 E0.01
G1 X59.0 Y52.4 E0.51
G1 X58.8 E0.01
G1 X46.9 Y40.6 E0.52
G1 X46.6 E0.01
G1 X58.2 Y52.4 E0.52
G1 X57.9 E0.01
G1 X46.0 Y40.6 E0.52
G1 X45.7 E0.01
G1 X57.4 Y52.4 E0.52
G1 X57.1 E0.01
G1 X45.2 Y40.6 E0.52
G1 X44.9 E0.01
G1 X56.5 Y52.4 E0.52
G1 X56.2 E0.01
G1 X44.3 Y40.6 E0.52
G1 X44.0 E0.01
G1 X55.7 Y52.4 E0.52
G1 X55.4 E0.01
G1 X43.4 Y40.6 E0.52
G1 X43.2 E0.01
G1 X54.8 Y52.4 E0.52
G1 X54.5 E0.01
G1 X42.6 Y40.6 E0.52
G1 X42.4 E0.01
G1 X53.9 Y52.4 E0.51
G1 X53.7 E0.01
G1 X41.8 Y40.6 E0.52
G1 X41.5 E0.01
G1 X53.1 Y52.4 E0.52
G1 X52.9 E0.01
G1 X40.9 Y40.6 E0.52
G1 X40.7 E0.01
G1 X52.3 Y52.4 E0.52
G1 X52.0 E0.01
G1 X40.1 Y40.6 E0.52
G1 X39.8 E0.01
G1 X51.4 Y52.4 E0.52
G1 X51.1 E0.01
G1 X39.6 Y41.0 E0.5
G1 Y41.3 E0.01
G1 X50.6 Y52.4 E0.49
G1 X50.3 E0.01
G1 X43.5 Y45.7 E0.3
G1 X43.6 Y46.1 E0.01
G1 X49.7 Y52.4 E0.27
G1 X49.4 E0.01
G1 X43.6 Y46.6 E0.26
G1 Y47.0 E0.01
G1 X48.8 Y52.4 E0.23
G1 X48.6 E0.01
G1 X43.4 Y47.4 E0.22
G1 Y47.6 E0.01
G1 X48.0 Y52.4 E0.21
G1 X47.8 E0.01
G1 X43.2 Y47.9 E0.2
G1 F5612.6
G1 E-3.12
G1 F2500.0
G1 X43.1 Y48.2 F15000.0
G1 F5612.6
G1 E3.12
G1 F2500.0
G1 F78.0
G1 E0.06
G1 F2500.0
G1 X47.2 Y52.4 E0.18
G1 X46.9 E0.01
G1 X42.8 Y48.4 E0.18
G1 X42.7 Y48.5 E0.0
G1 X46.3 Y52.4 E0.17
G1 X46.0 E0.01
G1 X42.3 Y48.8 E0.16
G1 X42.1 Y48.9 E0.01
G1 X45.5 Y52.4 E0.15
G1 X45.2 E0.01
G1 X41.7 Y49.0 E0.15
G1 X41.5 Y49.1 E0.01
G1 X44.6 Y52.4 E0.14
G1 X44.3 E0.01
G1 X41.0 Y49.1 E0.15
G1 X40.7 E0.01
G1 X43.8 Y52.4 E0.14
G1 X43.5 E0.01
G1 X40.1 Y49.1 E0.15
G1 X39.8 E0.01
G1 X42.9 Y52.4 E0.14
G1 X42.7 E0.01
G1 X39.6 Y49.5 E0.13
G1 Y49.7 E0.01
G1 X42.1 Y52.4 E0.11
G1 X41.8 E0.01
G1 X39.6 Y50.3 E0.09
G1 Y50.6 E0.01
G1 X41.2 Y52.4 E0.08
G1 X41.0 E0.01
G1 X39.6 Y51.1 E0.06
G1 Y51.4 E0.01
G1 X40.4 Y52.4 E0.04
G1 X40.1 E0.01
G1 X39.6 Y52.0 E0.02
G1 X39.7 Y52.4 E0.01
G1 F5612.6
G1 E-3.12
G1 F2500.0
G1 X41.9 Y44.0 F15000.0
G1 F5612.6
G1 E3.12
G1 F2500.0
G1 F78.0
G1 E0.06
G1 F2500.0
G1 X39.6 Y41.8 E0.1
G1 Y42.1 E0.01
G1 X41.3 Y43.9 E0.08
G1 X40.9 E0.01
G1 X39.6 Y42.7 E0.06
G1 Y43.0 E0.01
G1 X40.4 Y43.9 E0.04
G1 X40.1 E0.01
G1 X39.6 Y43.4 E0.02
G1 F5612.6
G1 E-3.12
G1 F2500.0
G1 X63.5 Y40.6 F15000.0
G1 F5612.6
G1 E3.12
G1 F2500.0
G1 F78.0
G1 E0.06
G1 F2500.0
G1 X68.9 Y46.1 E0.24
G1 X68.8 Y46.3 E0.01
G1 X63.0 Y40.6 E0.25
G1 X62.7 E0.01
G1 X68.9 Y46.9 E0.28
G1 Y47.3 E0.01
G1 X62.2 Y40.6 E0.3
G1 X61.9 E0.01
G1 X69.4 Y48.2 E0.33
G1 F5612.6
G1 E-3.12
G1 F2500.0
G1 X69.0 Y45.7 F15000.0
G1 F5612.6
G1 E3.12
G1 F2500.0
G1 F78.0
G1 E0.06
G1 F2500.0
G1 X64.0 Y40.6 E0.22
G1 X64.3 E0.01
G1 X69.1 Y45.3 E0.21
G1 X69.2 Y45.1 E0.01
G1 X64.9 Y40.6 E0.19
G1 X65.1 E0.01
G1 X69.4 Y44.8 E0.19
G1 X69.5 Y44.6 E0.01
G1 X65.7 Y40.6 E0.17
G1 X65.9 E0.01
G1 X69.8 Y44.3 E0.17
G1 X70.0 Y44.2 E0.01
G1 X66.5 Y40.6 E0.16
G1 F5612.6
G1 E-3.12
G1 F2500.0
G1 X70.3 Y44.0 F15000.0
G1 F5612.6
G1 E3.12
G1 F2500.0
G1 F78.0
G1 E0.06
G1 F2500.0
G1 X67.0 Y40.6 E0.15
G1 X67.2 E0.01
G1 X70.6 Y43.9 E0.15
G1 X70.8 Y43.7 E0.01
G1 X67.8 Y40.6 E0.13
G1 X68.1 E0.01
G1 X71.3 Y43.7 E0.14
G1 X71.5 Y43.6 E0.01
G1 X68.6 Y40.6 E0.13
G1 X68.9 E0.01
G1 X72.1 Y43.7 E0.14
G1 F5612.6
G1 E-3.12
G1 F2500.0
G1 X68.7 Y60.5 F15000.0
G1 F5612.6
G1 E3.12
G1 F2500.0
G1 F78.0
G1 E0.06
G1 F2500.0
G1 X68.0 Y61.2 E0.03 F2250.0
G1 X67.5 Y62.6 E0.05
G1 X67.7 Y65.0 E0.08
G1 X68.4 Y66.2 E0.04
G1 X68.9 Y66.5 E0.02
G1 X74.6 Y66.4 E0.18
G1 X75.2 Y65.9 E0.02
G1 X75.8 Y64.3 E0.05
G1 X76.0 Y63.4 E0.03
G1 X75.7 Y62.0 E0.04
G1 X74.9 Y60.8 E0.04
G1 X74.5 Y60.5 E0.02
G1 X68.7 E0.18
G1 X68.8 Y60.8 E0.01
G1 X68.3 Y61.3 E0.02
G1 X67.7 Y63.0 E0.06
G1 X67.9 Y64.7 E0.05
G1 X68.6 Y66.0 E0.05
G1 X68.9 Y66.2 E0.01
G1 X74.6 Y66.1 E0.18
G1 X74.9 Y65.7 E0.02
G1 X75.5 Y64.3 E0.05
G1 Y62.6 E0.05
G1 X75.4 Y62.2 E0.01
G1 X74.6 Y61.0 E0.04
G1 X74.4 Y60.8 E0.01
G1 X68.8 E0.17
G1 F5612.6
G1 E-3.12
G1 F2500.0
G1 X68.7 Y60.5
G1 X100.0 Y64.4 F15000.0
G1 F5612.6
G1 E3.12
G1 F2500.0
G1 F78.0
G1 E0.06
G1 F2500.0
G1 X100.6 Y65.3 E0.03 F2250.0
G1 X101.9 Y66.0 E0.05
G1 X103.8 Y66.1 E0.06
G1 X103.7 Y69.5 E0.11
G1 X39.5 Y69.4 E2.0
G1 Y66.0 E0.11
G1 X41.8 Y65.9 E0.07
G1 X42.8 Y65.3 E0.04
G1 X43.3 Y64.6 E0.03
G1 X43.5 Y63.8 E0.03
G1 X43.4 Y62.7 E0.03
G1 X42.8 Y61.7 E0.04
G1 X42.4 Y61.4 E0.02
G1 X41.6 Y61.0 E0.03
G1 X39.5 E0.07
G1 Y57.5 E0.11
G1 X103.8 E2.0
G1 Y61.0 E0.11
G1 X101.6 E0.07
G1 X100.6 Y61.6 E0.04
G1 X100.2 Y62.1 E0.02
G1 X99.8 Y63.0 E0.03
G1 X100.0 Y64.4 E0.04
G1 X100.2 Y64.3 E0.01
G1 X100.7 Y65.0 E0.03
G1 X101.2 Y65.4 E0.02
G1 X102.0 Y65.7 E0.03
G1 X104.1 Y65.8 E0.07
G1 X104.0 Y69.8 E0.12
G1 X39.2 Y69.7 E2.02
G1 Y65.7 E0.12
G1 X41.6 Y65.6 E0.07
G1 X42.5 Y65.0 E0.03
G1 X42.8 Y64.7 E0.01
G1 X43.2 Y63.8 E0.03
G1 X43.1 Y62.8 E0.03
G1 X42.6 Y62.0 E0.03
G1 X42.2 Y61.6 E0.02
G1 X41.5 Y61.3 E0.02
G1 X39.2 Y61.2 E0.07
G1 Y57.2 E0.12
G1 X104.1 E2.02
G1 Y61.3 E0.13
G1 X101.6 E0.08
G1 X100.5 Y62.2 E0.04
G1 X100.1 Y63.1 E0.03
G1 X100.2 Y64.3 E0.04
G1 F5612.6
G1 E-3.12
G1 F2500.0
G1 X100.0 Y64.4
G1 X100.9 Y65.7 F15000.0
G1 F5612.6
G1 E3.12
G1 F2500.0
G1 F78.0
G1 E0.06
G1 F2500.0
G1 X103.7 Y68.5 E0.12
G1 Y68.2 E0.01
G1 X101.7 Y66.1 E0.09
G1 X102.1 E0.01
G1 X103.7 Y67.6 E0.07
G1 Y67.3 E0.01
G1 X102.7 Y66.1 E0.05
G1 X102.9 E0.01
G1 X103.7 Y66.7 E0.03
G1 Y66.5 E0.01
G1 X103.5 Y66.2 E0.01
G1 F5612.6
G1 E-3.12
G1 F2500.0
G1 X100.8 Y61.3 F15000.0
G1 F5612.6
G1 E3.12
G1 F2500.0
G1 F78.0
G1 E0.06
G1 F2500.0
G1 X97.1 Y57.7 E0.16
G1 X97.4 E0.01
G1 X101.1 Y61.1 E0.16
G1 X101.3 E0.01
G1 X98.0 Y57.7 E0.15
G1 F5612.6
G1 E-3.12
G1 F2500.0
G1 X96.7 F15000.0
G1 F5612.6
G1 E3.12
G1 F2500.0
G1 F78.0
G1 E0.06
G1 F2500.0
G1 X100.5 Y61.6 E0.17
G1 X100.4 Y61.7 E0.0
G1 X96.1 Y57.7 E0.18
G1 X95.9 E0.01
G1 X100.1 Y62.0 E0.19
G1 X100.0 Y62.2 E0.01
G1 X95.3 Y57.7 E0.2
G1 X95.0 E0.01
G1 X99.8 Y62.6 E0.21
G1 Y62.9 E0.01
G1 X94.4 Y57.7 E0.23
G1 X94.1 E0.01
G1 X99.7 Y63.3 E0.25
G1 Y63.6 E0.01
G1 X93.6 Y57.7 E0.26
G1 X93.3 E0.01
G1 X99.8 Y64.3 E0.29
G1 X100.1 Y64.9 E0.02
G1 X92.8 Y57.7 E0.32
G1 X92.5 E0.01
G1 X103.7 Y69.0 E0.5
G1 Y69.3 E0.01
G1 X91.9 Y57.7 E0.52
G1 X91.6 E0.01
G1 X103.2 Y69.4 E0.51
G1 X102.9 E0.01
G1 X91.1 Y57.7 E0.52
G1 X90.8 E0.01
G1 X102.4 Y69.4 E0.51
G1 X102.1 E0.01
G1 X90.2 Y57.7 E0.52
G1 X89.9 E0.01
G1 X101.5 Y69.4 E0.51
G1 X101.2 E0.01
G1 X89.3 Y57.7 E0.52
G1 X89.1 E0.01
G1 X100.6 Y69.4 E0.51
G1 X100.4 E0.01
G1 X88.5 Y57.7 E0.52
G1 X88.3 E0.01
G1 X99.8 Y69.4 E0.51
G1 X99.5 E0.01
G1 X87.7 Y57.7 E0.52
G1 X87.4 E0.01
G1 X98.9 Y69.4 E0.51
G1 X98.6 E0.01
G1 X86.8 Y57.7 E0.52
G1 X86.5 E0.01
G1 X98.1 Y69.4 E0.51
G1 X97.8 E0.01
G1 X86.0 Y57.7 E0.52
G1 X85.7 E0.01
G1 X97.3 Y69.4 E0.51
G1 X97.0 E0.01
G1 X85.1 Y57.7 E0.52
G1 X84.8 E0.01
G1 X96.4 Y69.4 E0.51
G1 X96.1 E0.01
G1 X84.2 Y57.7 E0.52
G1 X84.0 E0.01
G1 X95.5 Y69.4 E0.51
G1 X95.3 E0.01
G1 X83.4 Y57.7 E0.52
G1 X83.2 E0.01
G1 X94.7 Y69.4 E0.51
G1 X94.4 E0.01
G1 X82.6 Y57.7 E0.52
G1 X82.3 E0.01
G1 X93.8 Y69.4 E0.51
G1 X93.6 E0.01
G1 X81.7 Y57.7 E0.52
G1 X81.4 E0.01
G1 X93.0 Y69.4 E0.51
G1 X92.7 E0.01
G1 X80.9 Y57.7 E0.52
G1 X80.6 E0.01
G1 X92.2 Y69.4 E0.51
G1 X91.9 E0.01
G1 X80.0 Y57.7 E0.52
G1 X79.7 E0.01
G1 X91.3 Y69.4 E0.51
G1 X91.0 E0.01
G1 X79.2 Y57.7 E0.52
G1 X78.9 E0.01
G1 X90.5 Y69.4 E0.51
G1 X90.2 E0.01
G1 X78.3 Y57.7 E0.52
G1 X78.1 E0.01
G1 X89.6 Y69.4 E0.51
G1 X89.3 E0.01
G1 X77.5 Y57.7 E0.52
G1 X77.2 E0.01
G1 X88.7 Y69.4 E0.51
G1 X88.5 E0.01
G1 X76.6 Y57.7 E0.52
G1 X76.4 E0.01
G1 X87.9 Y69.4 E0.51
G1 X87.7 E0.01
G1 X75.8 Y57.7 E0.52
G1 X75.5 E0.01
G1 X87.1 Y69.4 E0.51
G1 X86.8 E0.01
G1 X74.9 Y57.7 E0.52
G1 X74.6 E0.01
G1 X86.2 Y69.4 E0.51
G1 X85.9 E0.01
G1 X74.1 Y57.7 E0.52
G1 X73.8 E0.01
G1 X85.4 Y69.4 E0.51
G1 X85.1 E0.01
G1 X73.3 Y57.7 E0.52
G1 X73.0 E0.01
G1 X84.5 Y69.4 E0.51
G1 X84.2 E0.01
G1 X72.4 Y57.7 E0.52
G1 X72.1 E0.01
G1 X83.6 Y69.4 E0.51
G1 X83.4 E0.01
G1 X75.8 Y61.9 E0.33
G1 X75.9 Y62.3 E0.01
G1 X82.8 Y69.4 E0.31
G1 X82.6 E0.01
G1 X76.0 Y62.9 E0.29
G1 Y63.2 E0.01
G1 X82.0 Y69.4 E0.27
G1 X81.7 E0.01
G1 X76.0 Y63.8 E0.25
G1 Y64.1 E0.01
G1 X81.1 Y69.4 E0.23
G1 X80.8 E0.01
G1 X75.9 Y64.6 E0.21
G1 X75.8 Y64.7 E0.0
G1 X80.3 Y69.4 E0.2
G1 X80.0 E0.01
G1 X75.7 Y65.2 E0.19
G1 X75.6 Y65.3 E0.0
G1 X79.4 Y69.4 E0.17
G1 X79.1 E0.01
G1 X75.4 Y65.8 E0.16
G1 X75.3 Y65.9 E0.0
G1 X78.6 Y69.4 E0.15
G1 X78.3 E0.01
G1 X75.1 Y66.2 E0.14
G1 X74.9 Y66.4 E0.01
G1 X77.7 Y69.4 E0.13
G1 X77.5 E0.01
G1 X74.6 Y66.6 E0.13
G1 X74.2 E0.01
G1 X76.9 Y69.4 E0.12
G1 X76.6 E0.01
G1 X73.7 Y66.6 E0.13
G1 X73.4 E0.01
G1 X76.0 Y69.4 E0.12
G1 X75.8 E0.01
G1 X72.8 Y66.6 E0.13
G1 X72.5 E0.01
G1 X75.2 Y69.4 E0.12
G1 X74.9 E0.01
G1 X72.0 Y66.6 E0.13
G1 X71.7 E0.01
G1 X74.3 Y69.4 E0.12
G1 X74.0 E0.01
G1 X71.2 Y66.6 E0.12
G1 X70.9 E0.01
G1 X73.5 Y69.4 E0.12
G1 X73.2 E0.01
G1 X70.3 Y66.6 E0.13
G1 X70.0 E0.01
G1 X72.7 Y69.4 E0.12
G1 X72.4 E0.01
G1 X69.4 Y66.6 E0.13
G1 X69.2 E0.01
G1 X71.8 Y69.4 E0.12
G1 X71.5 Y69.3 E0.01
G1 X68.0 Y65.9 E0.15
G1 X59.6 Y57.6 E0.37
G1 X59.3 E0.01
G1 X70.9 Y69.3 E0.51
G1 X70.6 E0.01
G1 X58.7 Y57.6 E0.52
G1 X58.5 E0.01
G1 X70.0 Y69.3 E0.51
G1 X69.8 E0.01
G1 X57.9 Y57.6 E0.52
G1 X57.6 E0.01
G1 X69.2 Y69.3 E0.51
G1 X68.9 E0.01
G1 X57.1 Y57.6 E0.52
G1 X56.8 E0.01
G1 X68.3 Y69.3 E0.51
G1 X68.0 E0.01
G1 X56.2 Y57.6 E0.52
G1 X55.9 E0.01
G1 X67.5 Y69.3 E0.51
G1 X67.2 E0.01
G1 X55.4 Y57.6 E0.52
G1 X55.1 E0.01
G1 X66.7 Y69.3 E0.51
G1 X66.4 E0.01
G1 X54.5 Y57.6 E0.52
G1 X54.2 E0.01
G1 X65.8 Y69.3 E0.51
G1 X65.5 E0.01
G1 X53.6 Y57.6 E0.52
G1 X53.4 E0.01
G1 X64.9 Y69.3 E0.51
G1 X64.7 E0.01
G1 X52.8 Y57.6 E0.52
G1 X52.6 E0.01
G1 X64.1 Y69.3 E0.51
G1 X63.8 E0.01
G1 X52.0 Y57.6 E0.52
G1 X51.7 E0.01
G1 X63.2 Y69.3 E0.51
G1 X62.9 E0.01
G1 X51.1 Y57.6 E0.52
G1 X50.8 E0.01
G1 X62.4 Y69.3 E0.51
G1 X62.1 E0.01
G1 X50.3 Y57.6 E0.52
G1 X50.0 E0.01
G1 X61.6 Y69.3 E0.51
G1 X61.3 E0.01
G1 X49.4 Y57.6 E0.52
G1 X49.1 E0.01
G1 X60.7 Y69.3 E0.51
G1 X60.4 E0.01
G1 X48.6 Y57.6 E0.52
G1 X48.3 E0.01
G1 X59.8 Y69.3 E0.51
G1 X59.6 E0.01
G1 X47.7 Y57.6 E0.52
G1 X47.5 E0.01
G1 X59.0 Y69.3 E0.51
G1 X58.7 E0.01
G1 X46.9 Y57.6 E0.52
G1 X46.6 E0.01
G1 X58.1 Y69.3 E0.51
G1 X57.9 E0.01
G1 X46.0 Y57.6 E0.52
G1 X45.8 E0.01
G1 X57.3 Y69.3 E0.51
G1 X57.0 E0.01
G1 X45.2 Y57.6 E0.52
G1 X44.9 E0.01
G1 X56.5 Y69.3 E0.51
G1 X56.2 E0.01
G1 X44.3 Y57.6 E0.52
G1 X44.0 E0.01
G1 X55.6 Y69.3 E0.51
G1 X55.3 E0.01
G1 X43.5 Y57.6 E0.52
G1 X43.2 E0.01
G1 X54.8 Y69.3 E0.51
G1 X54.5 E0.01
G1 X42.7 Y57.6 E0.52
G1 X42.4 E0.01
G1 X53.9 Y69.3 E0.51
G1 X53.6 E0.01
G1 X41.8 Y57.6 E0.52
G1 X41.5 E0.01
G1 X53.0 Y69.3 E0.51
G1 X52.8 E0.01
G1 X40.9 Y57.6 E0.52
G1 X40.7 E0.01
G1 X52.2 Y69.3 E0.51
G1 X52.0 E0.01
G1 X40.1 Y57.6 E0.52
G1 X39.8 E0.01
G1 X51.4 Y69.3 E0.51
G1 X51.1 E0.01
G1 X39.6 Y58.0 E0.5
G1 Y58.3 E0.01
G1 X50.5 Y69.3 E0.48
G1 X50.2 E0.01
G1 X43.5 Y62.7 E0.29
G1 X43.6 Y63.1 E0.01
G1 X49.7 Y69.3 E0.27
G1 X49.4 E0.01
G1 X43.6 Y63.5 E0.26
G1 Y64.0 E0.02
G1 X48.8 Y69.3 E0.23
G1 X48.5 E0.01
G1 X43.5 Y64.3 E0.22
G1 F5612.6
G1 E-3.12
G1 F2500.0
G1 X43.4 Y64.6 F15000.0
G1 F5612.6
G1 E3.12
G1 F2500.0
G1 F78.0
G1 E0.06
G1 F2500.0
G1 X47.9 Y69.3 E0.2
G1 X47.7 E0.01
G1 X43.2 Y64.9 E0.2
G1 X43.1 Y65.2 E0.01
G1 X47.1 Y69.3 E0.18
G1 X46.9 E0.01
G1 X42.8 Y65.3 E0.18
G1 F5612.6
G1 E-3.12
G1 F2500.0
G1 X42.7 Y65.6 F15000.0
G1 F5612.6
G1 E3.12
G1 F2500.0
G1 F78.0
G1 E0.06
G1 F2500.0
G1 X46.3 Y69.3 E0.16
G1 X46.0 E0.01
G1 X42.4 Y65.8 E0.16
G1 X42.1 Y65.9 E0.01
G1 X45.4 Y69.3 E0.15
G1 X45.1 E0.01
G1 X41.7 Y66.0 E0.15
G1 X41.5 Y66.1 E0.01
G1 X44.6 Y69.3 E0.14
G1 X44.3 E0.01
G1 X40.9 Y66.1 E0.15
G1 X40.6 E0.01
G1 X43.7 Y69.3 E0.14
G1 X43.4 E0.01
G1 X40.3 Y66.1 E0.14
G1 X39.8 E0.02
G1 X42.9 Y69.3 E0.14
G1 X42.6 E0.01
G1 X39.6 Y66.4 E0.13
G1 Y66.7 E0.01
G1 X42.0 Y69.3 E0.11
G1 X41.8 E0.01
G1 X39.6 Y67.3 E0.09
G1 Y67.6 E0.01
G1 X41.2 Y69.3 E0.07
G1 X40.9 E0.01
G1 X39.6 Y68.1 E0.06
G1 Y68.4 E0.01
G1 X40.4 Y69.3 E0.04
G1 X40.1 E0.01
G1 X39.6 Y68.9 E0.02
G1 F5612.6
G1 E-3.12
G1 F2500.0
G1 Y60.8 F15000.0
G1 F5612.6
G1 E3.12
G1 F2500.0
G1 F78.0
G1 E0.06
G1 F2500.0
G1 Y60.4 E0.01
G1 X40.1 Y60.8 E0.02
G1 X40.5 Y60.9 E0.01
G1 X39.6 Y59.9 E0.04
G1 Y59.6 E0.01
G1 X41.0 Y60.9 E0.06
G1 X41.3 E0.01
G1 X39.6 Y59.1 E0.08
G1 Y58.8 E0.01
G1 X41.9 Y61.0 E0.1
G1 F5612.6
G1 E-3.12
G1 F2500.0
G1 X60.1 Y57.6 F15000.0
G1 F5612.6
G1 E3.12
G1 F2500.0
G1 F78.0
G1 E0.06
G1 F2500.0
G1 X67.5 Y64.9 E0.32
G1 X67.4 Y64.6 E0.01
G1 X60.5 Y57.6 E0.31
G1 F5612.6
G1 E-3.12
G1 F2500.0
G1 X65.2 F15000.0
G1 F5612.6
G1 E3.12
G1 F2500.0
G1 F78.0
G1 E0.06
G1 F2500.0
G1 X68.3 Y60.7 E0.14
G1 X68.2 Y60.8 E0.0
G1 X64.7 Y57.6 E0.15
G1 X64.4 E0.01
G1 X67.9 Y61.2 E0.16
G1 X67.8 Y61.4 E0.01
G1 X63.8 Y57.6 E0.17
G1 X63.5 E0.01
G1 X67.6 Y61.8 E0.18
G1 Y62.0 E0.01
G1 X63.0 Y57.6 E0.2
G1 X62.7 E0.01
G1 X67.4 Y62.4 E0.21
G1 Y62.7 E0.01
G1 X62.2 Y57.6 E0.23
G1 X61.9 E0.01
G1 X67.3 Y63.2 E0.24
G1 Y63.4 E0.01
G1 X61.3 Y57.6 E0.26
G1 X61.0 E0.01
G1 X67.3 Y63.9 E0.28
G1 F5612.6
G1 E-3.12
G1 F2500.0
G1 X68.5 Y60.5 F15000.0
G1 F5612.6
G1 E3.12
G1 F2500.0
G1 F78.0
G1 E0.06
G1 F2500.0
G1 X65.7 Y57.6 E0.13
G1 X65.9 E0.01
G1 X68.9 Y60.4 E0.13
G1 X69.1 E0.01
G1 X66.5 Y57.6 E0.12
G1 X66.8 E0.01
G1 X69.7 Y60.4 E0.13
G1 X70.0 E0.01
G1 X67.4 Y57.6 E0.12
G1 X67.7 E0.01
G1 X70.6 Y60.4 E0.13
G1 X70.9 E0.01
G1 X68.2 Y57.6 E0.12
G1 X68.5 E0.01
G1 X71.4 Y60.4 E0.13
G1 X71.7 E0.01
G1 X69.1 Y57.6 E0.12
G1 X69.4 E0.01
G1 X72.2 Y60.4 E0.12
G1 X72.5 E0.01
G1 X70.0 Y57.6 E0.12
G1 X70.2 E0.01
G1 X73.1 Y60.4 E0.13
G1 X73.4 E0.01
G1 X70.8 Y57.6 E0.12
G1 X71.0 E0.01
G1 X74.0 Y60.4 E0.13
G1 X74.2 E0.01
G1 X71.6 Y57.6 E0.12
G1 F5612.6
G1 E-3.12
G1 F2500.0
G1 X101.6 Y60.9 F15000.0
G1 F5612.6
G1 E3.12
G1 F2500.0
G1 F78.0
G1 E0.06
G1 F2500.0
G1 X98.4 Y57.7 E0.14
G1 X98.7 E0.01
G1 X102.1 Y60.9 E0.15
G1 X102.4 E0.01
G1 X99.2 Y57.7 E0.14
G1 X99.5 E0.01
G1 X103.0 Y60.9 E0.15
G1 X103.2 E0.01
G1 X100.1 Y57.7 E0.14
G1 X100.4 E0.01
G1 X103.7 Y60.8 E0.14
G1 Y60.5 E0.01
G1 X101.0 Y57.7 E0.12
G1 X101.2 E0.01
G1 X103.7 Y59.9 E0.1
G1 Y59.7 E0.01
G1 X101.8 Y57.7 E0.09
G1 X102.1 E0.01
G1 X103.7 Y59.1 E0.07
G1 Y58.8 E0.01
G1 X102.7 Y57.7 E0.05
G1 X103.0 E0.01
G1 X103.7 Y58.3 E0.03
G1 Y58.0 E0.01
G1 X103.5 Y57.7 E0.01
G1 F5612.6
G1 E-3.12
G1 F2500.0
G1 X72.4 Y86.8 F15000.0
G1 F5612.6
G1 E3.12
G1 F2500.0
G1 F78.0
G1 E0.06
G1 F2500.0
G1 X72.8 E0.01 F2250.0
G1 X74.3 Y85.9 E0.05
G1 X75.3 Y85.0 E0.04
G1 X75.9 Y83.5 E0.05
G1 X76.0 Y82.2 E0.04
G1 X75.7 Y80.9 E0.04
G1 X74.9 Y79.7 E0.04
G1 X74.1 Y78.8 E0.04
G1 X72.7 Y78.2 E0.05
G1 X71.0 E0.05
G1 X70.4 Y78.3 E0.02
G1 X68.9 Y79.1 E0.05
G1 X68.0 Y80.0 E0.04
G1 X67.4 Y81.5 E0.05
G1 X67.3 Y82.8 E0.04
G1 X67.5 Y83.9 E0.03
G1 X68.3 Y85.3 E0.05
G1 X69.2 Y86.2 E0.04
G1 X70.6 Y86.8 E0.05
G1 X72.4 E0.06
G1 Y86.5 E0.01
G1 X73.0 Y86.3 E0.02
G1 X74.2 Y85.7 E0.04
G1 X75.0 Y84.8 E0.04
G1 X75.6 Y83.5 E0.04
G1 X75.7 Y82.3 E0.04
G1 X75.5 Y81.2 E0.03
G1 X74.7 Y79.9 E0.05
G1 X73.9 Y79.1 E0.04
G1 X72.6 Y78.5 E0.04
G1 X71.0 E0.05
G1 X70.4 Y78.6 E0.02
G1 X69.1 Y79.4 E0.05
G1 X68.3 Y80.3 E0.04
G1 X67.7 Y81.6 E0.04
G1 X67.6 Y82.8 E0.04
G1 X67.8 Y83.8 E0.03
G1 X68.5 Y85.0 E0.04
G1 X69.4 Y85.9 E0.04
G1 X71.1 Y86.5 E0.06
G1 X72.4 E0.04
G1 F5612.6
G1 E-3.12
G1 F2500.0
G1 Y86.8
G1 X42.2 Y80.3 F15000.0
G1 F5612.6
G1 E3.12
G1 F2500.0
G1 F78.0
G1 E0.06
G1 F2500.0
G1 X41.5 Y80.0 E0.02 F2250.0
G1 X39.5 Y79.9 E0.06
G1 Y76.5 E0.11
G1 X103.8 Y76.6 E2.0
G1 Y80.0 E0.11
G1 X101.5 E0.07
G1 X100.6 Y80.6 E0.03
G1 X100.2 Y81.1 E0.02
G1 X99.8 Y82.0 E0.03
G1 X99.9 Y83.3 E0.04
G1 X100.6 Y84.3 E0.04
G1 X101.7 Y85.0 E0.04
G1 X103.8 E0.07
G1 Y88.5 E0.11
G1 X39.5 E2.0
G1 Y85.0 E0.11
G1 X41.3 E0.06
G1 X42.7 Y84.3 E0.05
G1 X43.1 Y83.9 E0.02
G1 X43.5 Y82.9 E0.03
G1 X43.4 Y81.7 E0.04
G1 X42.8 Y80.8 E0.03
G1 X42.2 Y80.3 E0.02
G1 X42.1 Y80.6 E0.01
G1 X41.5 Y80.3 E0.02
G1 X39.2 Y80.2 E0.07
G1 Y76.2 E0.12
G1 X104.1 Y76.3 E2.02
G1 X104.0 Y80.3 E0.12
G1 X101.5 Y80.4 E0.08
G1 X100.8 Y80.9 E0.03
G1 X100.4 Y81.4 E0.02
G1 X100.1 Y82.1 E0.02
G1 X100.3 Y83.4 E0.04
G1 X101.1 Y84.4 E0.04
G1 X101.8 Y84.7 E0.02
G1 X104.1 Y84.8 E0.07
G1 Y88.8 E0.12
G1 X39.2 Y88.7 E2.02
G1 Y84.7 E0.12
G1 X41.3 E0.07
G1 X42.2 Y84.4 E0.03
G1 X42.8 Y83.8 E0.03
G1 X43.2 Y82.9 E0.03
G1 X43.1 Y81.8 E0.03
G1 X42.6 Y81.0 E0.03
G1 X42.1 Y80.6 E0.02
G1 F5612.6
G1 E-3.12
G1 F2500.0
G1 X42.2 Y80.3
G1 X41.8 Y80.0 F15000.0
G1 F5612.6
G1 E3.12
G1 F2500.0
G1 F78.0
G1 E0.06
G1 F2500.0
G1 X39.6 Y77.9 E0.09
G1 Y78.2 E0.01
G1 X41.2 Y79.9 E0.07
G1 X40.9 E0.01
G1 X39.6 Y78.7 E0.06
G1 Y79.0 E0.01
G1 X40.3 Y79.9 E0.04
G1 X40.0 E0.01
G1 X39.6 Y79.5 E0.02
G1 F5612.6
G1 E-3.12
G1 F2500.0
G1 Y88.4 F15000.0
G1 F5612.6
G1 E3.12
G1 F2500.0
G1 F78.0
G1 E0.06
G1 F2500.0
G1 Y88.0 E0.01
G1 X40.0 Y88.4 E0.02
G1 X40.4 E0.01
G1 X39.6 Y87.5 E0.04
G1 Y87.2 E0.01
G1 X40.9 Y88.4 E0.06
G1 X41.2 E0.01
G1 X39.6 Y86.6 E0.08
G1 Y86.4 E0.01
G1 X41.8 Y88.4 E0.09
G1 X42.0 E0.01
G1 X39.6 Y85.8 E0.11
G1 Y85.6 E0.01
G1 X42.6 Y88.4 E0.13
G1 X42.8 E0.01
G1 X39.8 Y85.1 E0.14
G1 X40.0 E0.01
G1 X43.4 Y88.4 E0.15
G1 X43.7 E0.01
G1 X40.6 Y85.1 E0.14
G1 X40.9 E0.01
G1 X44.3 Y88.4 E0.15
G1 X44.6 E0.01
G1 X41.4 Y85.1 E0.14
G1 X41.6 Y85.0 E0.01
G1 X45.1 Y88.4 E0.15
G1 X45.4 E0.01
G1 X42.1 Y84.9 E0.15
G1 X42.3 Y84.8 E0.01
G1 X46.0 Y88.4 E0.16
G1 X46.3 E0.01
G1 X42.6 Y84.6 E0.17
G1 X42.8 Y84.4 E0.01
G1 X46.9 Y88.4 E0.18
G1 X47.1 E0.01
G1 X43.1 Y84.1 E0.18
G1 X43.2 Y84.0 E0.0
G1 X47.7 Y88.4 E0.2
G1 X47.9 E0.01
G1 X43.4 Y83.6 E0.21
G1 Y83.5 E0.0
G1 X48.5 Y88.4 E0.22
G1 X48.8 E0.01
G1 X43.6 Y83.0 E0.23
G1 Y82.8 E0.01
G1 X49.4 Y88.4 E0.25
G1 X49.7 E0.01
G1 X43.6 Y82.1 E0.27
G1 X43.5 Y81.8 E0.01
G1 X50.2 Y88.4 E0.29
G1 X50.5 E0.01
G1 X39.6 Y77.3 E0.49
G1 Y77.0 E0.01
G1 X51.1 Y88.4 E0.5
G1 X51.4 E0.01
G1 X39.7 Y76.6 E0.52
G1 X40.0 E0.01
G1 X51.9 Y88.4 E0.52
G1 X52.2 E0.01
G1 X40.6 Y76.6 E0.52
G1 X40.9 E0.01
G1 X52.8 Y88.4 E0.52
G1 X53.0 E0.01
G1 X41.5 Y76.6 E0.51
G1 X41.7 E0.01
G1 X53.6 Y88.4 E0.52
G1 X53.9 E0.01
G1 X42.3 Y76.6 E0.52
G1 X42.5 E0.01
G1 X54.5 Y88.4 E0.52
G1 X54.7 E0.01
G1 X43.1 Y76.6 E0.52
G1 X43.4 E0.01
G1 X55.3 Y88.4 E0.52
G1 X55.6 E0.01
G1 X44.0 Y76.6 E0.52
G1 X44.3 E0.01
G1 X56.2 Y88.4 E0.52
G1 X56.5 E0.01
G1 X44.8 Y76.6 E0.52
G1 X45.1 E0.01
G1 X57.0 Y88.4 E0.52
G1 X57.3 E0.01
G1 X45.7 Y76.6 E0.52
G1 X46.0 E0.01
G1 X57.8 Y88.4 E0.52
G1 X58.1 E0.01
G1 X46.5 Y76.6 E0.52
G1 X46.8 E0.01
G1 X58.7 Y88.4 E0.52
G1 X59.0 E0.01
G1 X47.4 Y76.6 E0.52
G1 X47.6 E0.01
G1 X59.6 Y88.4 E0.52
G1 X59.8 E0.01
G1 X48.2 Y76.6 E0.52
G1 X48.5 E0.01
G1 X60.4 Y88.4 E0.52
G1 X60.7 E0.01
G1 X49.1 Y76.6 E0.52
G1 X49.3 E0.01
G1 X61.3 Y88.4 E0.52
G1 X61.6 E0.01
G1 X49.9 Y76.6 E0.52
G1 X50.2 E0.01
G1 X62.1 Y88.4 E0.52
G1 X62.4 E0.01
G1 X50.8 Y76.6 E0.52
G1 X51.1 E0.01
G1 X62.9 Y88.4 E0.52
G1 X63.2 E0.01
G1 X51.6 Y76.6 E0.52
G1 X51.9 E0.01
G1 X63.8 Y88.4 E0.52
G1 X64.1 E0.01
G1 X52.4 Y76.6 E0.52
G1 X52.7 E0.01
G1 X64.7 Y88.4 E0.52
G1 X64.9 E0.01
G1 X53.3 Y76.6 E0.52
G1 X53.6 E0.01
G1 X65.5 Y88.4 E0.52
G1 X65.8 E0.01
G1 X54.2 Y76.6 E0.52
G1 X54.4 E0.01
G1 X66.4 Y88.4 E0.52
G1 X66.6 E0.01
G1 X55.0 Y76.6 E0.52
G1 X55.3 E0.01
G1 X67.2 Y88.4 E0.52
G1 X67.5 E0.01
G1 X55.9 Y76.6 E0.52
G1 X56.2 E0.01
G1 X68.0 Y88.4 E0.52
G1 X68.3 E0.01
G1 X56.7 Y76.6 E0.52
G1 X57.0 E0.01
G1 X68.9 Y88.4 E0.52
G1 X69.2 E0.01
G1 X57.5 Y76.6 E0.52
G1 X57.8 E0.01
G1 X69.7 Y88.4 E0.52
G1 X70.0 E0.01
G1 X58.4 Y76.6 E0.52
G1 X58.7 E0.01
G1 X70.6 Y88.4 E0.52
G1 X70.9 E0.01
G1 X59.3 Y76.6 E0.52
G1 X59.5 E0.01
G1 X67.9 Y84.8 E0.37
G1 X67.5 Y84.2 E0.02
G1 X60.1 Y76.6 E0.33
G1 F5612.6
G1 E-3.12
G1 F2500.0
G1 X63.1 F15000.0
G1 F5612.6
G1 E3.12
G1 F2500.0
G1 F78.0
G1 E0.06
G1 F2500.0
G1 X67.4 Y81.1 E0.19
G1 X67.3 Y81.3 E0.01
G1 X62.5 Y76.6 E0.21
G1 X62.2 E0.01
G1 X67.3 Y81.8 E0.23
G1 X67.2 Y82.0 E0.01
G1 X61.7 Y76.6 E0.24
G1 X61.4 E0.01
G1 X67.1 Y82.6 E0.26
G1 X67.2 Y82.9 E0.01
G1 X60.8 Y76.6 E0.28
G1 X60.5 E0.01
G1 X67.3 Y83.5 E0.3
G1 F5612.6
G1 E-3.12
G1 F2500.0
G1 X67.6 Y80.7 F15000.0
G1 F5612.6
G1 E3.12
G1 F2500.0
G1 F78.0
G1 E0.06
G1 F2500.0
G1 X63.5 Y76.6 E0.18
G1 X63.8 E0.01
G1 X67.7 Y80.4 E0.17
G1 X67.8 Y80.2 E0.01
G1 X64.3 Y76.6 E0.16
G1 F5612.6
G1 E-3.12
G1 F2500.0
G1 X69.0 F15000.0
G1 F5612.6
G1 E3.12
G1 F2500.0
G1 F78.0
G1 E0.06
G1 F2500.0
G1 X70.4 Y78.2 E0.07
G1 X70.2 E0.01
G1 X68.5 Y76.6 E0.07
G1 X68.2 E0.01
G1 X69.8 Y78.4 E0.08
G1 X69.7 Y78.5 E0.0
G1 X67.6 Y76.6 E0.09
G1 X67.3 E0.01
G1 X69.2 Y78.7 E0.09
G1 X69.1 Y78.8 E0.0
G1 X66.7 Y76.6 E0.1
G1 X66.5 E0.01
G1 X68.8 Y79.1 E0.11
G1 X68.7 Y79.2 E0.0
G1 X65.9 Y76.6 E0.12
G1 X65.6 E0.01
G1 X68.4 Y79.5 E0.13
G1 X68.3 Y79.6 E0.0
G1 X65.0 Y76.6 E0.14
G1 X64.8 E0.01
G1 X68.0 Y79.9 E0.14
G1 F5612.6
G1 E-3.12
G1 F2500.0
G1 X70.9 Y78.1 F15000.0
G1 F5612.6
G1 E3.12
G1 F2500.0
G1 F78.0
G1 E0.06
G1 F2500.0
G1 X69.4 Y76.6 E0.07
G1 X69.7 E0.01
G1 X71.2 Y78.0 E0.06
G1 X71.5 E0.01
G1 X70.3 Y76.6 E0.06
G1 X70.6 E0.01
G1 X72.2 Y78.1 E0.07
G1 X72.5 E0.01
G1 X71.2 Y76.6 E0.06
G1 X71.4 E0.01
G1 X73.3 Y78.4 E0.08
G1 X73.9 Y78.6 E0.02
G1 X72.0 Y76.6 E0.09
G1 X72.2 E0.01
G1 X84.2 Y88.4 E0.52
G1 X84.4 E0.01
G1 X72.8 Y76.6 E0.52
G1 X73.1 E0.01
G1 X85.0 Y88.4 E0.52
G1 X85.3 E0.01
G1 X73.7 Y76.6 E0.52
G1 X74.0 E0.01
G1 X85.9 Y88.4 E0.52
G1 X86.2 E0.01
G1 X74.5 Y76.6 E0.52
G1 X74.8 E0.01
G1 X86.7 Y88.4 E0.52
G1 X87.0 E0.01
G1 X75.4 Y76.6 E0.52
G1 X75.7 E0.01
G1 X87.5 Y88.4 E0.52
G1 X87.8 E0.01
G1 X76.2 Y76.6 E0.52
G1 X76.5 E0.01
G1 X88.4 Y88.4 E0.52
G1 X88.7 E0.01
G1 X77.1 Y76.6 E0.52
G1 X77.3 E0.01
G1 X89.3 Y88.4 E0.52
G1 X89.5 E0.01
G1 X77.9 Y76.6 E0.52
G1 X78.2 E0.01
G1 X90.1 Y88.4 E0.52
G1 X90.4 E0.01
G1 X78.8 Y76.6 E0.52
G1 X79.0 E0.01
G1 X91.0 Y88.4 E0.52
G1 X91.2 E0.01
G1 X79.6 Y76.6 E0.52
G1 X79.9 E0.01
G1 X91.8 Y88.4 E0.52
G1 X92.1 E0.01
G1 X80.5 Y76.6 E0.52
G1 X80.8 E0.01
G1 X92.6 Y88.4 E0.52
G1 X92.9 E0.01
G1 X81.3 Y76.6 E0.52
G1 X81.6 E0.01
G1 X93.5 Y88.4 E0.52
G1 X93.8 E0.01
G1 X82.1 Y76.6 E0.52
G1 X82.4 E0.01
G1 X94.3 Y88.4 E0.52
G1 X94.6 E0.01
G1 X83.0 Y76.6 E0.52
G1 X83.3 E0.01
G1 X95.2 Y88.4 E0.52
G1 X95.5 E0.01
G1 X83.9 Y76.6 E0.52
G1 X84.1 E0.01
G1 X96.1 Y88.4 E0.52
G1 X96.3 E0.01
G1 X84.7 Y76.6 E0.52
G1 X85.0 E0.01
G1 X96.9 Y88.4 E0.52
G1 X97.1 E0.01
G1 X85.6 Y76.6 E0.51
G1 X85.9 E0.01
G1 X97.7 Y88.4 E0.52
G1 X98.0 E0.01
G1 X86.4 Y76.6 E0.52
G1 X86.7 E0.01
G1 X98.6 Y88.4 E0.52
G1 X98.9 E0.01
G1 X87.2 Y76.6 E0.52
G1 X87.5 E0.01
G1 X99.4 Y88.4 E0.52
G1 X99.7 E0.01
G1 X88.1 Y76.6 E0.52
G1 X88.4 E0.01
G1 X100.3 Y88.4 E0.52
G1 X100.6 E0.01
G1 X89.0 Y76.6 E0.52
G1 X89.2 E0.01
G1 X101.2 Y88.4 E0.52
G1 X101.4 E0.01
G1 X89.8 Y76.6 E0.52
G1 X90.1 E0.01
G1 X102.0 Y88.4 E0.52
G1 X102.2 E0.01
G1 X90.7 Y76.6 E0.51
G1 X90.9 E0.01
G1 X102.8 Y88.4 E0.52
G1 X103.1 E0.01
G1 X91.5 Y76.6 E0.52
G1 X91.8 E0.01
G1 X103.7 Y88.4 E0.52
G1 Y88.1 E0.01
G1 X92.3 Y76.6 E0.5
G1 F5612.6
G1 E-3.12
G1 F2500.0
G1 X95.3 F15000.0
G1 F5612.6
G1 E3.12
G1 F2500.0
G1 F78.0
G1 E0.06
G1 F2500.0
G1 X100.0 Y81.4 E0.21
G1 X99.9 Y81.5 E0.0
G1 X94.7 Y76.6 E0.22
G1 X94.4 E0.01
G1 X99.7 Y81.9 E0.23
G1 Y82.3 E0.01
G1 X93.9 Y76.6 E0.25
G1 X93.6 E0.01
G1 X99.7 Y82.9 E0.27
G1 X99.8 Y83.2 E0.01
G1 X93.1 Y76.6 E0.29
G1 X92.8 E0.01
G1 X100.3 Y84.1 E0.33
G1 F5612.6
G1 E-3.12
G1 F2500.0
G1 X100.5 Y84.4 F15000.0
G1 F5612.6
G1 E3.12
G1 F2500.0
G1 F78.0
G1 E0.06
G1 F2500.0
G1 X103.7 Y87.5 E0.14
G1 Y87.2 E0.01
G1 X101.6 Y85.0 E0.09
G1 X102.1 Y85.1 E0.02
G1 X103.7 Y86.7 E0.07
G1 Y86.4 E0.01
G1 X102.5 Y85.1 E0.06
G1 X102.8 E0.01
G1 X103.7 Y85.9 E0.04
G1 Y85.6 E0.01
G1 X103.4 Y85.1 E0.02
G1 F5612.6
G1 E-3.12
G1 F2500.0
G1 X103.2 Y79.9 F15000.0
G1 F5612.6
G1 E3.12
G1 F2500.0
G1 F78.0
G1 E0.06
G1 F2500.0
G1 X100.0 Y76.6 E0.14
G1 X100.3 E0.01
G1 X103.6 Y79.9 E0.15
G1 X103.7 Y79.6 E0.01
G1 X100.9 Y76.6 E0.13
G1 X101.1 E0.01
G1 X103.7 Y79.0 E0.11
G1 Y78.8 E0.01
G1 X101.7 Y76.6 E0.09
G1 X101.9 E0.01
G1 X103.7 Y78.2 E0.08
G1 Y77.9 E0.01
G1 X102.5 Y76.6 E0.06
G1 X102.8 E0.01
G1 X103.7 Y77.3 E0.04
G1 Y77.1 E0.01
G1 X103.3 Y76.6 E0.02
G1 F5612.6
G1 E-3.12
G1 F2500.0
G1 X99.5 F15000.0
G1 F5612.6
G1 E3.12
G1 F2500.0
G1 F78.0
G1 E0.06
G1 F2500.0
G1 X102.7 Y79.9 E0.14
G1 X102.4 E0.01
G1 X99.0 Y76.6 E0.15
G1 X98.7 E0.01
G1 X101.9 Y79.9 E0.14
G1 X101.6 E0.01
G1 X98.2 Y76.6 E0.15
G1 X97.9 E0.01
G1 X101.2 Y80.1 E0.15
G1 X101.0 Y80.2 E0.01
G1 X97.3 Y76.6 E0.16
G1 X97.0 E0.01
G1 X100.7 Y80.4 E0.17
G1 F5612.6
G1 E-3.12
G1 F2500.0
G1 X100.1 Y81.0 F15000.0
G1 F5612.6
G1 E3.12
G1 F2500.0
G1 F78.0
G1 E0.06
G1 F2500.0
G1 X95.8 Y76.6 E0.19
G1 X96.0 E0.01
G1 X100.4 Y80.8 E0.19
G1 X100.5 Y80.6 E0.01
G1 X96.5 Y76.6 E0.18
G1 F5612.6
G1 E-3.12
G1 F2500.0
G1 X75.2 Y79.9 F15000.0
G1 F5612.6
G1 E3.12
G1 F2500.0
G1 F78.0
G1 E0.06
G1 F2500.0
G1 X83.6 Y88.4 E0.37
G1 X83.3 E0.01
G1 X76.0 Y81.2 E0.32
G1 Y81.4 E0.01
G1 X82.7 Y88.4 E0.3
G1 X82.5 E0.01
G1 X76.1 Y82.2 E0.28
G1 Y82.5 E0.01
G1 X81.9 Y88.4 E0.26
G1 X81.6 E0.01
G1 X76.1 Y82.9 E0.24
G1 Y83.3 E0.01
G1 X81.1 Y88.4 E0.22
G1 X80.8 E0.01
G1 X76.0 Y83.7 E0.21
G1 X75.9 Y83.9 E0.01
G1 X80.2 Y88.4 E0.19
G1 X79.9 E0.01
G1 X75.7 Y84.2 E0.19
G1 Y84.5 E0.01
G1 X79.4 Y88.4 E0.17
G1 X79.1 E0.01
G1 X75.4 Y84.9 E0.16
G1 Y85.1 E0.01
G1 X78.5 Y88.4 E0.14
G1 X78.2 E0.01
G1 X75.1 Y85.4 E0.13
G1 X74.9 Y85.5 E0.01
G1 X77.6 Y88.4 E0.12
G1 X77.4 E0.01
G1 X74.6 Y85.8 E0.12
G1 X74.5 Y85.9 E0.0
G1 X76.8 Y88.4 E0.11
G1 X76.6 E0.01
G1 X74.2 Y86.2 E0.1
G1 X74.0 Y86.3 E0.01
G1 X76.0 Y88.4 E0.09
G1 X75.7 E0.01
G1 X73.7 Y86.5 E0.09
G1 X73.4 Y86.6 E0.01
G1 X75.1 Y88.4 E0.08
G1 X74.8 E0.01
G1 X73.1 Y86.8 E0.07
G1 X72.9 E0.01
G1 X74.3 Y88.4 E0.07
G1 X74.0 E0.01
G1 X72.5 Y86.9 E0.07
G1 X72.2 Y87.0 E0.01
G1 X73.4 Y88.4 E0.06
G1 X73.1 E0.01
G1 X71.6 Y87.0 E0.06
G1 X71.3 E0.01
G1 X72.6 Y88.4 E0.06
G1 X72.3 E0.01
G1 X70.7 Y86.9 E0.07
G1 F5612.6
G1 E-3.12
G1 F2500.0
G1 X70.1 Y86.7 F15000.0
G1 F5612.6
G1 E3.12
G1 F2500.0
G1 F78.0
G1 E0.06
G1 F2500.0
G1 X71.7 Y88.4 E0.07
G1 X71.5 E0.01
G1 X69.4 Y86.3 E0.09
G1 F5612.6
G1 E-3.12
G1 F2500.0
;#!LAYER: 3/29
G92 E0
G1 Z0.75 F200.0
G1 X42.8 Y44.8 F15000.0
T0
G1 F5612.6
G1 E3.12
G1 F2500.0
G1 F78.0
G1 E0.06
G1 F2500.0
G1 X42.2 Y44.3 E0.02 F2250.0
G1 X41.5 Y44.0 E0.02
G1 X39.5 Y43.9 E0.06
G1 Y40.5 E0.11
G1 X103.8 Y40.6 E2.0
G1 Y44.0 E0.11
G1 X101.5 E0.07
G1 X100.6 Y44.6 E0.03
G1 X100.2 Y45.1 E0.02
G1 X99.8 Y46.0 E0.03
G1 X99.9 Y47.3 E0.04
G1 X100.6 Y48.3 E0.04
G1 X101.7 Y49.0 E0.04
G1 X103.8 E0.07
G1 Y52.5 E0.11
G1 X39.5 E2.0
G1 Y49.0 E0.11
G1 X41.3 E0.06
G1 X42.7 Y48.3 E0.05
G1 X43.1 Y47.9 E0.02
G1 X43.5 Y46.9 E0.03
G1 X43.4 Y45.7 E0.04
G1 X42.8 Y44.8 E0.03
G1 X42.6 Y45.0 E0.01
G1 X42.1 Y44.6 E0.02
G1 X41.5 Y44.3 E0.02
G1 X39.2 Y44.2 E0.07
G1 Y40.2 E0.12
G1 X104.1 Y40.3 E2.02
G1 X104.0 Y44.3 E0.12
G1 X101.5 Y44.4 E0.08
G1 X100.8 Y44.9 E0.03
G1 X100.4 Y45.4 E0.02
G1 X100.1 Y46.1 E0.02
G1 X100.3 Y47.4 E0.04
G1 X101.1 Y48.4 E0.04
G1 X101.8 Y48.7 E0.02
G1 X104.1 Y48.8 E0.07
G1 Y52.8 E0.12
G1 X39.2 Y52.7 E2.02
G1 Y48.7 E0.12
G1 X41.3 E0.07
G1 X42.2 Y48.4 E0.03
G1 X42.8 Y47.8 E0.03
G1 X43.2 Y46.9 E0.03
G1 X43.1 Y45.8 E0.03
G1 X42.6 Y45.0 E0.03
G1 F5612.6
G1 E-3.12
G1 F2500.0
G1 X42.8 Y44.8
G1 X73.1 Y44.2 F15000.0
G1 F5612.6
G1 E3.12
G1 F2500.0
G1 F78.0
G1 E0.06
G1 F2500.0
G1 X71.6 Y43.7 E0.05 F2250.0
G1 X70.7 Y43.9 E0.03
G1 X69.3 Y45.1 E0.06
G1 X69.1 Y47.6 E0.08
G1 X70.2 Y48.8 E0.05
G1 X71.8 Y49.3 E0.05
G1 X72.8 Y49.0 E0.03
G1 X73.9 Y48.1 E0.04
G1 X74.3 Y46.7 E0.05
G1 Y46.1 E0.02
G1 X74.1 Y45.4 E0.02
G1 X73.6 Y44.6 E0.03
G1 X73.1 Y44.2 E0.02
G1 X73.0 Y44.5 E0.01
G1 X71.7 Y44.0 E0.04
G1 X70.8 Y44.2 E0.03
G1 X70.0 Y44.8 E0.03
G1 X69.6 Y45.2 E0.02
G1 X69.4 Y47.4 E0.07
G1 X69.8 Y48.0 E0.02
G1 X70.4 Y48.6 E0.03
G1 X71.7 Y49.0 E0.04
G1 X72.8 Y48.6 E0.04
G1 X73.6 Y47.9 E0.03
G1 X74.1 Y46.4 E0.05
G1 X73.8 Y45.4 E0.03
G1 X73.0 Y44.5 E0.04
G1 F5612.6
G1 E-3.12
G1 F2500.0
G1 X73.1 Y44.2
G1 X68.9 Y46.9 F15000.0
G1 F5612.6
G1 E3.12
G1 F2500.0
G1 F78.0
G1 E0.06
G1 F2500.0
G1 X63.5 Y52.4 E0.24
G1 X65.2 E0.05
G1 X69.5 Y48.3 E0.19
G1 X69.6 Y48.4 E0.0
G1 X70.4 Y49.0 E0.03
G1 X67.1 Y52.4 E0.15
G1 X68.8 E0.05
G1 X72.0 Y49.3 E0.14
G1 F5612.6
G1 E-3.12
G1 F2500.0
G1 X49.4 Y40.6 F15000.0
G1 F5612.6
G1 E3.12
G1 F2500.0
G1 F78.0
G1 E0.06
G1 F2500.0
G1 X43.6 Y46.3 E0.25
G1 X43.3 Y45.2 E0.04
G1 X43.1 Y45.1 E0.01
G1 X47.5 Y40.6 E0.2
G1 X45.8 E0.05
G1 X42.1 Y44.2 E0.16
G1 X41.3 Y43.9 E0.03
G1 X40.7 E0.02
G1 X43.8 Y40.6 E0.14
G1 X42.1 E0.05
G1 X39.6 Y43.0 E0.11
G1 Y41.3 E0.05
G1 X40.3 Y40.6 E0.03
G1 F5612.6
G1 E-3.12
G1 F2500.0
G1 X40.9 Y49.1 F15000.0
G1 F5612.6
G1 E3.12
G1 F2500.0
G1 F78.0
G1 E0.06
G1 F2500.0
G1 X39.6 Y50.5 E0.06
G1 Y52.2 E0.05
G1 X51.4 Y40.6 E0.52
G1 X53.0 E0.05
G1 X41.4 Y52.4 E0.52
G1 X43.1 E0.05
G1 X55.0 Y40.6 E0.52
G1 X56.7 E0.05
G1 X45.1 Y52.4 E0.52
G1 X46.8 E0.05
G1 X58.7 Y40.6 E0.52
G1 X60.4 E0.05
G1 X48.8 Y52.4 E0.52
G1 X50.5 E0.05
G1 X62.3 Y40.6 E0.52
G1 X64.1 E0.06
G1 X52.4 Y52.4 E0.52
G1 X54.1 E0.05
G1 X66.1 Y40.6 E0.52
G1 X67.7 E0.05
G1 X56.1 Y52.4 E0.52
G1 X57.8 E0.05
G1 X69.7 Y40.6 E0.52
G1 X71.4 E0.05
G1 X59.8 Y52.4 E0.52
G1 X61.5 E0.05
G1 X73.4 Y40.6 E0.52
G1 X75.1 E0.05
G1 X72.2 Y43.7 E0.13
G1 X73.4 Y44.2 E0.04
G1 X77.1 Y40.6 E0.16
G1 X78.8 E0.05
G1 X74.2 Y45.3 E0.21
G1 X74.4 Y45.8 E0.02
G1 X74.5 Y46.7 E0.03
G1 X80.8 Y40.6 E0.27
G1 X82.4 E0.05
G1 X70.8 Y52.4 E0.52
G1 X72.5 E0.05
G1 X84.4 Y40.6 E0.52
G1 X86.1 E0.05
G1 X74.5 Y52.4 E0.52
G1 X76.2 E0.05
G1 X88.1 Y40.6 E0.52
G1 X89.8 E0.05
G1 X78.2 Y52.4 E0.52
G1 X79.9 E0.05
G1 X91.8 Y40.6 E0.52
G1 X93.5 E0.05
G1 X81.8 Y52.4 E0.52
G1 X83.5 E0.05
G1 X95.5 Y40.6 E0.52
G1 X97.1 E0.05
G1 X85.6 Y52.4 E0.51
G1 X87.2 E0.05
G1 X99.1 Y40.6 E0.52
G1 X100.8 E0.05
G1 X89.2 Y52.4 E0.52
G1 X90.9 E0.05
G1 X102.8 Y40.6 E0.52
G1 X103.6 E0.02
G1 X103.7 Y41.5 E0.03
G1 X100.5 Y44.6 E0.14
G1 X92.9 Y52.4 E0.34
G1 X94.6 E0.05
G1 X99.8 Y47.3 E0.23
G1 X100.4 Y48.4 E0.04
G1 X96.5 Y52.4 E0.17
G1 X98.3 E0.06
G1 X101.7 Y49.1 E0.15
G1 X103.3 E0.05
G1 X100.3 Y52.4 E0.14
G1 X101.9 E0.05
G1 X103.7 Y50.8 E0.08
G1 F5612.6
G1 E-3.12
G1 F2500.0
G1 X100.0 Y64.4 F15000.0
G1 F5612.6
G1 E3.12
G1 F2500.0
G1 F78.0
G1 E0.06
G1 F2500.0
G1 X100.6 Y65.3 E0.03 F2250.0
G1 X101.9 Y66.0 E0.05
G1 X103.8 Y66.1 E0.06
G1 X103.7 Y69.5 E0.11
G1 X39.5 Y69.4 E2.0
G1 Y66.0 E0.11
G1 X41.8 Y65.9 E0.07
G1 X42.8 Y65.3 E0.04
G1 X43.3 Y64.6 E0.03
G1 X43.5 Y63.8 E0.03
G1 X43.4 Y62.7 E0.03
G1 X42.8 Y61.7 E0.04
G1 X42.4 Y61.4 E0.02
G1 X41.6 Y61.0 E0.03
G1 X39.5 E0.07
G1 Y57.5 E0.11
G1 X103.8 E2.0
G1 Y61.0 E0.11
G1 X101.6 E0.07
G1 X100.6 Y61.6 E0.04
G1 X100.2 Y62.1 E0.02
G1 X99.8 Y63.0 E0.03
G1 X100.0 Y64.4 E0.04
G1 X100.2 Y64.3 E0.01
G1 X100.7 Y65.0 E0.03
G1 X101.2 Y65.4 E0.02
G1 X102.0 Y65.7 E0.03
G1 X104.1 Y65.8 E0.07
G1 X104.0 Y69.8 E0.12
G1 X39.2 Y69.7 E2.02
G1 Y65.7 E0.12
G1 X41.6 Y65.6 E0.07
G1 X42.5 Y65.0 E0.03
G1 X42.8 Y64.7 E0.01
G1 X43.2 Y63.8 E0.03
G1 X43.1 Y62.8 E0.03
G1 X42.6 Y62.0 E0.03
G1 X42.2 Y61.6 E0.02
G1 X41.5 Y61.3 E0.02
G1 X39.2 Y61.2 E0.07
G1 Y57.2 E0.12
G1 X104.1 E2.02
G1 Y61.3 E0.13
G1 X101.6 E0.08
G1 X100.5 Y62.2 E0.04
G1 X100.1 Y63.1 E0.03
G1 X100.2 Y64.3 E0.04
G1 F5612.6
G1 E-3.12
G1 F2500.0
G1 X100.0 Y64.4
G1 X68.7 Y60.5 F15000.0
G1 F5612.6
G1 E3.12
G1 F2500.0
G1 F78.0
G1 E0.06
G1 F2500.0
G1 X68.0 Y61.2 E0.03 F2250.0
G1 X67.5 Y62.6 E0.05
G1 X67.7 Y65.0 E0.08
G1 X68.4 Y66.2 E0.04
G1 X68.9 Y66.5 E0.02
G1 X74.6 Y66.4 E0.18
G1 X75.2 Y65.9 E0.02
G1 X75.8 Y64.3 E0.05
G1 X76.0 Y63.4 E0.03
G1 X75.7 Y62.0 E0.04
G1 X74.9 Y60.8 E0.04
G1 X74.5 Y60.5 E0.02
G1 X68.7 E0.18
G1 X68.8 Y60.8 E0.01
G1 X68.3 Y61.3 E0.02
G1 X67.7 Y63.0 E0.06
G1 X67.9 Y64.7 E0.05
G1 X68.6 Y66.0 E0.05
G1 X68.9 Y66.2 E0.01
G1 X74.6 Y66.1 E0.18
G1 X74.9 Y65.7 E0.02
G1 X75.5 Y64.3 E0.05
G1 Y62.6 E0.05
G1 X75.4 Y62.2 E0.01
G1 X74.6 Y61.0 E0.04
G1 X74.4 Y60.8 E0.01
G1 X68.8 E0.17
G1 F5612.6
G1 E-3.12
G1 F2500.0
G1 X68.7 Y60.5
G1 X67.3 Y63.2 F15000.0
G1 F5612.6
G1 E3.12
G1 F2500.0
G1 F78.0
G1 E0.06
G1 F2500.0
G1 X61.3 Y69.3 E0.27
G1 X62.9 E0.05
G1 X67.5 Y64.9 E0.2
G1 X68.1 Y66.0 E0.04
G1 X64.9 Y69.3 E0.14
G1 X66.6 E0.05
G1 X69.5 Y66.6 E0.12
G1 X71.2 E0.05
G1 X68.6 Y69.3 E0.12
G1 X70.3 E0.05
G1 X73.1 Y66.6 E0.12
G1 F5612.6
G1 E-3.12
G1 F2500.0
G1 X103.7 Y69.1 F15000.0
G1 F5612.6
G1 E3.12
G1 F2500.0
G1 F78.0
G1 E0.06
G1 F2500.0
G1 X103.3 Y69.4 E0.02
G1 X101.6 E0.05
G1 X103.7 Y67.2 E0.09
G1 X103.6 Y66.2 E0.03
G1 X103.0 Y66.1 E0.02
G1 X99.7 Y69.4 E0.15
G1 X98.0 E0.05
G1 X101.3 Y65.9 E0.15
G1 X100.6 Y65.4 E0.03
G1 X100.3 Y65.2 E0.01
G1 X96.0 Y69.4 E0.19
G1 X94.3 E0.05
G1 X99.7 Y63.8 E0.24
G1 X99.8 Y62.8 E0.03
G1 X100.3 Y61.7 E0.04
G1 X101.5 Y61.0 E0.04
G1 X102.7 Y60.9 E0.04
G1 X103.7 Y59.8 E0.05
G1 Y58.1 E0.05
G1 X92.3 Y69.4 E0.5
G1 X90.6 E0.05
G1 X102.2 Y57.7 E0.51
G1 X100.5 E0.05
G1 X88.6 Y69.4 E0.52
G1 X86.9 E0.05
G1 X98.5 Y57.7 E0.51
G1 X96.8 E0.05
G1 X85.0 Y69.4 E0.52
G1 X83.3 E0.05
G1 X94.8 Y57.7 E0.51
G1 X93.1 E0.05
G1 X81.3 Y69.4 E0.52
G1 X79.6 E0.05
G1 X91.1 Y57.7 E0.51
G1 X89.5 E0.05
G1 X77.6 Y69.4 E0.52
G1 X75.9 E0.05
G1 X87.5 Y57.7 E0.51
G1 X85.8 E0.05
G1 X73.9 Y69.4 E0.52
G1 X72.2 E0.05
G1 X83.8 Y57.7 E0.51
G1 X82.1 E0.05
G1 X76.0 Y63.6 E0.26
G1 X75.8 Y62.1 E0.05
G1 X80.1 Y57.7 E0.19
G1 X78.4 E0.05
G1 X75.1 Y60.8 E0.14
G1 X74.4 Y60.4 E0.03
G1 X73.9 E0.02
G1 X76.4 Y57.7 E0.11
G1 X74.8 E0.05
G1 X71.9 Y60.4 E0.12
G1 X70.2 E0.05
G1 X72.8 Y57.7 E0.12
G1 X71.1 Y57.6 E0.05
G1 X59.3 Y69.3 E0.52
G1 X57.6 E0.05
G1 X69.1 Y57.6 E0.51
G1 X67.4 E0.05
G1 X55.6 Y69.3 E0.52
G1 X53.9 E0.05
G1 X65.5 Y57.6 E0.51
G1 X63.8 E0.05
G1 X51.9 Y69.3 E0.52
G1 X50.2 E0.05
G1 X61.8 Y57.6 E0.51
G1 X60.1 E0.05
G1 X48.2 Y69.3 E0.52
G1 X46.6 E0.05
G1 X58.1 Y57.6 E0.51
G1 X56.4 E0.05
G1 X44.6 Y69.3 E0.52
G1 X42.9 E0.05
G1 X54.4 Y57.6 E0.51
G1 X52.7 E0.05
G1 X40.9 Y69.3 E0.52
G1 X39.6 Y69.2 E0.04
G1 Y68.9 E0.01
G1 X50.8 Y57.6 E0.5
G1 X49.1 E0.05
G1 X43.6 Y62.9 E0.24
G1 X43.0 Y61.8 E0.04
G1 X47.1 Y57.6 E0.18
G1 X45.4 E0.05
G1 X41.9 Y61.0 E0.15
G1 X40.9 Y60.9 E0.03
G1 X40.3 E0.02
G1 X43.4 Y57.6 E0.14
G1 X41.7 E0.05
G1 X39.6 Y59.6 E0.09
G1 Y57.8 E0.06
G1 X39.8 Y57.6 E0.01
G1 F5612.6
G1 E-3.12
G1 F2500.0
G1 X42.2 Y80.3 F15000.0
G1 F5612.6
G1 E3.12
G1 F2500.0
G1 F78.0
G1 E0.06
G1 F2500.0
G1 X41.5 Y80.0 E0.02 F2250.0
G1 X39.5 Y79.9 E0.06
G1 Y76.5 E0.11
G1 X103.8 Y76.6 E2.0
G1 Y80.0 E0.11
G1 X101.5 E0.07
G1 X100.6 Y80.6 E0.03
G1 X100.2 Y81.1 E0.02
G1 X99.8 Y82.0 E0.03
G1 X99.9 Y83.3 E0.04
G1 X100.6 Y84.3 E0.04
G1 X101.7 Y85.0 E0.04
G1 X103.8 E0.07
G1 Y88.5 E0.11
G1 X39.5 E2.0
G1 Y85.0 E0.11
G1 X41.3 E0.06
G1 X42.7 Y84.3 E0.05
G1 X43.1 Y83.9 E0.02
G1 X43.5 Y82.9 E0.03
G1 X43.4 Y81.7 E0.04
G1 X42.8 Y80.8 E0.03
G1 X42.2 Y80.3 E0.02
G1 X42.1 Y80.6 E0.01
G1 X41.5 Y80.3 E0.02
G1 X39.2 Y80.2 E0.07
G1 Y76.2 E0.12
G1 X104.1 Y76.3 E2.02
G1 X104.0 Y80.3 E0.12
G1 X101.5 Y80.4 E0.08
G1 X100.8 Y80.9 E0.03
G1 X100.4 Y81.4 E0.02
G1 X100.1 Y82.1 E0.02
G1 X100.3 Y83.4 E0.04
G1 X101.1 Y84.4 E0.04
G1 X101.8 Y84.7 E0.02
G1 X104.1 Y84.8 E0.07
G1 Y88.8 E0.12
G1 X39.2 Y88.7 E2.02
G1 Y84.7 E0.12
G1 X41.3 E0.07
G1 X42.2 Y84.4 E0.03
G1 X42.8 Y83.8 E0.03
G1 X43.2 Y82.9 E0.03
G1 X43.1 Y81.8 E0.03
G1 X42.6 Y81.0 E0.03
G1 X42.1 Y80.6 E0.02
G1 F5612.6
G1 E-3.12
G1 F2500.0
G1 X42.2 Y80.3
G1 X72.4 Y86.8 F15000.0
G1 F5612.6
G1 E3.12
G1 F2500.0
G1 F78.0
G1 E0.06
G1 F2500.0
G1 X72.8 E0.01 F2250.0
G1 X74.3 Y85.9 E0.05
G1 X75.3 Y85.0 E0.04
G1 X75.9 Y83.5 E0.05
G1 X76.0 Y82.2 E0.04
G1 X75.7 Y80.9 E0.04
G1 X74.9 Y79.7 E0.04
G1 X74.1 Y78.8 E0.04
G1 X72.7 Y78.2 E0.05
G1 X71.0 E0.05
G1 X70.4 Y78.3 E0.02
G1 X68.9 Y79.1 E0.05
G1 X68.0 Y80.0 E0.04
G1 X67.4 Y81.5 E0.05
G1 X67.3 Y82.8 E0.04
G1 X67.5 Y83.9 E0.03
G1 X68.3 Y85.3 E0.05
G1 X69.2 Y86.2 E0.04
G1 X70.6 Y86.8 E0.05
G1 X72.4 E0.06
G1 Y86.5 E0.01
G1 X73.0 Y86.3 E0.02
G1 X74.2 Y85.7 E0.04
G1 X75.0 Y84.8 E0.04
G1 X75.6 Y83.5 E0.04
G1 X75.7 Y82.3 E0.04
G1 X75.5 Y81.2 E0.03
G1 X74.7 Y79.9 E0.05
G1 X73.9 Y79.1 E0.04
G1 X72.6 Y78.5 E0.04
G1 X71.0 E0.05
G1 X70.4 Y78.6 E0.02
G1 X69.1 Y79.4 E0.05
G1 X68.3 Y80.3 E0.04
G1 X67.7 Y81.6 E0.04
G1 X67.6 Y82.8 E0.04
G1 X67.8 Y83.8 E0.03
G1 X68.5 Y85.0 E0.04
G1 X69.4 Y85.9 E0.04
G1 X71.1 Y86.5 E0.06
G1 X72.4 E0.04
G1 F5612.6
G1 E-3.12
G1 F2500.0
G1 Y86.8
G1 X71.6 Y88.4 F15000.0
G1 F5612.6
G1 E3.12
G1 F2500.0
G1 F78.0
G1 E0.06
G1 F2500.0
G1 X73.2 Y86.7 E0.07
G1 X72.0 Y87.0 E0.04
G1 X71.2 Y86.9 E0.03
G1 X69.7 Y88.3 E0.06
G1 X68.5 E0.04
G1 X68.2 Y88.1 E0.01
G1 X69.7 Y86.5 E0.07
G1 X68.8 Y85.9 E0.03
G1 X68.6 Y85.8 E0.01
G1 X67.1 Y87.2 E0.06
G1 X66.3 Y86.4 E0.04
G1 X67.8 Y84.7 E0.07
G1 X67.4 Y83.8 E0.03
G1 X67.3 Y83.5 E0.01
G1 X65.5 Y85.3 E0.08
G1 X64.7 Y85.1 E0.03
G1 X63.8 E0.03
G1 X67.3 Y81.7 E0.15
G1 F5612.6
G1 E-3.12
G1 F2500.0
G1 X65.8 Y80.1 F15000.0
G1 F5612.6
G1 E3.12
G1 F2500.0
G1 F78.0
G1 E0.06
G1 F2500.0
G1 X66.2 Y79.3 E0.03
G1 X65.2 Y80.2 E0.04
G1 X65.0 E0.01
G1 X68.3 Y76.6 E0.15
G1 X68.1 E0.01
G1 X64.4 Y80.2 E0.16
G1 X64.1 E0.01
G1 X67.5 Y76.6 E0.15
G1 X67.3 E0.01
G1 X63.5 Y80.2 E0.16
G1 X63.3 E0.01
G1 X66.7 Y76.6 E0.15
G1 X66.4 E0.01
G1 X62.7 Y80.2 E0.16
G1 X62.4 E0.01
G1 X65.8 Y76.6 E0.15
G1 X65.5 E0.01
G1 X61.9 Y80.2 E0.16
G1 X61.6 E0.01
G1 X65.0 Y76.6 E0.15
G1 X64.7 E0.01
G1 X61.0 Y80.2 E0.16
G1 X60.7 E0.01
G1 X64.1 Y76.6 E0.15
G1 X63.8 E0.01
G1 X60.2 Y80.2 E0.16
G1 X59.9 E0.01
G1 X63.2 Y76.6 E0.15
G1 X63.0 E0.01
G1 X59.3 Y80.2 E0.16
G1 X59.0 E0.01
G1 X62.4 Y76.6 E0.15
G1 X62.2 E0.01
G1 X58.4 Y80.2 E0.16
G1 X58.2 E0.01
G1 X61.6 Y76.6 E0.15
G1 X61.3 E0.01
G1 X57.6 Y80.2 E0.16
G1 X57.4 E0.01
G1 X60.7 Y76.6 E0.15
G1 X60.4 E0.01
G1 X56.8 Y80.2 E0.16
G1 X56.5 E0.01
G1 X59.9 Y76.6 E0.15
G1 X59.6 E0.01
G1 X55.9 Y80.2 E0.16
G1 X55.6 E0.01
G1 X59.0 Y76.6 E0.15
G1 X58.7 E0.01
G1 X55.1 Y80.2 E0.16
G1 X54.8 E0.01
G1 X58.2 Y76.6 E0.15
G1 X57.9 E0.01
G1 X54.2 Y80.2 E0.16
G1 X53.9 E0.01
G1 X57.3 Y76.6 E0.15
G1 X57.1 E0.01
G1 X53.3 Y80.2 E0.16
G1 X53.1 E0.01
G1 X56.5 Y76.6 E0.15
G1 X56.2 E0.01
G1 X52.5 Y80.2 E0.16
G1 X52.3 E0.01
G1 X55.6 Y76.6 E0.15
G1 X55.4 E0.01
G1 X51.7 Y80.2 E0.16
G1 X51.4 E0.01
G1 X54.8 Y76.6 E0.15
G1 X54.5 E0.01
G1 X50.8 Y80.2 E0.16
G1 X50.5 E0.01
G1 X53.9 Y76.6 E0.15
G1 X53.6 E0.01
G1 X41.8 Y88.4 E0.52
G1 X41.5 E0.01
G1 X53.1 Y76.6 E0.52
G1 X52.8 E0.01
G1 X40.9 Y88.4 E0.52
G1 X40.6 E0.01
G1 X52.3 Y76.6 E0.52
G1 X52.0 E0.01
G1 X40.1 Y88.4 E0.52
G1 X39.8 E0.01
G1 X51.4 Y76.6 E0.52
G1 X51.1 E0.01
G1 X39.6 Y88.0 E0.5
G1 Y87.7 E0.01
G1 X50.5 Y76.6 E0.49
G1 X50.3 E0.01
G1 X43.6 Y83.2 E0.29
G1 Y82.9 E0.01
G1 X49.7 Y76.6 E0.27
G1 X49.4 E0.01
G1 X43.6 Y82.3 E0.25
G1 Y82.1 E0.01
G1 X48.8 Y76.6 E0.24
G1 X48.5 E0.01
G1 X43.4 Y81.6 E0.22
G1 X43.3 Y81.4 E0.01
G1 X48.0 Y76.6 E0.21
G1 X47.7 E0.01
G1 X43.1 Y81.1 E0.2
G1 X43.0 Y80.9 E0.01
G1 X47.2 Y76.6 E0.19
G1 X46.9 E0.01
G1 X42.8 Y80.6 E0.18
G1 X42.6 Y80.5 E0.01
G1 X46.3 Y76.6 E0.17
G1 X46.0 E0.01
G1 X42.3 Y80.2 E0.16
G1 X42.1 E0.01
G1 X45.4 Y76.6 E0.15
G1 X45.2 E0.01
G1 X41.7 Y80.0 E0.15
G1 X41.5 Y79.9 E0.01
G1 X44.6 Y76.6 E0.14
G1 X44.3 E0.01
G1 X40.9 Y79.9 E0.15
G1 X40.7 E0.01
G1 X43.7 Y76.6 E0.14
G1 X43.5 E0.01
G1 X40.1 Y79.9 E0.15
G1 X39.9 Y79.8 E0.01
G1 X42.9 Y76.6 E0.14
G1 X42.6 E0.01
G1 X39.6 Y79.5 E0.13
G1 Y79.2 E0.01
G1 X42.1 Y76.6 E0.11
G1 X41.8 E0.01
G1 X39.6 Y78.7 E0.09
G1 Y78.4 E0.01
G1 X41.2 Y76.6 E0.08
G1 X40.9 E0.01
G1 X39.6 Y77.8 E0.06
G1 Y77.5 E0.01
G1 X40.4 Y76.6 E0.04
G1 X40.1 E0.01
G1 X39.6 Y77.0 E0.02
G1 Y76.6 E0.01
G1 F5612.6
G1 E-3.12
G1 F2500.0
G1 Y85.1 F15000.0
G1 F5612.6
G1 E3.12
G1 F2500.0
G1 F78.0
G1 E0.06
G1 F2500.0
G1 Y85.5 E0.01
G1 X40.0 Y85.1 E0.02
G1 X40.4 E0.01
G1 X39.6 Y86.0 E0.04
G1 Y86.3 E0.01
G1 X40.9 Y85.1 E0.06
G1 X41.2 E0.01
G1 X39.6 Y86.9 E0.08
G1 Y87.1 E0.01
G1 X41.8 Y85.0 E0.09
G1 F5612.6
G1 E-3.12
G1 F2500.0
G1 X49.7 Y81.0 F15000.0
G1 F5612.6
G1 E3.12
G1 F2500.0
G1 F78.0
G1 E0.06
G1 F2500.0
G1 X42.3 Y88.4 E0.33
G1 X42.6 E0.01
G1 X49.7 Y81.4 E0.31
G1 Y81.7 E0.01
G1 X43.2 Y88.4 E0.29
G1 X43.4 E0.01
G1 X49.7 Y82.3 E0.27
G1 Y82.5 E0.01
G1 X44.0 Y88.4 E0.26
G1 X44.3 E0.01
G1 X49.7 Y83.1 E0.24
G1 Y83.3 E0.01
G1 X44.9 Y88.4 E0.22
G1 X45.1 E0.01
G1 X49.7 Y83.9 E0.2
G1 Y84.2 E0.01
G1 X45.7 Y88.4 E0.18
G1 X46.0 E0.01
G1 X49.9 Y84.7 E0.17
G1 X50.1 Y84.8 E0.01
G1 X46.6 Y88.4 E0.16
G1 X46.9 E0.01
G1 X50.5 Y84.8 E0.16
G1 X50.8 E0.01
G1 X47.4 Y88.4 E0.15
G1 X47.7 E0.01
G1 X51.4 Y84.8 E0.16
G1 X51.7 E0.01
G1 X48.2 Y88.4 E0.16
G1 X48.5 E0.01
G1 X52.2 Y84.8 E0.16
G1 X52.5 E0.01
G1 X49.1 Y88.4 E0.15
G1 X49.4 E0.01
G1 X53.1 Y84.8 E0.16
G1 X53.3 E0.01
G1 X50.0 Y88.4 E0.15
G1 X50.2 E0.01
G1 X53.9 Y84.8 E0.16
G1 X54.2 E0.01
G1 X50.8 Y88.4 E0.15
G1 X51.1 E0.01
G1 X54.8 Y84.8 E0.16
G1 X55.0 E0.01
G1 X51.7 Y88.4 E0.15
G1 X52.0 E0.01
G1 X55.6 Y84.8 E0.16
G1 X55.9 E0.01
G1 X52.5 Y88.4 E0.15
G1 X52.8 E0.01
G1 X56.5 Y84.8 E0.16
G1 X56.8 E0.01
G1 X53.3 Y88.4 E0.16
G1 X53.6 E0.01
G1 X57.3 Y84.8 E0.16
G1 X57.7 E0.01
G1 X54.2 Y88.4 E0.16
G1 X54.5 E0.01
G1 X58.1 Y84.9 E0.16
G1 X58.4 E0.01
G1 X55.1 Y88.4 E0.15
G1 X55.3 E0.01
G1 X59.0 Y84.9 E0.16
G1 X59.2 E0.01
G1 X55.9 Y88.4 E0.15
G1 X56.2 E0.01
G1 X59.8 Y84.9 E0.16
G1 X60.1 E0.01
G1 X56.8 Y88.4 E0.15
G1 X57.0 E0.01
G1 X60.7 Y84.9 E0.16
G1 X60.9 E0.01
G1 X57.6 Y88.4 E0.15
G1 X57.9 E0.01
G1 X61.5 Y84.9 E0.16
G1 X61.8 E0.01
G1 X58.4 Y88.4 E0.15
G1 X58.7 E0.01
G1 X62.3 Y84.9 E0.16
G1 X62.6 E0.01
G1 X59.3 Y88.4 E0.15
G1 X59.6 E0.01
G1 X63.2 Y84.9 E0.16
G1 X63.5 E0.01
G1 X60.1 Y88.4 E0.15
G1 X60.4 E0.01
G1 X64.0 Y84.9 E0.16
G1 X64.3 E0.01
G1 X61.0 Y88.4 E0.15
G1 X61.3 E0.01
G1 X64.9 Y84.9 E0.16
G1 X65.2 E0.01
G1 X61.9 Y88.4 E0.15
G1 X62.1 E0.01
G1 X65.8 Y84.9 E0.16
G1 X65.9 Y85.0 E0.0
G1 X62.7 Y88.4 E0.15
G1 X62.9 E0.01
G1 X66.1 Y85.4 E0.14
G1 X66.2 Y85.6 E0.01
G1 X63.5 Y88.4 E0.12
G1 X63.8 E0.01
G1 X66.4 Y86.0 E0.11
G1 X66.5 Y86.2 E0.01
G1 X64.4 Y88.4 E0.09
G1 X64.7 E0.01
G1 X66.7 Y86.5 E0.09
G1 X66.9 Y86.6 E0.01
G1 X65.2 Y88.4 E0.08
G1 X65.5 E0.01
G1 X67.1 Y86.9 E0.07
G1 X67.3 Y87.1 E0.01
G1 X66.1 Y88.4 E0.06
G1 X66.4 E0.01
G1 X67.6 Y87.3 E0.05
G1 X67.7 Y87.5 E0.01
G1 X67.0 Y88.4 E0.04
G1 X67.2 E0.01
G1 X68.0 Y87.7 E0.03
G1 X68.2 Y87.8 E0.01
G1 X67.8 Y88.4 E0.02
G1 X68.0 E0.01
G1 X68.6 Y88.0 E0.02
G1 X68.8 Y88.1 E0.01
G1 X68.6 Y88.4 E0.01
G1 X69.2 Y88.3 E0.02
G1 X69.4 Y88.4 E0.01
G1 F5612.6
G1 E-3.12
G1 F2500.0
G1 X74.5 Y88.0 F15000.0
G1 F5612.6
G1 E3.12
G1 F2500.0
G1 F78.0
G1 E0.06
G1 F2500.0
G1 X74.2 Y88.4 E0.02
G1 X74.4 E0.01
G1 X75.3 Y87.6 E0.04
G1 F5612.6
G1 E-3.12
G1 F2500.0
G1 X75.8 Y84.2 F15000.0
G1 F5612.6
G1 E3.12
G1 F2500.0
G1 F78.0
G1 E0.06
G1 F2500.0
G1 X80.0 Y79.9 E0.19
G1 X78.2 E0.06
G1 X76.1 Y81.9 E0.09
G1 X75.8 Y80.8 E0.04
G1 X75.7 Y80.6 E0.01
G1 X77.3 Y79.0 E0.07
G1 X76.4 Y78.0 E0.04
G1 X74.9 Y79.4 E0.06
G1 X74.0 Y78.7 E0.04
G1 X75.4 Y77.1 E0.07
G1 X74.5 Y76.7 E0.03
G1 X74.1 E0.01
G1 X72.5 Y78.1 E0.07
G1 X71.1 Y78.0 E0.04
G1 X70.9 Y78.1 E0.01
G1 X72.1 Y76.7 E0.06
G1 X70.5 Y76.6 E0.05
G1 X61.8 Y85.1 E0.38
G1 X60.1 E0.05
G1 X65.3 Y79.9 E0.23
G1 X63.5 E0.06
G1 X58.1 Y85.1 E0.23
G1 X56.5 E0.05
G1 X61.6 Y79.9 E0.23
G1 X59.9 E0.05
G1 X54.5 Y85.1 E0.23
G1 X52.9 Y85.0 E0.05
G1 X57.9 Y79.9 E0.22
G1 X56.2 E0.05
G1 X50.9 Y85.0 E0.23
G1 X49.4 E0.05
G1 X54.2 Y79.9 E0.22
G1 X52.6 E0.05
G1 X49.4 Y82.9 E0.14
G1 Y81.2 E0.05
G1 X50.7 Y79.9 E0.06
G1 F5612.6
G1 E-3.12
G1 F2500.0
G1 X65.8 Y79.5 F15000.0
G1 F5612.6
G1 E3.12
G1 F2500.0
G1 F78.0
G1 E0.06
G1 F2500.0
G1 X65.7 Y79.6 E0.0
G1 X68.5 Y76.7 E0.13
G1 F5612.6
G1 E-3.12
G1 F2500.0
G1 X68.1 Y77.4 F15000.0
G1 F5612.6
G1 E3.12
G1 F2500.0
G1 F78.0
G1 E0.06
G1 F2500.0
G1 X68.9 Y76.6 E0.04
G1 X69.3 E0.01
G1 F5612.6
G1 E-3.12
G1 F2500.0
G1 X74.2 Y76.9 F15000.0
G1 F5612.6
G1 E3.12
G1 F2500.0
G1 F78.0
G1 E0.06
G1 F2500.0
G1 X74.5 Y76.6 E0.01
G1 X74.8 E0.01
G1 X74.5 Y77.0 E0.02
G1 X74.7 E0.01
G1 X75.3 Y76.6 E0.02
G1 X75.7 E0.01
G1 X75.1 Y77.2 E0.03
G1 X75.3 Y77.3 E0.01
G1 X76.1 Y76.6 E0.03
G1 X76.5 E0.01
G1 X75.6 Y77.6 E0.04
G1 X75.7 Y77.8 E0.01
G1 X77.0 Y76.6 E0.06
G1 X77.3 E0.01
G1 X76.0 Y78.1 E0.06
G1 X76.1 Y78.2 E0.0
G1 X77.8 Y76.6 E0.07
G1 X78.1 E0.01
G1 X76.4 Y78.4 E0.08
G1 X76.6 Y78.6 E0.01
G1 X78.7 Y76.6 E0.09
G1 X79.0 E0.01
G1 X76.8 Y79.0 E0.1
G1 X76.9 Y79.1 E0.0
G1 X79.6 Y76.6 E0.11
G1 X79.8 E0.01
G1 X77.1 Y79.5 E0.12
G1 X77.2 Y79.7 E0.01
G1 X80.4 Y76.6 E0.14
G1 X80.6 E0.01
G1 X77.4 Y80.0 E0.15
G1 X77.5 Y80.2 E0.01
G1 X81.2 Y76.6 E0.16
G1 X81.5 E0.01
G1 X78.1 Y80.2 E0.15
G1 X78.4 E0.01
G1 X82.1 Y76.6 E0.16
G1 X82.4 E0.01
G1 X79.0 Y80.2 E0.15
G1 X79.3 E0.01
G1 X82.9 Y76.6 E0.16
G1 X83.2 E0.01
G1 X79.8 Y80.2 E0.15
G1 X80.1 E0.01
G1 X83.8 Y76.6 E0.16
G1 X84.1 E0.01
G1 X80.6 Y80.2 E0.16
G1 X80.9 E0.01
G1 X84.7 Y76.6 E0.16
G1 X84.9 E0.01
G1 X81.5 Y80.2 E0.15
G1 X81.8 E0.01
G1 X85.5 Y76.6 E0.16
G1 X85.7 E0.01
G1 X82.4 Y80.2 E0.15
G1 X82.6 E0.01
G1 X86.3 Y76.6 E0.16
G1 X86.6 E0.01
G1 X83.2 Y80.2 E0.15
G1 X83.5 E0.01
G1 X87.2 Y76.6 E0.16
G1 X87.5 E0.01
G1 X84.1 Y80.2 E0.15
G1 X84.4 E0.01
G1 X88.0 Y76.6 E0.16
G1 X88.3 E0.01
G1 X84.9 Y80.2 E0.15
G1 X85.2 E0.01
G1 X88.9 Y76.6 E0.16
G1 X89.2 E0.01
G1 X85.7 Y80.2 E0.16
G1 X86.0 E0.01
G1 X89.7 Y76.6 E0.16
G1 X90.0 E0.01
G1 X86.6 Y80.2 E0.15
G1 X86.9 E0.01
G1 X90.6 Y76.6 E0.16
G1 X90.8 E0.01
G1 X87.5 Y80.2 E0.15
G1 X87.7 E0.01
G1 X91.4 Y76.6 E0.16
G1 X91.7 E0.01
G1 X88.3 Y80.2 E0.15
G1 X88.6 E0.01
G1 X92.3 Y76.6 E0.16
G1 X92.5 E0.01
G1 X89.2 Y80.2 E0.15
G1 X89.4 E0.01
G1 X93.1 Y76.6 E0.16
G1 X93.4 E0.01
G1 X90.0 Y80.2 E0.15
G1 X90.3 E0.01
G1 X94.0 Y76.6 E0.16
G1 X94.3 E0.01
G1 X90.8 Y80.2 E0.16
G1 X91.1 E0.01
G1 X94.8 Y76.6 E0.16
G1 X95.1 E0.01
G1 X91.7 Y80.2 E0.15
G1 X92.0 E0.01
G1 X95.6 Y76.6 E0.16
G1 X95.9 E0.01
G1 X92.5 Y80.2 E0.15
G1 X92.8 E0.01
G1 X96.5 Y76.6 E0.16
G1 F5612.6
G1 E-3.12
G1 F2500.0
G1 X101.2 F15000.0
G1 F5612.6
G1 E3.12
G1 F2500.0
G1 F78.0
G1 E0.06
G1 F2500.0
G1 X93.7 Y84.1 E0.33
G1 X93.6 Y83.8 E0.01
G1 X100.6 Y76.6 E0.31
G1 X100.3 E0.01
G1 X93.6 Y83.2 E0.29
G1 Y82.9 E0.01
G1 X99.8 Y76.6 E0.28
G1 X99.5 E0.01
G1 X93.6 Y82.3 E0.26
G1 Y82.1 E0.01
G1 X98.9 Y76.6 E0.24
G1 X98.6 E0.01
G1 X93.6 Y81.5 E0.22
G1 Y81.2 E0.01
G1 X98.0 Y76.6 E0.2
G1 X97.8 E0.01
G1 X93.5 Y80.7 E0.19
G1 Y80.5 E0.01
G1 X97.2 Y76.6 E0.17
G1 X97.0 E0.01
G1 X93.3 Y80.3 E0.16
G1 F5612.6
G1 E-3.12
G1 F2500.0
G1 X93.9 Y84.4 F15000.0
G1 F5612.6
G1 E3.12
G1 F2500.0
G1 F78.0
G1 E0.06
G1 F2500.0
G1 X93.1 Y85.1 E0.03
G1 X91.4 E0.05
G1 X93.9 Y82.5 E0.11
G1 Y80.8 E0.05
G1 X89.4 Y85.1 E0.19
G1 X87.7 E0.05
G1 X92.8 Y79.9 E0.23
G1 X91.1 E0.05
G1 X85.7 Y85.2 E0.24
G1 X83.9 E0.06
G1 X89.1 Y79.9 E0.23
G1 X87.4 E0.05
G1 X82.0 Y85.2 E0.24
G1 X80.3 E0.05
G1 X85.4 Y79.9 E0.23
G1 X83.8 E0.05
G1 X78.3 Y85.2 E0.24
G1 X77.6 Y85.3 E0.02
G1 X76.6 Y86.8 E0.06
G1 X75.1 Y88.1 E0.06
G1 X74.3 Y88.4 E0.03
G1 X73.4 E0.03
G1 X81.8 Y79.9 E0.37
G1 F5612.6
G1 E-3.12
G1 F2500.0
G1 X77.6 Y84.8 F15000.0
G1 F5612.6
G1 E3.12
G1 F2500.0
G1 F78.0
G1 E0.06
G1 F2500.0
G1 X77.0 Y85.9 E0.04
G1 X78.1 Y84.8 E0.05
G1 X78.4 E0.01
G1 X75.0 Y88.4 E0.15
G1 X75.2 E0.01
G1 X79.0 Y84.8 E0.16
G1 X79.3 E0.01
G1 X75.8 Y88.4 E0.16
G1 X76.1 E0.01
G1 X79.8 Y84.8 E0.16
G1 X80.1 E0.01
G1 X76.7 Y88.4 E0.15
G1 X77.0 E0.01
G1 X80.6 Y84.8 E0.16
G1 X80.9 E0.01
G1 X77.5 Y88.4 E0.15
G1 X77.8 E0.01
G1 X81.5 Y84.8 E0.16
G1 X81.8 E0.01
G1 X78.4 Y88.4 E0.15
G1 X78.7 E0.01
G1 X82.4 Y84.8 E0.16
G1 X82.6 E0.01
G1 X79.3 Y88.4 E0.15
G1 X79.5 E0.01
G1 X83.2 Y84.8 E0.16
G1 X83.5 E0.01
G1 X80.1 Y88.4 E0.15
G1 X80.3 E0.01
G1 X84.1 Y84.8 E0.16
G1 X84.3 E0.01
G1 X80.9 Y88.4 E0.15
G1 X81.2 E0.01
G1 X84.9 Y84.8 E0.16
G1 X85.1 E0.01
G1 X81.8 Y88.4 E0.15
G1 X82.1 E0.01
G1 X85.7 Y84.8 E0.16
G1 X86.0 E0.01
G1 X82.6 Y88.4 E0.15
G1 X82.9 E0.01
G1 X86.6 Y84.8 E0.16
G1 X86.9 E0.01
G1 X83.5 Y88.4 E0.15
G1 X83.8 E0.01
G1 X87.4 Y84.8 E0.16
G1 X87.7 E0.01
G1 X84.3 Y88.4 E0.15
G1 X84.6 E0.01
G1 X88.3 Y84.8 E0.16
G1 X88.6 E0.01
G1 X85.2 Y88.4 E0.15
G1 X85.4 E0.01
G1 X89.2 Y84.8 E0.16
G1 X89.4 E0.01
G1 X86.0 Y88.4 E0.15
G1 X86.3 E0.01
G1 X90.0 Y84.8 E0.16
G1 X90.2 E0.01
G1 X86.9 Y88.4 E0.15
G1 X87.1 E0.01
G1 X90.8 Y84.8 E0.16
G1 X91.1 E0.01
G1 X87.7 Y88.4 E0.15
G1 X88.0 E0.01
G1 X91.7 Y84.8 E0.16
G1 X92.0 E0.01
G1 X88.6 Y88.4 E0.15
G1 X88.9 E0.01
G1 X92.5 Y84.8 E0.16
G1 X92.8 E0.01
G1 X89.4 Y88.4 E0.15
G1 X89.7 E0.01
G1 X101.6 Y76.6 E0.52
G1 X101.9 E0.01
G1 X90.2 Y88.4 E0.52
G1 X90.5 E0.01
G1 X102.4 Y76.6 E0.52
G1 X102.7 E0.01
G1 X91.1 Y88.4 E0.52
G1 X91.4 E0.01
G1 X103.3 Y76.6 E0.52
G1 X103.6 E0.01
G1 X92.0 Y88.4 E0.52
G1 X92.2 E0.01
G1 X103.7 Y77.1 E0.5
G1 Y77.3 E0.01
G1 X92.8 Y88.4 E0.49
G1 X93.1 E0.01
G1 X99.8 Y81.8 E0.29
G1 X99.7 Y82.1 E0.01
G1 X93.7 Y88.4 E0.27
G1 X94.0 E0.01
G1 X99.7 Y82.7 E0.25
G1 X99.8 Y83.0 E0.01
G1 X94.5 Y88.4 E0.24
G1 X94.8 E0.01
G1 X99.8 Y83.5 E0.22
G1 X100.0 Y83.7 E0.01
G1 X95.3 Y88.4 E0.21
G1 X95.6 E0.01
G1 X100.1 Y84.0 E0.2
G1 X100.3 Y84.2 E0.01
G1 X96.2 Y88.4 E0.18
G1 X96.5 E0.01
G1 X100.6 Y84.4 E0.18
G1 X100.7 Y84.6 E0.01
G1 X97.1 Y88.4 E0.16
G1 X97.3 E0.01
G1 X101.0 Y84.8 E0.16
G1 X101.2 Y84.9 E0.01
G1 X97.9 Y88.4 E0.15
G1 X98.2 E0.01
G1 X101.6 Y85.1 E0.15
G1 X101.9 E0.01
G1 X98.8 Y88.4 E0.14
G1 X99.0 E0.01
G1 X102.4 Y85.1 E0.15
G1 X102.7 E0.01
G1 X99.6 Y88.4 E0.14
G1 X99.9 E0.01
G1 X103.3 Y85.1 E0.15
G1 X103.6 E0.01
G1 X100.4 Y88.4 E0.14
G1 X100.7 E0.01
G1 X103.7 Y85.6 E0.13
G1 Y85.9 E0.01
G1 X101.3 Y88.4 E0.11
G1 X101.6 E0.01
G1 X103.7 Y86.4 E0.09
G1 Y86.7 E0.01
G1 X102.1 Y88.4 E0.07
G1 X102.4 E0.01
G1 X103.7 Y87.2 E0.06
G1 Y87.5 E0.01
G1 X103.0 Y88.4 E0.04
G1 X103.3 E0.01
G1 X103.7 Y88.1 E0.02
G1 F5612.6
G1 E-3.12
G1 F2500.0
G1 X101.6 Y79.9 F15000.0
G1 F5612.6
G1 E3.12
G1 F2500.0
G1 F78.0
G1 E0.06
G1 F2500.0
G1 X103.7 Y77.9 E0.09
G1 Y78.2 E0.01
G1 X102.1 Y79.9 E0.07
G1 X102.4 E0.01
G1 X103.7 Y78.8 E0.05
G1 Y79.1 E0.01
G1 X103.0 Y79.9 E0.03
G1 X103.3 E0.01
G1 X103.7 Y79.6 E0.02
G1 F5612.6
G1 E-3.12
G1 F2500.0
;#!LAYER: 4/29
G92 E0
G1 Z1.0 F200.0
G1 X42.8 Y44.8 F15000.0
T0
G1 F5612.6
G1 E3.12
G1 F2500.0
G1 F78.0
G1 E0.06
G1 F2500.0
G1 X42.2 Y44.3 E0.02 F2250.0
G1 X41.5 Y44.0 E0.02
G1 X39.5 Y43.9 E0.06
G1 Y40.5 E0.11
G1 X103.8 Y40.6 E2.0
G1 Y44.0 E0.11
G1 X101.5 E0.07
G1 X100.6 Y44.6 E0.03
G1 X100.2 Y45.1 E0.02
G1 X99.8 Y46.0 E0.03
G1 X99.9 Y47.3 E0.04
G1 X100.6 Y48.3 E0.04
G1 X101.7 Y49.0 E0.04
G1 X103.8 E0.07
G1 Y52.5 E0.11
G1 X39.5 E2.0
G1 Y49.0 E0.11
G1 X41.3 E0.06
G1 X42.7 Y48.3 E0.05
G1 X43.1 Y47.9 E0.02
G1 X43.5 Y46.9 E0.03
G1 X43.4 Y45.7 E0.04
G1 X42.8 Y44.8 E0.03
G1 X42.6 Y45.0 E0.01
G1 X42.1 Y44.6 E0.02
G1 X41.5 Y44.3 E0.02
G1 X39.2 Y44.2 E0.07
G1 Y40.2 E0.12
G1 X104.1 Y40.3 E2.02
G1 X104.0 Y44.3 E0.12
G1 X101.5 Y44.4 E0.08
G1 X100.8 Y44.9 E0.03
G1 X100.4 Y45.4 E0.02
G1 X100.1 Y46.1 E0.02
G1 X100.3 Y47.4 E0.04
G1 X101.1 Y48.4 E0.04
G1 X101.8 Y48.7 E0.02
G1 X104.1 Y48.8 E0.07
G1 Y52.8 E0.12
G1 X39.2 Y52.7 E2.02
G1 Y48.7 E0.12
G1 X41.3 E0.07
G1 X42.2 Y48.4 E0.03
G1 X42.8 Y47.8 E0.03
G1 X43.2 Y46.9 E0.03
G1 X43.1 Y45.8 E0.03
G1 X42.6 Y45.0 E0.03
G1 F5612.6
G1 E-3.12
G1 F2500.0
G1 X42.8 Y44.8
G1 X73.1 Y44.2 F15000.0
G1 F5612.6
G1 E3.12
G1 F2500.0
G1 F78.0
G1 E0.06
G1 F2500.0
G1 X71.6 Y43.7 E0.05 F2250.0
G1 X70.7 Y43.9 E0.03
G1 X69.3 Y45.1 E0.06
G1 X69.1 Y47.6 E0.08
G1 X70.2 Y48.8 E0.05
G1 X71.8 Y49.3 E0.05
G1 X72.8 Y49.0 E0.03
G1 X73.9 Y48.1 E0.04
G1 X74.3 Y46.7 E0.05
G1 Y46.1 E0.02
G1 X74.1 Y45.4 E0.02
G1 X73.6 Y44.6 E0.03
G1 X73.1 Y44.2 E0.02
G1 X73.0 Y44.5 E0.01
G1 X71.7 Y44.0 E0.04
G1 X70.8 Y44.2 E0.03
G1 X70.0 Y44.8 E0.03
G1 X69.6 Y45.2 E0.02
G1 X69.4 Y47.4 E0.07
G1 X69.8 Y48.0 E0.02
G1 X70.4 Y48.6 E0.03
G1 X71.7 Y49.0 E0.04
G1 X72.8 Y48.6 E0.04
G1 X73.6 Y47.9 E0.03
G1 X74.1 Y46.4 E0.05
G1 X73.8 Y45.4 E0.03
G1 X73.0 Y44.5 E0.04
G1 F5612.6
G1 E-3.12
G1 F2500.0
G1 X73.1 Y44.2
G1 X74.4 Y45.9 F15000.0
G1 F5612.6
G1 E3.12
G1 F2500.0
G1 F78.0
G1 E0.06
G1 F2500.0
G1 X80.8 Y52.4 E0.28
G1 X79.1 E0.05
G1 X74.2 Y47.6 E0.21
G1 F5612.6
G1 E-3.12
G1 F2500.0
G1 X73.5 Y48.7 F15000.0
G1 F5612.6
G1 E3.12
G1 F2500.0
G1 F78.0
G1 E0.06
G1 F2500.0
G1 X77.1 Y52.4 E0.16
G1 X75.4 E0.05
G1 X72.2 Y49.3 E0.14
G1 F5612.6
G1 E-3.12
G1 F2500.0
G1 X101.3 Y48.9 F15000.0
G1 F5612.6
G1 E3.12
G1 F2500.0
G1 F78.0
G1 E0.06
G1 F2500.0
G1 X103.7 Y51.2 E0.1
G1 Y49.6 E0.05
G1 X103.4 Y49.1 E0.02
G1 F5612.6
G1 E-3.12
G1 F2500.0
G1 X102.2 Y40.6 F15000.0
G1 F5612.6
G1 E3.12
G1 F2500.0
G1 F78.0
G1 E0.06
G1 F2500.0
G1 X103.7 Y42.2 E0.07
G1 X103.6 Y43.9 E0.05
G1 X100.3 Y40.6 E0.15
G1 X98.6 E0.05
G1 X101.7 Y43.9 E0.14
G1 X100.6 Y44.5 E0.04
G1 X96.6 Y40.6 E0.17
G1 X94.9 E0.05
G1 X99.8 Y45.7 E0.22
G1 X99.7 Y46.6 E0.03
G1 X99.8 Y47.4 E0.03
G1 X92.9 Y40.6 E0.3
G1 X91.2 E0.05
G1 X102.8 Y52.4 E0.52
G1 X101.1 E0.05
G1 X89.2 Y40.6 E0.52
G1 X87.5 E0.05
G1 X99.1 Y52.4 E0.52
G1 X97.4 E0.05
G1 X85.6 Y40.6 E0.52
G1 X83.9 E0.05
G1 X95.5 Y52.4 E0.52
G1 X93.8 E0.05
G1 X81.8 Y40.6 E0.52
G1 X80.2 E0.05
G1 X91.8 Y52.4 E0.52
G1 X90.1 E0.05
G1 X78.2 Y40.6 E0.52
G1 X76.5 E0.05
G1 X88.1 Y52.4 E0.52
G1 X86.4 E0.05
G1 X74.5 Y40.6 E0.52
G1 X72.8 E0.05
G1 X84.4 Y52.4 E0.52
G1 X82.7 E0.05
G1 X70.9 Y40.6 E0.52
G1 X69.1 E0.06
G1 X72.1 Y43.7 E0.13
G1 X71.1 E0.03
G1 X70.6 Y43.9 E0.02
G1 X67.1 Y40.6 E0.15
G1 X65.5 E0.05
G1 X69.5 Y44.7 E0.18
G1 X69.1 Y45.4 E0.03
G1 X68.9 Y45.8 E0.01
G1 X63.5 Y40.6 E0.23
G1 X61.8 E0.05
G1 X73.4 Y52.4 E0.52
G1 X71.7 E0.05
G1 X59.8 Y40.6 E0.52
G1 X58.1 E0.05
G1 X69.7 Y52.4 E0.52
G1 X68.0 E0.05
G1 X56.1 Y40.6 E0.52
G1 X54.4 E0.05
G1 X66.1 Y52.4 E0.52
G1 X64.4 E0.05
G1 X52.4 Y40.6 E0.52
G1 X50.8 E0.05
G1 X62.4 Y52.4 E0.52
G1 X60.7 E0.05
G1 X48.8 Y40.6 E0.52
G1 X47.1 E0.05
G1 X58.7 Y52.4 E0.52
G1 X57.0 E0.05
G1 X45.1 Y40.6 E0.52
G1 X43.4 E0.05
G1 X55.0 Y52.4 E0.52
G1 X53.3 E0.05
G1 X41.4 Y40.6 E0.52
G1 X39.7 E0.05
G1 X51.4 Y52.4 E0.52
G1 X49.7 E0.05
G1 X43.6 Y46.5 E0.26
G1 X43.5 Y47.3 E0.03
G1 X43.3 Y47.8 E0.02
G1 X47.6 Y52.4 E0.2
G1 X46.0 E0.05
G1 X42.3 Y48.8 E0.16
G1 X41.5 Y49.1 E0.03
G1 X40.9 E0.02
G1 X44.0 Y52.4 E0.14
G1 X42.3 E0.05
G1 X39.6 Y49.9 E0.11
G1 Y51.5 E0.05
G1 X40.4 Y52.4 E0.04
G1 F5612.6
G1 E-3.12
G1 F2500.0
G1 X68.7 Y60.5 F15000.0
G1 F5612.6
G1 E3.12
G1 F2500.0
G1 F78.0
G1 E0.06
G1 F2500.0
G1 X68.0 Y61.2 E0.03 F2250.0
G1 X67.5 Y62.6 E0.05
G1 X67.7 Y65.0 E0.08
G1 X68.4 Y66.2 E0.04
G1 X68.9 Y66.5 E0.02
G1 X74.6 Y66.4 E0.18
G1 X75.2 Y65.9 E0.02
G1 X75.8 Y64.3 E0.05
G1 X76.0 Y63.4 E0.03
G1 X75.7 Y62.0 E0.04
G1 X74.9 Y60.8 E0.04
G1 X74.5 Y60.5 E0.02
G1 X68.7 E0.18
G1 X68.8 Y60.8 E0.01
G1 X68.3 Y61.3 E0.02
G1 X67.7 Y63.0 E0.06
G1 X67.9 Y64.7 E0.05
G1 X68.6 Y66.0 E0.05
G1 X68.9 Y66.2 E0.01
G1 X74.6 Y66.1 E0.18
G1 X74.9 Y65.7 E0.02
G1 X75.5 Y64.3 E0.05
G1 Y62.6 E0.05
G1 X75.4 Y62.2 E0.01
G1 X74.6 Y61.0 E0.04
G1 X74.4 Y60.8 E0.01
G1 X68.8 E0.17
G1 F5612.6
G1 E-3.12
G1 F2500.0
G1 X68.7 Y60.5
G1 X100.0 Y64.4 F15000.0
G1 F5612.6
G1 E3.12
G1 F2500.0
G1 F78.0
G1 E0.06
G1 F2500.0
G1 X100.6 Y65.3 E0.03 F2250.0
G1 X101.9 Y66.0 E0.05
G1 X103.8 Y66.1 E0.06
G1 X103.7 Y69.5 E0.11
G1 X39.5 Y69.4 E2.0
G1 Y66.0 E0.11
G1 X41.8 Y65.9 E0.07
G1 X42.8 Y65.3 E0.04
G1 X43.3 Y64.6 E0.03
G1 X43.5 Y63.8 E0.03
G1 X43.4 Y62.7 E0.03
G1 X42.8 Y61.7 E0.04
G1 X42.4 Y61.4 E0.02
G1 X41.6 Y61.0 E0.03
G1 X39.5 E0.07
G1 Y57.5 E0.11
G1 X103.8 E2.0
G1 Y61.0 E0.11
G1 X101.6 E0.07
G1 X100.6 Y61.6 E0.04
G1 X100.2 Y62.1 E0.02
G1 X99.8 Y63.0 E0.03
G1 X100.0 Y64.4 E0.04
G1 X100.2 Y64.3 E0.01
G1 X100.7 Y65.0 E0.03
G1 X101.2 Y65.4 E0.02
G1 X102.0 Y65.7 E0.03
G1 X104.1 Y65.8 E0.07
G1 X104.0 Y69.8 E0.12
G1 X39.2 Y69.7 E2.02
G1 Y65.7 E0.12
G1 X41.6 Y65.6 E0.07
G1 X42.5 Y65.0 E0.03
G1 X42.8 Y64.7 E0.01
G1 X43.2 Y63.8 E0.03
G1 X43.1 Y62.8 E0.03
G1 X42.6 Y62.0 E0.03
G1 X42.2 Y61.6 E0.02
G1 X41.5 Y61.3 E0.02
G1 X39.2 Y61.2 E0.07
G1 Y57.2 E0.12
G1 X104.1 E2.02
G1 Y61.3 E0.13
G1 X101.6 E0.08
G1 X100.5 Y62.2 E0.04
G1 X100.1 Y63.1 E0.03
G1 X100.2 Y64.3 E0.04
G1 F5612.6
G1 E-3.12
G1 F2500.0
G1 X100.0 Y64.4
G1 X99.7 Y63.0 F15000.0
G1 F5612.6
G1 E3.12
G1 F2500.0
G1 F78.0
G1 E0.06
G1 F2500.0
G1 X98.9 Y62.2 E0.04
G1 X99.1 Y62.0 E0.01
G1 X99.8 Y62.7 E0.03
G1 X100.0 Y62.5 E0.01
G1 X99.2 Y61.7 E0.04
G1 X99.4 Y61.4 E0.01
G1 X100.1 Y62.1 E0.03
G1 X100.2 Y61.9 E0.01
G1 X99.5 Y61.1 E0.03
G1 X99.7 Y61.0 E0.01
G1 X100.5 Y61.6 E0.03
G1 X100.6 Y61.5 E0.0
G1 X100.0 Y60.7 E0.03
G1 X100.1 Y60.5 E0.01
G1 X101.0 Y61.3 E0.04
G1 X101.2 Y61.1 E0.01
G1 X100.5 Y60.4 E0.03
G1 X100.7 Y60.3 E0.01
G1 X101.5 Y61.0 E0.03
G1 X101.8 Y60.9 E0.01
G1 X101.1 Y60.1 E0.03
G1 X101.3 Y60.0 E0.01
G1 X102.3 Y60.9 E0.04
G1 X102.7 E0.01
G1 X101.8 Y59.9 E0.04
G1 X102.1 E0.01
G1 X103.1 Y60.9 E0.04
G1 X103.4 E0.01
G1 X102.5 Y59.9 E0.04
G1 X102.8 E0.01
G1 X103.7 Y60.6 E0.04
G1 Y60.3 E0.01
G1 X103.4 Y59.9 E0.02
G1 F5612.6
G1 E-3.12
G1 F2500.0
G1 X102.7 Y57.6 F15000.0
G1 F5612.6
G1 E3.12
G1 F2500.0
G1 F78.0
G1 E0.06
G1 F2500.0
G1 X103.7 Y58.7 E0.05
G1 X103.6 Y60.2 E0.05
G1 X103.4 E0.01
G1 X100.7 Y57.6 E0.12
G1 X99.0 E0.05
G1 X101.5 Y60.3 E0.11
G1 X100.4 Y60.8 E0.04
G1 X97.0 Y57.6 E0.15
G1 X95.3 E0.05
G1 X99.4 Y61.9 E0.19
G1 X99.1 Y63.1 E0.04
G1 X93.4 Y57.6 E0.25
G1 X91.6 E0.06
G1 X103.3 Y69.4 E0.52
G1 X101.6 E0.05
G1 X89.6 Y57.6 E0.52
G1 X88.0 E0.05
G1 X99.6 Y69.4 E0.52
G1 X97.9 E0.05
G1 X86.0 Y57.6 E0.52
G1 X84.3 E0.05
G1 X95.9 Y69.4 E0.52
G1 X94.2 E0.05
G1 X82.3 Y57.6 E0.52
G1 X80.6 E0.05
G1 X92.2 Y69.4 E0.52
G1 X90.5 E0.05
G1 X78.6 Y57.6 E0.52
G1 X76.9 E0.05
G1 X88.6 Y69.4 E0.52
G1 X86.9 E0.05
G1 X74.9 Y57.6 E0.52
G1 X73.3 E0.05
G1 X84.8 Y69.4 E0.51
G1 X83.2 E0.05
G1 X75.9 Y62.2 E0.32
G1 X76.0 Y63.7 E0.05
G1 Y64.1 E0.01
G1 X81.2 Y69.4 E0.23
G1 X79.5 E0.05
G1 X75.5 Y65.5 E0.17
G1 X75.1 Y66.2 E0.03
G1 X74.8 Y66.5 E0.01
G1 X77.5 Y69.4 E0.12
G1 X75.8 E0.05
G1 X72.9 Y66.6 E0.13
G1 X71.2 E0.05
G1 X73.9 Y69.4 E0.12
G1 X72.1 E0.06
G1 X69.2 Y66.6 E0.13
G1 X68.5 Y66.5 E0.02
G1 X68.0 Y65.9 E0.02
G1 X67.4 Y64.7 E0.04
G1 X60.2 Y57.6 E0.32
G1 X58.6 E0.05
G1 X70.1 Y69.4 E0.51
G1 X68.5 E0.05
G1 X56.6 Y57.6 E0.52
G1 X54.9 E0.05
G1 X66.5 Y69.4 E0.52
G1 X64.8 E0.05
G1 X52.9 Y57.6 E0.52
G1 X51.2 E0.05
G1 X62.8 Y69.4 E0.52
G1 X61.1 E0.05
G1 X49.2 Y57.6 E0.52
G1 X47.5 E0.05
G1 X59.1 Y69.4 E0.52
G1 X57.4 E0.05
G1 X45.5 Y57.6 E0.52
G1 X43.9 E0.05
G1 X55.4 Y69.4 E0.51
G1 X53.8 E0.05
G1 X41.9 Y57.6 E0.52
G1 X40.1 E0.06
G1 X51.8 Y69.4 E0.52
G1 X50.1 E0.05
G1 X44.3 Y63.7 E0.25
G1 X44.0 Y64.7 E0.03
G1 X43.9 Y65.0 E0.01
G1 X48.1 Y69.4 E0.19
G1 X46.4 E0.05
G1 X43.1 Y66.1 E0.15
G1 F5612.6
G1 E-3.12
G1 F2500.0
G1 X41.9 Y65.9 F15000.0
G1 F5612.6
G1 E3.12
G1 F2500.0
G1 F78.0
G1 E0.06
G1 F2500.0
G1 X42.7 Y66.7 E0.04
G1 X42.9 Y66.5 E0.01
G1 X42.3 Y65.8 E0.03
G1 X42.5 Y65.7 E0.01
G1 X43.3 Y66.4 E0.03
G1 X43.4 Y66.2 E0.01
G1 X42.8 Y65.5 E0.03
G1 X42.9 Y65.3 E0.01
G1 X43.7 Y65.9 E0.03
G1 X43.8 Y65.8 E0.0
G1 X43.2 Y65.0 E0.03
G1 X43.3 Y64.8 E0.01
G1 X44.0 Y65.4 E0.03
G1 X44.1 Y65.2 E0.01
G1 X43.4 Y64.4 E0.03
G1 F5612.6
G1 E-3.12
G1 F2500.0
G1 X44.3 Y64.9 F15000.0
G1 F5612.6
G1 E3.12
G1 F2500.0
G1 F78.0
G1 E0.06
G1 F2500.0
G1 X43.6 Y64.1 E0.03
G1 Y63.8 E0.01
G1 X44.5 Y64.6 E0.04
G1 Y64.4 E0.01
G1 X43.7 Y63.4 E0.04
G1 X43.6 Y62.9 E0.02
G1 X44.6 Y63.8 E0.04
G1 Y63.6 E0.01
G1 X43.1 Y62.0 E0.07
G1 F5612.6
G1 E-3.12
G1 F2500.0
G1 X43.0 Y60.5 F15000.0
G1 F5612.6
G1 E3.12
G1 F2500.0
G1 F78.0
G1 E0.06
G1 F2500.0
G1 X44.1 Y61.6 E0.05
G1 X42.8 Y60.4 E0.06
G1 F5612.6
G1 E-3.12
G1 F2500.0
G1 X42.0 Y60.1 F15000.0
G1 F5612.6
G1 E3.12
G1 F2500.0
G1 F78.0
G1 E0.06
G1 F2500.0
G1 X44.5 Y62.7 E0.11
G1 Y62.9 E0.01
G1 X41.3 Y59.9 E0.14
G1 X41.1 E0.01
G1 X42.2 Y61.1 E0.05
G1 X41.6 Y60.9 E0.02
G1 X40.5 Y59.9 E0.05
G1 X40.3 E0.01
G1 X41.1 Y60.9 E0.04
G1 X40.8 E0.01
G1 X39.7 Y59.9 E0.05
G1 X39.6 Y60.1 E0.01
G1 X40.2 Y60.8 E0.03
G1 X39.8 E0.01
G1 X39.6 Y60.6 E0.01
G1 F5612.6
G1 E-3.12
G1 F2500.0
G1 X41.6 Y66.1 F15000.0
G1 F5612.6
G1 E3.12
G1 F2500.0
G1 F78.0
G1 E0.06
G1 F2500.0
G1 X42.3 Y66.8 E0.03
G1 X42.1 Y66.9 E0.01
G1 X41.2 Y66.1 E0.04
G1 X40.9 E0.01
G1 X41.7 Y67.0 E0.04
G1 X41.5 Y67.1 E0.01
G1 X40.3 Y66.1 E0.05
G1 X40.1 E0.01
G1 X41.0 Y67.1 E0.04
G1 X40.7 E0.01
G1 X39.6 Y66.2 E0.04
G1 Y66.5 E0.01
G1 X40.1 Y67.1 E0.02
G1 X39.6 Y67.0 E0.02
G1 X40.1 Y66.8 E0.02
G1 X42.7 Y69.4 E0.11
G1 X44.4 E0.05
G1 X41.8 Y66.7 E0.12
G1 F5612.6
G1 E-3.12
G1 F2500.0
G1 X62.2 Y57.6 F15000.0
G1 F5612.6
G1 E3.12
G1 F2500.0
G1 F78.0
G1 E0.06
G1 F2500.0
G1 X67.4 Y62.8 E0.23
G1 F5612.6
G1 E-3.12
G1 F2500.0
G1 X67.8 Y61.4 F15000.0
G1 F5612.6
G1 E3.12
G1 F2500.0
G1 F78.0
G1 E0.06
G1 F2500.0
G1 X64.1 Y57.6 E0.17
G1 X65.8 E0.05
G1 X68.7 Y60.4 E0.13
G1 X70.4 E0.05
G1 X67.7 Y57.6 E0.12
G1 X69.4 E0.05
G1 X72.4 Y60.4 E0.13
G1 X74.0 E0.05
G1 X71.4 Y57.6 E0.12
G1 F5612.6
G1 E-3.12
G1 F2500.0
G1 X98.8 Y62.5 F15000.0
G1 F5612.6
G1 E3.12
G1 F2500.0
G1 F78.0
G1 E0.06
G1 F2500.0
G1 X99.7 Y63.5 E0.04
G1 Y63.8 E0.01
G1 X98.8 Y62.9 E0.04
G1 F5612.6
G1 E-3.12
G1 F2500.0
G1 X99.3 Y65.6 F15000.0
G1 F5612.6
G1 E3.12
G1 F2500.0
G1 F78.0
G1 E0.06
G1 F2500.0
G1 X100.1 Y66.4 E0.04
G1 X100.8 Y66.7 E0.02
G1 X99.0 Y64.8 E0.08
G1 X98.8 Y64.3 E0.02
G1 X101.6 Y67.0 E0.12
G1 X101.9 Y67.1 E0.01
G1 X98.7 Y63.7 E0.15
G1 X98.6 Y63.4 E0.01
G1 X99.8 Y64.4 E0.05
G1 X100.4 Y65.3 E0.03
G1 X101.1 Y65.8 E0.03
G1 X102.5 Y67.1 E0.06
G1 X102.9 E0.01
G1 X102.0 Y66.1 E0.04
G1 X102.3 E0.01
G1 X103.4 Y67.1 E0.05
G1 X103.7 E0.01
G1 X102.8 Y66.1 E0.04
G1 X103.1 E0.01
G1 X103.7 Y66.5 E0.02
G1 Y66.1 E0.01
G1 F5612.6
G1 E-3.12
G1 F2500.0
G1 X72.4 Y86.8 F15000.0
G1 F5612.6
G1 E3.12
G1 F2500.0
G1 F78.0
G1 E0.06
G1 F2500.0
G1 X72.8 E0.01 F2250.0
G1 X74.3 Y85.9 E0.05
G1 X75.3 Y85.0 E0.04
G1 X75.9 Y83.5 E0.05
G1 X76.0 Y82.2 E0.04
G1 X75.7 Y80.9 E0.04
G1 X74.9 Y79.7 E0.04
G1 X74.1 Y78.8 E0.04
G1 X72.7 Y78.2 E0.05
G1 X71.0 E0.05
G1 X70.4 Y78.3 E0.02
G1 X68.9 Y79.1 E0.05
G1 X68.0 Y80.0 E0.04
G1 X67.4 Y81.5 E0.05
G1 X67.3 Y82.8 E0.04
G1 X67.5 Y83.9 E0.03
