; generated by Slic3r 0.9.8-dev on 2012-12-29 at 22:16:57

; layer_height = 0.3
; perimeters = 2
; top_solid_layers = 3
; bottom_solid_layers = 2
; fill_density = 0.2
; perimeter_speed = 32
; infill_speed = 50
; travel_speed = 250
; scale = 1
; nozzle_diameter = 0.5
; filament_diameter = 1.75
; extrusion_multiplier = 0.9
; perimeters extrusion width = 0.50mm
; infill extrusion width = 0.50mm
; first layer extrusion width = 0.50mm

M107
M190 S57 ; wait for bed temperature to be reached
M104 S200 ; set temperature
G28 X0 Y0
G1 X75 Y75 F12000
G28 Z0
G1 Z0.3 F200
G1 X15 Y20 F12000
M109 S200 ; wait for temperature to be reached
G90 ; use absolute coordinates
G21 ; set units to millimeters
M83 ; use relative distances for extrusion
G1 F2760.000 E-3.20000
G1 Z0.300 F15000.000
G1 X71.279 Y88.870
G1 X71.689 Y88.540 F2760.000 E3.20000
G1 X71.689 Y88.540 F1920.000
G1 X72.339 Y88.110 E0.04374
G1 X72.799 Y87.870 E0.02912
G1 X73.289 Y87.660 E0.02992
G1 X73.529 Y87.570 E0.01439
G1 X74.029 Y87.430 E0.02914
G1 X74.549 Y87.320 E0.02983
G1 X75.069 Y87.260 E0.02938
G1 X75.589 Y87.240 E0.02921
G1 X140.399 Y87.240 E3.63756
G1 X140.919 Y87.260 E0.02921
G1 X141.439 Y87.320 E0.02938
G1 X141.959 Y87.430 E0.02983
G1 X142.459 Y87.570 E0.02914
G1 X142.949 Y87.760 E0.02950
G1 X143.419 Y87.980 E0.02913
G1 X143.649 Y88.110 E0.01483
G1 X144.299 Y88.540 E0.04374
G1 X144.709 Y88.870 E0.02954
G1 X144.899 Y89.050 E0.01469
G1 X145.269 Y89.430 E0.02977
G1 X145.599 Y89.840 E0.02954
G1 X145.749 Y90.050 E0.01448
G1 X146.159 Y90.720 E0.04409
G1 X146.479 Y91.440 E0.04422
G1 X146.569 Y91.680 E0.01439
G1 X146.769 Y92.440 E0.04411
G1 X146.819 Y92.700 E0.01486
G1 X146.879 Y93.220 E0.02938
G1 X146.899 Y93.740 E0.02921
G1 X146.899 Y106.250 E0.70214
G1 X146.879 Y106.770 E0.02921
G1 X146.819 Y107.290 E0.02938
G1 X146.709 Y107.810 E0.02983
G1 X146.569 Y108.310 E0.02914
G1 X146.269 Y109.040 E0.04430
G1 X146.029 Y109.500 E0.02912
G1 X145.599 Y110.150 E0.04374
G1 X145.269 Y110.560 E0.02954
G1 X144.899 Y110.940 E0.02977
G1 X144.709 Y111.120 E0.01469
G1 X144.089 Y111.600 E0.04401
G1 X143.419 Y112.010 E0.04409
G1 X142.949 Y112.230 E0.02913
G1 X142.459 Y112.420 E0.02950
G1 X141.699 Y112.620 E0.04411
G1 X141.439 Y112.670 E0.01486
G1 X140.919 Y112.730 E0.02938
G1 X140.399 Y112.750 E0.02921
G1 X75.589 Y112.750 E3.63756
G1 X75.069 Y112.730 E0.02921
G1 X74.549 Y112.670 E0.02938
G1 X74.029 Y112.560 E0.02983
G1 X73.529 Y112.420 E0.02914
G1 X73.039 Y112.230 E0.02950
G1 X72.569 Y112.010 E0.02913
G1 X72.339 Y111.880 E0.01483
G1 X71.689 Y111.450 E0.04374
G1 X71.279 Y111.120 E0.02954
G1 X71.089 Y110.940 E0.01469
G1 X70.719 Y110.560 E0.02977
G1 X70.389 Y110.150 E0.02954
G1 X70.239 Y109.940 E0.01448
G1 X69.829 Y109.270 E0.04409
G1 X69.509 Y108.550 E0.04422
G1 X69.419 Y108.310 E0.01439
G1 X69.219 Y107.550 E0.04411
G1 X69.169 Y107.290 E0.01486
G1 X69.109 Y106.770 E0.02938
G1 X69.089 Y106.250 E0.02921
G1 X69.089 Y93.740 E0.70214
G1 X69.109 Y93.220 E0.02921
G1 X69.169 Y92.700 E0.02938
G1 X69.279 Y92.180 E0.02983
G1 X69.419 Y91.680 E0.02914
G1 X69.609 Y91.190 E0.02950
G1 X69.829 Y90.720 E0.02913
G1 X69.959 Y90.490 E0.01483
G1 X70.389 Y89.840 E0.04374
G1 X70.719 Y89.430 E0.02954
G1 X71.224 Y88.922 E0.04024
G1 X71.279 Y88.870 E0.00421
G1 F2760.000 E-3.20000
G1 X106.245 Y97.458 F15000.000
G1 X106.779 Y97.185 F2760.000 E3.20000
G1 X107.042 Y97.051 F780.000 E0.01658
G1 X108.000 Y96.900 E0.05442
G1 X108.958 Y97.052 E0.05445
G1 X109.822 Y97.492 E0.05443
G1 X110.508 Y98.178 E0.05444
G1 X110.949 Y99.042 E0.05444
G1 X111.100 Y100.000 E0.05444
G1 X110.949 Y100.958 E0.05444
G1 X110.508 Y101.822 E0.05444
G1 X109.822 Y102.508 E0.05444
G1 X108.958 Y102.948 E0.05443
G1 X108.802 Y102.973 E0.00887
G1 X108.000 Y103.100 E0.04558
G1 X107.042 Y102.949 E0.05442
G1 X106.178 Y102.508 E0.05446
G1 X105.492 Y101.822 E0.05445
G1 X105.052 Y100.958 E0.05442
G1 X104.900 Y100.000 E0.05445
G1 X105.052 Y99.042 E0.05445
G1 X105.492 Y98.178 E0.05442
G1 X105.859 Y97.810 E0.02920
G1 X106.245 Y97.458
G1 X106.542 Y97.867 F15000.000
G1 X107.199 Y97.533 F780.000 E0.04135
G1 X108.000 Y97.406 E0.04554
G1 X108.802 Y97.533 E0.04556
G1 X109.525 Y97.901 E0.04555
G1 X110.099 Y98.475 E0.04555
G1 X110.467 Y99.198 E0.04555
G1 X110.594 Y100.000 E0.04555
G1 X110.467 Y100.802 E0.04555
G1 X110.099 Y101.525 E0.04555
G1 X109.525 Y102.099 E0.04555
G1 X108.802 Y102.467 E0.04555
G1 X108.724 Y102.479 E0.00443
G1 X108.000 Y102.594 E0.04113
G1 X107.199 Y102.467 E0.04554
G1 X106.475 Y102.099 E0.04556
G1 X105.901 Y101.525 E0.04556
G1 X105.533 Y100.802 E0.04554
G1 X105.406 Y100.000 E0.04556
G1 X105.533 Y99.198 E0.04556
G1 X105.901 Y98.475 E0.04554
G1 X106.422 Y97.954 E0.04135
G1 X106.542 Y97.867 E0.00832
G1 X105.859 Y97.810 F2760.000 E-3.20000
G1 X80.096 Y99.926 F15000.000
G1 X80.002 Y99.333 F2760.000 E3.20000
G1 X79.973 Y99.147 F960.000 E0.01057
G1 X79.581 Y98.378 E0.04845
G1 X78.971 Y97.768 E0.04846
G1 X78.201 Y97.376 E0.04845
G1 X77.408 Y97.250 E0.04511
G1 X76.099 Y97.250 E0.07347
G1 X76.099 Y94.250 E0.16838
G1 X139.901 Y94.250 E3.58103
G1 X139.901 Y97.250 E0.16838
G1 X138.592 Y97.250 E0.07347
G1 X137.799 Y97.376 E0.04511
G1 X137.029 Y97.768 E0.04845
G1 X136.419 Y98.378 E0.04846
G1 X136.027 Y99.147 E0.04846
G1 X135.892 Y100.000 E0.04845
G1 X136.027 Y100.853 E0.04845
G1 X136.419 Y101.622 E0.04846
G1 X137.029 Y102.232 E0.04846
G1 X137.799 Y102.624 E0.04845
G1 X138.592 Y102.750 E0.04510
G1 X139.901 Y102.750 E0.07347
G1 X139.901 Y105.750 E0.16838
G1 X76.099 Y105.750 E3.58103
G1 X76.099 Y102.750 E0.16838
G1 X77.408 Y102.750 E0.07347
G1 X78.201 Y102.624 E0.04510
G1 X78.971 Y102.232 E0.04845
G1 X79.581 Y101.622 E0.04846
G1 X79.973 Y100.853 E0.04845
G1 X80.038 Y100.444 E0.02320
G1 X80.096 Y99.926
G1 X79.590 Y99.926 F15000.000
G1 X79.491 Y99.304 F780.000 E0.03536
G1 X79.171 Y98.676 E0.03956
G1 X78.673 Y98.177 E0.03957
G1 X78.045 Y97.857 E0.03956
G1 X77.368 Y97.750 E0.03845
G1 X75.599 Y97.750 E0.09933
G1 X75.599 Y93.750 E0.22451
G1 X140.401 Y93.750 E3.63715
G1 X140.401 Y97.750 E0.22451
G1 X138.632 Y97.750 E0.09933
G1 X137.955 Y97.857 E0.03845
G1 X137.327 Y98.177 E0.03956
G1 X136.829 Y98.676 E0.03957
G1 X136.509 Y99.304 E0.03956
G1 X136.398 Y100.000 E0.03956
G1 X136.509 Y100.696 E0.03956
G1 X136.829 Y101.324 E0.03956
G1 X137.327 Y101.823 E0.03957
G1 X137.955 Y102.143 E0.03956
G1 X138.632 Y102.250 E0.03845
G1 X140.401 Y102.250 E0.09933
G1 X140.401 Y106.250 E0.22451
G1 X75.599 Y106.250 E3.63715
G1 X75.599 Y102.250 E0.22451
G1 X77.368 Y102.250 E0.09933
G1 X78.045 Y102.143 E0.03845
G1 X78.673 Y101.823 E0.03956
G1 X79.171 Y101.324 E0.03957
G1 X79.491 Y100.696 E0.03956
G1 X79.590 Y100.074 E0.03536
G1 X79.590 Y99.926 E0.00832
G1 X80.038 Y100.444 F2760.000 E-3.20000
G1 X76.758 Y105.409 F15000.000
G1 X76.439 Y105.091 F2760.000 E3.20000
G1 X76.439 Y105.091 F2400.000
G1 X76.439 Y104.379 E0.04020
G1 X77.469 Y105.409 E0.08229
G1 X78.181 Y105.409 E0.04020
G1 X76.439 Y103.667 E0.13915
G1 X76.574 Y103.091 E0.03345
G1 X78.893 Y105.409 E0.18521
G1 X79.605 Y105.409 E0.04020
G1 X77.286 Y103.091 E0.18521
G1 X77.901 Y102.994 E0.03515
G1 X80.316 Y105.409 E0.19297
G1 X81.028 Y105.409 E0.04020
G1 X78.441 Y102.823 E0.20662
G1 X78.913 Y102.583 E0.02989
G1 X81.740 Y105.409 E0.22581
G1 X82.451 Y105.409 E0.04020
G1 X79.317 Y102.275 E0.25040
G1 X79.673 Y101.919 E0.02843
G1 X83.163 Y105.409 E0.27883
G1 X83.875 Y105.409 E0.04020
G1 X79.964 Y101.499 E0.31237
G1 X80.205 Y101.028 E0.02989
G1 X84.586 Y105.409 E0.35004
G1 X85.298 Y105.409 E0.04020
G1 X80.356 Y100.467 E0.39482
G1 X80.453 Y99.853 E0.03514
G1 X86.010 Y105.409 E0.44390
G1 X86.721 Y105.409 E0.04020
G1 X80.324 Y99.012 E0.51110
G1 F2760.000 E-3.20000
G1 X77.510 Y96.909 F15000.000
G1 X77.085 Y96.485 F2760.000 E3.20000
G1 X76.439 Y95.839 F1200.000 E0.05160
G1 X76.439 Y96.551 E0.04020
G1 X76.798 Y96.909 E0.02865
G1 X78.337 Y97.025 F15000.000
G1 X76.439 Y95.127 F1200.000 E0.15160
G1 X76.615 Y94.591 E0.03188
G1 X87.433 Y105.409 E0.86426
G1 X88.145 Y105.409 E0.04020
G1 X77.326 Y94.591 E0.86426
G1 X78.038 Y94.591 E0.04020
G1 X88.856 Y105.409 E0.86426
G1 X89.568 Y105.409 E0.04020
G1 X78.750 Y94.591 E0.86426
G1 X79.461 Y94.591 E0.04020
G1 X90.280 Y105.409 E0.86426
G1 X90.991 Y105.409 E0.04020
G1 X80.173 Y94.591 E0.86426
G1 X80.885 Y94.591 E0.04020
G1 X91.703 Y105.409 E0.86426
G1 X92.415 Y105.409 E0.04020
G1 X81.596 Y94.591 E0.86426
G1 X82.308 Y94.591 E0.04020
G1 X93.126 Y105.409 E0.86426
G1 X93.838 Y105.409 E0.04020
G1 X83.020 Y94.591 E0.86426
G1 X83.731 Y94.591 E0.04020
G1 X94.550 Y105.409 E0.86426
G1 X95.261 Y105.409 E0.04021
G1 X84.443 Y94.591 E0.86426
G1 X85.155 Y94.591 E0.04020
G1 X95.973 Y105.409 E0.86426
G1 X96.685 Y105.409 E0.04020
G1 X85.866 Y94.591 E0.86426
G1 X86.578 Y94.591 E0.04021
G1 X97.396 Y105.409 E0.86426
G1 X98.108 Y105.409 E0.04020
G1 X87.290 Y94.591 E0.86426
G1 X88.001 Y94.591 E0.04020
G1 X98.820 Y105.409 E0.86426
G1 X99.531 Y105.409 E0.04020
G1 X88.713 Y94.591 E0.86426
G1 X89.425 Y94.591 E0.04020
G1 X100.243 Y105.409 E0.86426
G1 X100.955 Y105.409 E0.04020
G1 X90.136 Y94.591 E0.86426
G1 X90.848 Y94.591 E0.04020
G1 X101.667 Y105.409 E0.86426
G1 X102.378 Y105.409 E0.04020
G1 X91.560 Y94.591 E0.86426
G1 X92.271 Y94.591 E0.04020
G1 X103.090 Y105.409 E0.86426
G1 X103.802 Y105.409 E0.04020
G1 X92.983 Y94.591 E0.86426
G1 X93.695 Y94.591 E0.04020
G1 X104.513 Y105.409 E0.86426
G1 X105.225 Y105.409 E0.04020
G1 X94.406 Y94.591 E0.86426
G1 X95.118 Y94.591 E0.04020
G1 X105.937 Y105.409 E0.86426
G1 X106.648 Y105.409 E0.04020
G1 X95.830 Y94.591 E0.86426
G1 X96.542 Y94.591 E0.04020
G1 X107.360 Y105.409 E0.86426
G1 X108.072 Y105.409 E0.04020
G1 X97.253 Y94.591 E0.86426
G1 X97.965 Y94.591 E0.04020
G1 X104.814 Y101.440 E0.54716
G1 X104.611 Y100.525 E0.05294
G1 X98.677 Y94.591 E0.47406
G1 X99.388 Y94.591 E0.04020
G1 X104.608 Y99.810 E0.41699
G1 X104.705 Y99.196 E0.03514
G1 X100.100 Y94.591 E0.36791
G1 X100.812 Y94.591 E0.04020
G1 X104.910 Y98.689 E0.32743
G1 X105.150 Y98.218 E0.02989
G1 X101.523 Y94.591 E0.28976
G1 X102.235 Y94.591 E0.04020
G1 X105.462 Y97.818 E0.25784
G1 X105.818 Y97.462 E0.02843
G1 X102.947 Y94.591 E0.22941
G1 X103.658 Y94.591 E0.04020
G1 X106.218 Y97.150 E0.20449
G1 X106.689 Y96.910 E0.02990
G1 X104.370 Y94.591 E0.18530
G1 X105.082 Y94.591 E0.04020
G1 X107.196 Y96.705 E0.16892
G1 X107.810 Y96.608 E0.03514
G1 X105.793 Y94.591 E0.16114
G1 X106.505 Y94.591 E0.04020
G1 X108.525 Y96.611 E0.16136
G1 X109.440 Y96.814 E0.05294
G1 X107.217 Y94.591 E0.17760
G1 X107.928 Y94.591 E0.04020
G1 X118.747 Y105.409 E0.86426
G1 X118.035 Y105.409 E0.04020
G1 X111.186 Y98.560 E0.54716
G1 X111.389 Y99.475 E0.05295
G1 X117.323 Y105.409 E0.47406
G1 X116.612 Y105.409 E0.04021
G1 X111.392 Y100.190 E0.41699
G1 X111.295 Y100.804 E0.03514
G1 X115.900 Y105.409 E0.36791
G1 X115.188 Y105.409 E0.04020
G1 X111.090 Y101.311 E0.32743
G1 X110.850 Y101.782 E0.02989
G1 X114.477 Y105.409 E0.28977
G1 X113.765 Y105.409 E0.04020
G1 X110.538 Y102.182 E0.25784
G1 X110.182 Y102.538 E0.02843
G1 X113.053 Y105.409 E0.22941
G1 X112.342 Y105.409 E0.04020
G1 X109.782 Y102.850 E0.20448
G1 X109.311 Y103.090 E0.02990
G1 X111.630 Y105.409 E0.18530
G1 X110.918 Y105.409 E0.04020
G1 X108.804 Y103.295 E0.16893
G1 X108.190 Y103.392 E0.03513
G1 X110.207 Y105.409 E0.16114
G1 X109.495 Y105.409 E0.04020
G1 X107.475 Y103.389 E0.16136
G1 X106.560 Y103.186 E0.05297
G1 X108.783 Y105.409 E0.17763
G1 F2760.000 E-3.20000
G1 X119.458 Y105.409 F15000.000
G1 X119.034 Y104.985 F2760.000 E3.20000
G1 X108.640 Y94.591 F1200.000 E0.83037
G1 X109.352 Y94.591 E0.04020
G1 X120.170 Y105.409 E0.86426
G1 X120.882 Y105.409 E0.04020
G1 X110.063 Y94.591 E0.86426
G1 X110.775 Y94.591 E0.04020
G1 X121.593 Y105.409 E0.86426
G1 X122.305 Y105.409 E0.04020
G1 X111.487 Y94.591 E0.86426
G1 X112.198 Y94.591 E0.04020
G1 X123.017 Y105.409 E0.86426
G1 X123.729 Y105.409 E0.04020
G1 X112.910 Y94.591 E0.86426
G1 X113.622 Y94.591 E0.04020
G1 X124.440 Y105.409 E0.86426
G1 X125.152 Y105.409 E0.04020
G1 X114.333 Y94.591 E0.86426
G1 X115.045 Y94.591 E0.04020
G1 X125.864 Y105.409 E0.86426
G1 X126.575 Y105.409 E0.04020
G1 X115.757 Y94.591 E0.86426
G1 X116.468 Y94.591 E0.04020
G1 X127.287 Y105.409 E0.86426
G1 X127.999 Y105.409 E0.04020
G1 X117.180 Y94.591 E0.86426
G1 X117.892 Y94.591 E0.04020
G1 X128.710 Y105.409 E0.86426
G1 X129.422 Y105.409 E0.04020
G1 X118.603 Y94.591 E0.86426
G1 X119.315 Y94.591 E0.04021
G1 X130.134 Y105.409 E0.86426
G1 X130.845 Y105.409 E0.04020
G1 X120.027 Y94.591 E0.86426
G1 X120.739 Y94.591 E0.04020
G1 X131.557 Y105.409 E0.86426
G1 X132.269 Y105.409 E0.04020
G1 X121.450 Y94.591 E0.86426
G1 X122.162 Y94.591 E0.04020
G1 X132.980 Y105.409 E0.86426
G1 X133.692 Y105.409 E0.04020
G1 X122.874 Y94.591 E0.86426
G1 X123.585 Y94.591 E0.04021
G1 X134.404 Y105.409 E0.86426
G1 X135.115 Y105.409 E0.04020
G1 X124.297 Y94.591 E0.86426
G1 X125.009 Y94.591 E0.04020
G1 X135.827 Y105.409 E0.86426
G1 X136.539 Y105.409 E0.04020
G1 X125.720 Y94.591 E0.86426
G1 X126.432 Y94.591 E0.04020
G1 X137.250 Y105.409 E0.86426
G1 X137.962 Y105.409 E0.04020
G1 X127.144 Y94.591 E0.86426
G1 X127.855 Y94.591 E0.04021
G1 X138.674 Y105.409 E0.86426
G1 X139.386 Y105.409 E0.04020
G1 X128.567 Y94.591 E0.86426
G1 X129.279 Y94.591 E0.04020
G1 X135.676 Y100.988 E0.51110
G1 X135.547 Y100.147 E0.04808
G1 X129.990 Y94.591 E0.44389
G1 X130.702 Y94.591 E0.04020
G1 X135.644 Y99.533 E0.39482
G1 X135.795 Y98.972 E0.03279
G1 X131.414 Y94.591 E0.35004
G1 X132.125 Y94.591 E0.04020
G1 X136.036 Y98.501 E0.31237
G1 X136.327 Y98.081 F15000.000
G1 X132.837 Y94.591 F1200.000 E0.27883
G1 X133.549 Y94.591 E0.04020
G1 X136.683 Y97.725 E0.25040
G1 X137.087 Y97.417 F15000.000
G1 X134.260 Y94.591 F1200.000 E0.22581
G1 X134.972 Y94.591 E0.04020
G1 X137.559 Y97.177 E0.20662
G1 X138.099 Y97.006 E0.03203
G1 X135.684 Y94.591 E0.19297
G1 X136.396 Y94.591 E0.04020
G1 X138.714 Y96.909 E0.18521
G1 X139.426 Y96.909 E0.04020
G1 X137.107 Y94.591 E0.18521
G1 X137.819 Y94.591 E0.04020
G1 X139.561 Y96.333 E0.13914
G1 X139.561 Y95.621 E0.04020
G1 X138.531 Y94.591 E0.08229
G1 X139.242 Y94.591 E0.04020
G1 X139.561 Y94.909 E0.02544
G1 F2760.000 E-3.20000
G1 X139.202 Y103.091 F15000.000
G1 X139.561 Y103.449 F2760.000 E3.20000
G1 X139.561 Y103.449 F2400.000
G1 X139.561 Y104.161 E0.04020
G1 X138.490 Y103.091 E0.08550
G1 X137.663 Y102.975 E0.04720
G1 X139.561 Y104.873 E0.15160
M106 S255
G1 F2760.000 E-3.20000
G1 Z0.600 F15000.000
G1 X107.116 Y97.040
G1 X107.709 Y96.946 F2760.000 E3.20000
G1 X108.000 Y96.900 F1560.000 E0.01656
G1 X108.958 Y97.051 E0.05444
G1 X109.651 Y97.404 E0.04364
G1 X109.822 Y97.492 E0.01080
G1 X110.508 Y98.178 E0.05444
G1 X110.949 Y99.042 E0.05444
G1 X111.100 Y100.000 E0.05444
G1 X110.949 Y100.958 E0.05444
G1 X110.508 Y101.822 E0.05444
G1 X109.822 Y102.508 E0.05444
G1 X108.958 Y102.949 E0.05444
G1 X108.000 Y103.100 E0.05444
G1 X107.042 Y102.949 E0.05444
G1 X106.178 Y102.508 E0.05444
G1 X105.492 Y101.822 E0.05444
G1 X105.051 Y100.958 E0.05444
G1 X104.900 Y100.000 E0.05444
G1 X105.051 Y99.042 E0.05444
G1 X105.492 Y98.178 E0.05444
G1 X106.178 Y97.492 E0.05444
G1 X106.641 Y97.256 E0.02918
G1 X107.116 Y97.040
G1 X107.272 Y97.521 F15000.000
G1 X108.000 Y97.406 F1560.000 E0.04134
G1 X108.802 Y97.533 E0.04555
G1 X109.424 Y97.850 E0.03919
G1 X109.525 Y97.901 E0.00636
G1 X110.099 Y98.475 E0.04555
G1 X110.467 Y99.198 E0.04555
G1 X110.594 Y100.000 E0.04555
G1 X110.467 Y100.802 E0.04555
G1 X110.099 Y101.525 E0.04555
G1 X109.525 Y102.099 E0.04555
G1 X108.802 Y102.467 E0.04555
G1 X108.000 Y102.594 E0.04555
G1 X107.198 Y102.467 E0.04555
G1 X106.475 Y102.099 E0.04555
G1 X105.901 Y101.525 E0.04555
G1 X105.533 Y100.802 E0.04555
G1 X105.406 Y100.000 E0.04555
G1 X105.533 Y99.198 E0.04555
G1 X105.901 Y98.475 E0.04555
G1 X106.475 Y97.901 E0.04555
G1 X107.132 Y97.567 E0.04134
G1 X107.272 Y97.521 E0.00832
G1 X106.641 Y97.256 F2760.000 E-3.20000
G1 X80.096 Y99.926 F15000.000
G1 X80.002 Y99.333 F2760.000 E3.20000
G1 X79.973 Y99.147 F1920.000 E0.01057
G1 X79.581 Y98.378 E0.04845
G1 X78.971 Y97.768 E0.04846
G1 X78.201 Y97.376 E0.04845
G1 X77.408 Y97.250 E0.04510
G1 X76.099 Y97.250 E0.07347
G1 X76.099 Y94.250 E0.16838
G1 X139.901 Y94.250 E3.58103
G1 X139.901 Y97.250 E0.16838
