; GCode generated by RepRap Java Host Software
; Created: 2013-04-27:11-32-09
;#!RECTANGLE: <BOX x:[l:37.00000000000001, h:130.0], y:[l:68.0, h:129.0]>, height: 6.0
M110
G21
G91
G1 Z5 F200
G90
M83
G92 E0
G28 X0
G28 Y0
G1 X100.0 Y100.0 F15000.0
G10 P0 S205.0 R140.0
G10 P1 S205.0 R140.0
G10 P2 S205.0 R140.0
G28 Z0

;#!LAYER: 1/25
G92 E0
G1 Z0.24 F200.0
G1 X43.8 Y82.8 F15000.0
G1 X52.0 Y87.5
T0
G1 F1995.6
G1 E10.913
G1 F2000.0
G1 F99.8
G1 E0.109
G1 F2000.0
G1 Y112.5 E1.31
G1 X51.5 E0.026
G1 Y87.5 E1.31
G1 X51.0 E0.026
G1 Y112.5 E1.31
G1 F1995.6
G1 E-10.913
G1 F2000.0
G1 X43.8 Y82.8 F15000.0
G1 F1995.6
G1 E10.913
G1 F2000.0
G1 F99.8
G1 E0.109
G1 F2000.0
G1 X56.22 E0.651 F1800.0
G1 Y117.21 E1.803
G1 X43.8 E0.651
G1 Y82.8 E1.803
G1 X43.29 Y82.29 E0.038
G1 X56.73 E0.704
G1 Y117.72 E1.856
G1 X43.29 E0.704
G1 Y82.29 E1.856
G1 F1995.6
G1 E-10.913
G1 F2000.0
G1 X43.8 Y82.8
G1 X45.87 Y84.24 F15000.0
G1 F1995.6
G1 E10.913
G1 F2000.0
G1 F99.8
G1 E0.109
G1 F2000.0
G1 X45.51 Y84.42 E0.021 F1800.0
G1 X45.36 Y84.57 E0.011
G1 X45.24 Y85.08 E0.027
G1 X45.27 Y115.11 E1.573
G1 X45.3 Y115.32 E0.011
G1 X45.6 Y115.68 E0.025
G1 X45.96 Y115.8 E0.02
G1 X54.12 E0.427
G1 X54.48 Y115.62 E0.021
G1 X54.66 Y115.41 E0.014
G1 X54.78 Y115.11 E0.017
G1 X54.72 Y84.75 E1.59
G1 X54.6 Y84.51 E0.014
G1 X54.12 Y84.21 E0.03
G1 X45.87 Y84.24 E0.432
G1 X45.96 Y84.72 E0.026
G1 X45.78 Y84.87 E0.012
G1 X45.81 Y115.17 E1.587
G1 X45.9 Y115.26 E0.007
G1 X54.06 Y115.29 E0.427
G1 X54.24 Y115.11 E0.013
G1 X54.27 Y114.81 E0.016
G1 X54.24 Y84.87 E1.568
G1 X54.12 Y84.75 E0.009
G1 X45.96 Y84.72 E0.427
G1 F1995.6
G1 E-10.913
G1 F2000.0
G1 X45.87 Y84.24
G1 X46.65 Y83.1 F15000.0
G1 F1995.6
G1 E10.913
G1 F2000.0
G1 F99.8
G1 E0.109
G1 F2000.0
G1 X45.84 Y83.94 E0.061
G1 X46.5 Y83.91 E0.035
G1 X47.37 Y83.1 E0.062
G1 X48.0 E0.033
G1 X47.28 Y83.91 E0.057
G1 X47.91 E0.033
G1 X48.78 Y83.1 E0.062
G1 X49.41 E0.033
G1 X48.69 Y83.91 E0.057
G1 X49.32 E0.033
G1 X50.19 Y83.1 E0.062
G1 X50.85 E0.035
G1 X50.1 Y83.91 E0.058
G1 X50.73 E0.033
G1 X51.63 Y83.1 E0.063
G1 X52.26 E0.033
G1 X51.51 Y83.91 E0.058
G1 X52.14 E0.033
G1 X53.04 Y83.1 E0.063
G1 X53.67 E0.033
G1 X52.92 Y83.91 E0.058
G1 X53.55 E0.033
G1 X54.45 Y83.1 E0.063
G1 X55.08 E0.033
G1 X54.3 Y83.94 E0.06
G1 X54.72 Y84.21 E0.026
G1 X55.89 Y83.1 E0.084
G1 X55.92 Y83.67 E0.03
G1 X55.02 Y84.66 E0.07
G1 X55.08 Y85.23 E0.03
G1 X55.92 Y84.45 E0.06
G1 Y85.08 E0.033
G1 X55.08 Y86.01 E0.066
G1 Y86.64 E0.033
G1 X55.92 Y85.86 E0.06
G1 Y86.49 E0.033
G1 X55.08 Y87.42 E0.066
G1 Y88.05 E0.033
G1 X55.92 Y87.27 E0.06
G1 Y87.93 E0.035
G1 X55.08 Y88.83 E0.064
G1 Y89.46 E0.033
G1 X55.92 Y88.71 E0.059
G1 Y89.34 E0.033
G1 X55.08 Y90.24 E0.064
G1 Y90.87 E0.033
G1 X55.92 Y90.12 E0.059
G1 Y90.75 E0.033
G1 X55.08 Y91.65 E0.064
G1 Y92.28 E0.033
G1 X55.92 Y91.53 E0.059
G1 Y92.16 E0.033
G1 X55.08 Y93.06 E0.064
G1 Y93.72 E0.035
G1 X55.92 Y92.94 E0.06
G1 Y93.57 E0.033
G1 X55.08 Y94.5 E0.066
G1 Y95.13 E0.033
G1 X55.92 Y94.35 E0.06
G1 Y94.98 E0.033
G1 X55.08 Y95.91 E0.066
G1 Y96.54 E0.033
G1 X55.92 Y95.76 E0.06
G1 Y96.39 E0.033
G1 X55.08 Y97.32 E0.066
G1 Y97.95 E0.033
G1 X55.92 Y97.17 E0.06
G1 Y97.83 E0.035
G1 X55.08 Y98.73 E0.064
G1 Y99.36 E0.033
G1 X55.92 Y98.61 E0.059
G1 Y99.24 E0.033
G1 X55.08 Y100.14 E0.064
G1 Y100.77 E0.033
G1 X55.92 Y100.02 E0.059
G1 Y100.65 E0.033
G1 X55.08 Y101.55 E0.064
G1 Y102.18 E0.033
G1 X55.92 Y101.43 E0.059
G1 Y102.06 E0.033
G1 X55.08 Y102.96 E0.064
G1 Y103.62 E0.035
G1 X55.92 Y102.84 E0.06
G1 Y103.47 E0.033
G1 X55.08 Y104.4 E0.066
G1 Y105.03 E0.033
G1 X55.92 Y104.25 E0.06
G1 Y104.88 E0.033
G1 X55.08 Y105.81 E0.066
G1 Y106.44 E0.033
G1 X55.92 Y105.66 E0.06
G1 Y106.29 E0.033
G1 X55.08 Y107.22 E0.066
G1 Y107.85 E0.033
G1 X55.92 Y107.07 E0.06
G1 Y107.73 E0.035
G1 X55.08 Y108.63 E0.064
G1 Y109.26 E0.033
G1 X55.92 Y108.51 E0.059
G1 Y109.14 E0.033
G1 X55.08 Y110.04 E0.064
G1 Y110.67 E0.033
G1 X55.92 Y109.92 E0.059
G1 Y110.55 E0.033
G1 X55.08 Y111.45 E0.064
G1 Y112.08 E0.033
G1 X55.92 Y111.33 E0.059
G1 Y111.96 E0.033
G1 X55.08 Y112.86 E0.064
G1 Y113.49 E0.033
G1 X55.92 Y112.74 E0.059
G1 Y113.37 E0.033
G1 X55.08 Y114.3 E0.066
G1 Y114.93 E0.033
G1 X55.92 Y114.15 E0.06
G1 F1995.6
G1 E-10.913
G1 F2000.0
G1 Y116.25 F15000.0
G1 F1995.6
G1 E10.913
G1 F2000.0
G1 F99.8
G1 E0.109
G1 F2000.0
G1 X55.2 Y116.91 E0.051
G1 X54.57 E0.033
G1 X55.92 Y115.5 E0.102
G1 Y114.87 E0.033
G1 X53.79 Y116.91 E0.154
G1 X53.16 E0.033
G1 X53.91 Y116.1 E0.058
G1 X53.28 E0.033
G1 X52.38 Y116.91 E0.063
G1 X51.75 E0.033
G1 X52.47 Y116.1 E0.057
G1 X51.84 E0.033
G1 X50.97 Y116.91 E0.062
G1 X50.34 E0.033
G1 X51.06 Y116.1 E0.057
G1 X50.43 E0.033
G1 X49.56 Y116.91 E0.062
G1 X48.93 E0.033
G1 X49.65 Y116.1 E0.057
G1 X49.02 E0.033
G1 X48.15 Y116.91 E0.062
G1 X47.52 E0.033
G1 X48.24 Y116.1 E0.057
G1 X47.61 E0.033
G1 X46.74 Y116.91 E0.062
G1 X46.08 E0.035
G1 X46.83 Y116.1 E0.058
G1 X46.2 E0.033
G1 X45.3 Y116.91 E0.063
G1 X44.67 E0.033
G1 X45.54 Y115.98 E0.067
G1 X45.21 Y115.71 E0.022
G1 X44.1 Y116.7 E0.078
G1 Y116.07 E0.033
G1 X44.97 Y115.14 E0.067
G1 X44.94 Y114.54 E0.031
G1 X44.1 Y115.29 E0.059
G1 Y114.66 E0.033
G1 X44.94 Y113.76 E0.064
G1 Y113.1 E0.035
G1 X44.1 Y113.88 E0.06
G1 Y113.25 E0.033
G1 X44.94 Y112.32 E0.066
G1 Y111.69 E0.033
G1 X44.1 Y112.47 E0.06
G1 Y111.84 E0.033
G1 X44.94 Y110.91 E0.066
G1 Y110.28 E0.033
G1 X44.1 Y111.06 E0.06
G1 Y110.43 E0.033
G1 X44.94 Y109.5 E0.066
G1 Y108.87 E0.033
G1 X44.1 Y109.65 E0.06
G1 Y108.99 E0.035
G1 X44.94 Y108.09 E0.064
G1 Y107.46 E0.033
G1 X44.1 Y108.21 E0.059
G1 Y107.58 E0.033
G1 X44.94 Y106.68 E0.064
G1 Y106.05 E0.033
G1 X44.1 Y106.8 E0.059
G1 Y106.17 E0.033
G1 X44.94 Y105.27 E0.064
G1 Y104.64 E0.033
G1 X44.1 Y105.39 E0.059
G1 Y104.76 E0.033
G1 X44.94 Y103.86 E0.064
G1 Y103.2 E0.035
G1 X44.1 Y103.98 E0.06
G1 Y103.35 E0.033
G1 X44.94 Y102.42 E0.066
G1 Y101.79 E0.033
G1 X44.1 Y102.57 E0.06
G1 Y101.94 E0.033
G1 X44.94 Y101.01 E0.066
G1 Y100.38 E0.033
G1 X44.1 Y101.16 E0.06
G1 Y100.53 E0.033
G1 X44.94 Y99.6 E0.066
G1 Y98.97 E0.033
G1 X44.1 Y99.75 E0.06
G1 Y99.09 E0.035
G1 X44.94 Y98.19 E0.064
G1 Y97.56 E0.033
G1 X44.1 Y98.31 E0.059
G1 Y97.68 E0.033
G1 X44.94 Y96.78 E0.064
G1 Y96.15 E0.033
G1 X44.1 Y96.9 E0.059
G1 Y96.27 E0.033
G1 X44.94 Y95.37 E0.064
G1 Y94.74 E0.033
G1 X44.1 Y95.49 E0.059
G1 Y94.86 E0.033
G1 X44.94 Y93.96 E0.064
G1 Y93.3 E0.035
G1 X44.1 Y94.08 E0.06
G1 Y93.45 E0.033
G1 X44.94 Y92.52 E0.066
G1 Y91.89 E0.033
G1 X44.1 Y92.67 E0.06
G1 Y92.04 E0.033
G1 X44.94 Y91.11 E0.066
G1 Y90.48 E0.033
G1 X44.1 Y91.26 E0.06
G1 Y90.63 E0.033
G1 X44.94 Y89.7 E0.066
G1 Y89.07 E0.033
G1 X44.1 Y89.85 E0.06
G1 Y89.19 E0.035
G1 X44.94 Y88.29 E0.064
G1 Y87.66 E0.033
G1 X44.1 Y88.41 E0.059
G1 Y87.78 E0.033
G1 X44.94 Y86.88 E0.064
G1 Y86.25 E0.033
G1 X44.1 Y87.0 E0.059
G1 Y86.37 E0.033
G1 X44.94 Y85.47 E0.064
G1 Y84.87 E0.031
G1 X44.1 Y85.62 E0.059
G1 Y84.96 E0.035
G1 X45.9 Y83.1 E0.136
G1 X45.24 E0.035
G1 X44.1 Y84.18 E0.082
G1 Y83.55 E0.033
G1 X44.52 Y83.1 E0.032
G1 F1995.6
G1 E-10.913
G1 F2000.0
G1 X122.22 Y93.21 F15000.0
G1 F1995.6
G1 E10.913
G1 F2000.0
G1 F99.8
G1 E0.109
G1 F2000.0
G1 X103.8 Y93.15 E0.965 F1800.0
G1 Y74.79 E0.962
G1 X122.22 Y74.85 E0.965
G1 Y93.21 E0.962
G1 X122.7 Y93.72 E0.037
G1 X103.29 Y93.66 E1.017
G1 Y74.28 E1.015
G1 X122.73 Y74.34 E1.018
G1 X122.7 Y93.72 E1.015
G1 F1995.6
G1 E-10.913
G1 F2000.0
G1 X122.22 Y93.21
G1 X121.92 Y92.7 F15000.0
G1 F1995.6
G1 E10.913
G1 F2000.0
G1 F99.8
G1 E0.109
G1 F2000.0
G1 X121.65 Y92.91 E0.018
G1 X120.99 E0.035
G1 X121.92 Y91.92 E0.071
G1 Y91.29 E0.033
G1 X120.21 Y92.91 E0.123
G1 X119.58 E0.033
G1 X121.92 Y90.51 E0.176
G1 Y89.88 E0.033
G1 X118.8 Y92.91 E0.228
G1 X118.17 E0.033
G1 X121.92 Y89.1 E0.28
G1 Y88.47 E0.033
G1 X117.39 Y92.91 E0.332
G1 X116.76 E0.033
G1 X121.92 Y87.69 E0.384
G1 Y87.06 E0.033
G1 X115.98 Y92.91 E0.437
G1 X115.35 E0.033
G1 X121.92 Y86.25 E0.49
G1 Y85.62 E0.033
G1 X114.57 Y92.91 E0.542
G1 X113.94 E0.033
G1 X121.92 Y84.84 E0.595
G1 Y84.21 E0.033
G1 X113.16 Y92.91 E0.647
G1 X112.56 Y92.88 E0.031
G1 X121.92 Y83.43 E0.697
G1 Y82.8 E0.033
G1 X111.78 Y92.88 E0.749
G1 X111.15 E0.033
G1 X121.92 Y82.02 E0.801
G1 Y81.39 E0.033
G1 X110.34 Y92.88 E0.855
G1 X109.71 E0.033
G1 X121.92 Y80.61 E0.907
G1 Y79.98 E0.033
G1 X108.93 Y92.88 E0.959
G1 X108.3 E0.033
G1 X121.92 Y79.2 E1.011
G1 Y78.57 E0.033
G1 X107.52 Y92.88 E1.063
G1 X106.89 E0.033
G1 X121.92 Y77.79 E1.116
G1 Y77.16 E0.033
G1 X106.11 Y92.88 E1.168
G1 X105.48 E0.033
G1 X121.92 Y76.35 E1.221
G1 Y75.72 E0.033
G1 X104.7 Y92.88 E1.273
G1 X104.1 Y92.85 E0.031
G1 X121.74 Y75.12 E1.31
G1 X121.11 E0.033
G1 X104.1 Y92.07 E1.258
G1 Y91.44 E0.033
G1 X120.33 Y75.12 E1.206
G1 X119.7 E0.033
G1 X104.1 Y90.66 E1.153
G1 Y90.03 E0.033
G1 X118.92 Y75.12 E1.101
G1 X118.29 E0.033
G1 X104.1 Y89.22 E1.048
G1 Y88.59 E0.033
G1 X117.51 Y75.12 E0.996
G1 X116.88 E0.033
G1 X104.1 Y87.81 E0.943
G1 Y87.18 E0.033
G1 X116.1 Y75.12 E0.891
G1 X115.47 E0.033
G1 X104.1 Y86.4 E0.839
G1 Y85.77 E0.033
G1 X114.69 Y75.12 E0.787
G1 X114.06 E0.033
G1 X104.1 Y84.99 E0.735
G1 Y84.36 E0.033
G1 X113.25 Y75.12 E0.681
G1 X112.65 Y75.09 E0.031
G1 X104.1 Y83.58 E0.631
G1 Y82.95 E0.033
G1 X111.87 Y75.09 E0.579
G1 X111.24 E0.033
G1 X104.1 Y82.17 E0.527
G1 Y81.54 E0.033
G1 X110.46 Y75.09 E0.475
G1 X109.83 E0.033
G1 X104.1 Y80.76 E0.422
G1 Y80.13 E0.033
G1 X109.05 Y75.09 E0.37
G1 X108.42 E0.033
G1 X104.1 Y79.32 E0.317
G1 Y78.69 E0.033
G1 X107.64 Y75.09 E0.264
G1 X107.01 E0.033
G1 X104.1 Y77.91 E0.212
G1 Y77.28 E0.033
G1 X106.23 Y75.09 E0.16
G1 X105.6 E0.033
G1 X104.1 Y76.5 E0.108
G1 Y75.87 E0.033
G1 X104.82 Y75.09 E0.056
G1 X104.19 E0.033
G1 X104.1 Y75.15 E0.006
G1 F1995.6
G1 E-10.913
G1 F2000.0
G1 X123.21 Y122.22 F15000.0
G1 F1995.6
G1 E10.913
G1 F2000.0
G1 F99.8
G1 E0.109
G1 F2000.0
G1 X104.79 Y122.16 E0.965 F1800.0
G1 Y103.8 E0.962
G1 X123.21 Y103.86 E0.965
G1 Y122.22 E0.962
G1 X123.69 Y122.73 E0.037
G1 X104.28 Y122.67 E1.017
G1 Y103.29 E1.015
G1 X123.72 Y103.35 E1.018
G1 X123.69 Y122.73 E1.015
G1 F1995.6
G1 E-10.913
G1 F2000.0
G1 X123.21 Y122.22
G1 X122.91 Y121.41 F15000.0
G1 F1995.6
G1 E10.913
G1 F2000.0
G1 F99.8
G1 E0.109
G1 F2000.0
G1 X122.34 Y121.92 E0.04
G1 X121.68 E0.035
G1 X122.91 Y120.63 E0.093
G1 Y120.0 E0.033
G1 X120.9 Y121.92 E0.146
G1 X120.27 E0.033
G1 X122.91 Y119.22 E0.198
G1 Y118.59 E0.033
G1 X119.49 Y121.92 E0.25
G1 X118.86 E0.033
G1 X122.91 Y117.81 E0.302
G1 Y117.18 E0.033
G1 X118.08 Y121.92 E0.355
G1 X117.45 E0.033
G1 X122.91 Y116.4 E0.407
G1 Y115.74 E0.035
G1 X116.67 Y121.92 E0.46
G1 X116.04 E0.033
G1 X122.91 Y114.96 E0.512
G1 Y114.33 E0.033
G1 X115.26 Y121.92 E0.565
G1 X114.63 E0.033
G1 X122.91 Y113.55 E0.617
G1 Y112.92 E0.033
G1 X113.88 Y121.89 E0.667
G1 X113.25 E0.033
G1 X122.91 Y112.14 E0.719
G1 Y111.51 E0.033
G1 X112.47 Y121.89 E0.771
G1 X111.81 E0.035
G1 X122.91 Y110.73 E0.825
G1 Y110.1 E0.033
G1 X111.03 Y121.89 E0.877
G1 X110.4 E0.033
G1 X122.91 Y109.32 E0.929
G1 Y108.69 E0.033
G1 X109.62 Y121.89 E0.981
G1 X108.99 E0.033
G1 X122.91 Y107.91 E1.033
G1 Y107.28 E0.033
G1 X108.21 Y121.89 E1.086
G1 X107.58 E0.033
G1 X122.91 Y106.5 E1.138
G1 Y105.84 E0.035
G1 X106.8 Y121.89 E1.191
G1 X106.17 E0.033
G1 X122.91 Y105.06 E1.243
G1 Y104.43 E0.033
G1 X105.39 Y121.89 E1.296
G1 X105.09 Y121.86 E0.016
G1 Y121.56 E0.016
G1 X122.43 Y104.13 E1.288
G1 X121.8 E0.033
G1 X105.09 Y120.78 E1.236
G1 Y120.15 E0.033
G1 X121.02 Y104.13 E1.183
G1 X120.39 E0.033
G1 X105.09 Y119.37 E1.131
G1 Y118.71 E0.035
G1 X119.61 Y104.13 E1.078
G1 X118.98 E0.033
G1 X105.09 Y117.93 E1.026
G1 Y117.3 E0.033
G1 X118.2 Y104.13 E0.973
G1 X117.57 E0.033
G1 X105.09 Y116.52 E0.921
G1 Y115.89 E0.033
G1 X116.79 Y104.13 E0.869
G1 X116.16 E0.033
G1 X105.09 Y115.11 E0.817
G1 Y114.48 E0.033
G1 X115.38 Y104.13 E0.765
G1 X114.72 E0.035
G1 X105.09 Y113.7 E0.711
G1 Y113.07 E0.033
G1 X113.97 Y104.1 E0.661
G1 X113.34 E0.033
G1 X105.09 Y112.29 E0.609
G1 Y111.66 E0.033
G1 X112.56 Y104.1 E0.557
G1 X111.93 E0.033
G1 X105.09 Y110.88 E0.505
G1 Y110.25 E0.033
G1 X111.15 Y104.1 E0.452
G1 X110.52 E0.033
G1 X105.09 Y109.47 E0.4
G1 Y108.81 E0.035
G1 X109.74 Y104.1 E0.347
G1 X109.11 E0.033
G1 X105.09 Y108.03 E0.294
G1 Y107.4 E0.033
G1 X108.33 Y104.1 E0.242
G1 X107.7 E0.033
G1 X105.09 Y106.62 E0.19
G1 Y105.99 E0.033
G1 X106.92 Y104.1 E0.138
G1 X106.29 E0.033
G1 X105.09 Y105.21 E0.086
G1 Y104.58 E0.033
G1 X105.57 Y104.1 E0.036
G1 F1995.6
G1 E-10.913
G1 F2000.0
;#!LAYER: 2/25
G92 E0
G1 Z0.48 F200.0
G1 X43.8 Y82.8 F15000.0
G1 X52.0 Y87.5
T0
G1 F1995.6
G1 E10.913
G1 F2000.0
G1 F99.8
G1 E0.109
G1 F2000.0
G1 Y112.5 E1.31
G1 X51.5 E0.026
G1 Y87.5 E1.31
G1 X51.0 E0.026
G1 Y112.5 E1.31
G1 F1995.6
G1 E-10.913
G1 F2000.0
G1 X43.8 Y82.8 F15000.0
G1 F1995.6
G1 E10.913
G1 F2000.0
G1 F99.8
G1 E0.109
G1 F2000.0
G1 X56.22 E0.651 F1800.0
G1 Y117.21 E1.803
G1 X43.8 E0.651
G1 Y82.8 E1.803
G1 X43.29 Y82.29 E0.038
G1 X56.73 E0.704
G1 Y117.72 E1.856
G1 X43.29 E0.704
G1 Y82.29 E1.856
G1 F1995.6
G1 E-10.913
G1 F2000.0
G1 X43.8 Y82.8
G1 X45.87 Y84.24 F15000.0
G1 F1995.6
G1 E10.913
G1 F2000.0
G1 F99.8
G1 E0.109
G1 F2000.0
G1 X45.51 Y84.42 E0.021 F1800.0
G1 X45.36 Y84.57 E0.011
G1 X45.24 Y85.08 E0.027
G1 X45.27 Y115.11 E1.573
G1 X45.3 Y115.32 E0.011
G1 X45.6 Y115.68 E0.025
G1 X45.96 Y115.8 E0.02
G1 X54.12 E0.427
G1 X54.48 Y115.62 E0.021
G1 X54.66 Y115.41 E0.014
G1 X54.78 Y115.11 E0.017
G1 X54.72 Y84.75 E1.59
G1 X54.6 Y84.51 E0.014
G1 X54.12 Y84.21 E0.03
G1 X45.87 Y84.24 E0.432
G1 X45.96 Y84.72 E0.026
G1 X45.78 Y84.87 E0.012
G1 X45.81 Y115.17 E1.587
G1 X45.9 Y115.26 E0.007
G1 X54.06 Y115.29 E0.427
G1 X54.24 Y115.11 E0.013
G1 X54.27 Y114.81 E0.016
G1 X54.24 Y84.87 E1.568
G1 X54.12 Y84.75 E0.009
G1 X45.96 Y84.72 E0.427
G1 F1995.6
G1 E-10.913
G1 F2000.0
G1 X45.87 Y84.24
G1 X55.08 Y85.5 F15000.0
G1 F1995.6
G1 E10.913
G1 F2000.0
G1 F99.8
G1 E0.109
G1 F2000.0
G1 X55.92 Y86.4 E0.064
G1 Y87.03 E0.033
G1 X55.08 Y86.25 E0.06
G1 Y86.88 E0.033
G1 X55.92 Y87.81 E0.066
G1 Y88.44 E0.033
G1 X55.08 Y87.66 E0.06
G1 Y88.29 E0.033
G1 X55.92 Y89.22 E0.066
G1 Y89.85 E0.033
G1 X55.08 Y89.07 E0.06
G1 Y89.7 E0.033
G1 X55.92 Y90.63 E0.066
G1 Y91.26 E0.033
G1 X55.08 Y90.51 E0.059
G1 Y91.14 E0.033
G1 X55.92 Y92.04 E0.064
G1 Y92.67 E0.033
G1 X55.08 Y91.92 E0.059
G1 Y92.55 E0.033
G1 X55.92 Y93.45 E0.064
G1 Y94.08 E0.033
G1 X55.08 Y93.33 E0.059
G1 Y93.96 E0.033
G1 X55.92 Y94.86 E0.064
G1 Y95.49 E0.033
G1 X55.08 Y94.74 E0.059
G1 Y95.37 E0.033
G1 X55.92 Y96.3 E0.066
G1 Y96.93 E0.033
G1 X55.08 Y96.15 E0.06
G1 Y96.78 E0.033
G1 X55.92 Y97.71 E0.066
G1 Y98.34 E0.033
G1 X55.08 Y97.56 E0.06
G1 Y98.19 E0.033
G1 X55.92 Y99.12 E0.066
G1 Y99.75 E0.033
G1 X55.08 Y98.97 E0.06
G1 Y99.6 E0.033
G1 X55.92 Y100.53 E0.066
G1 Y101.16 E0.033
G1 X55.08 Y100.38 E0.06
G1 Y101.04 E0.035
G1 X55.92 Y101.94 E0.064
G1 Y102.57 E0.033
G1 X55.08 Y101.82 E0.059
G1 Y102.45 E0.033
G1 X55.92 Y103.35 E0.064
G1 Y103.98 E0.033
G1 X55.08 Y103.23 E0.059
G1 Y103.86 E0.033
G1 X55.92 Y104.76 E0.064
G1 Y105.39 E0.033
G1 X55.08 Y104.64 E0.059
G1 Y105.27 E0.033
G1 X55.92 Y106.17 E0.064
G1 Y106.83 E0.035
G1 X55.08 Y106.05 E0.06
G1 Y106.68 E0.033
G1 X55.92 Y107.61 E0.066
G1 Y108.24 E0.033
G1 X55.08 Y107.46 E0.06
G1 Y108.09 E0.033
G1 X55.92 Y109.02 E0.066
G1 Y109.65 E0.033
G1 X55.08 Y108.87 E0.06
G1 Y109.5 E0.033
G1 X55.92 Y110.43 E0.066
G1 Y111.06 E0.033
G1 X55.08 Y110.28 E0.06
G1 Y110.94 E0.035
G1 X55.92 Y111.84 E0.064
G1 Y112.47 E0.033
G1 X55.08 Y111.72 E0.059
G1 Y112.35 E0.033
G1 X55.92 Y113.25 E0.064
G1 Y113.88 E0.033
G1 X55.08 Y113.13 E0.059
G1 Y113.76 E0.033
G1 X55.92 Y114.66 E0.064
G1 Y115.29 E0.033
G1 X55.08 Y114.54 E0.059
G1 Y115.14 E0.031
G1 X55.92 Y116.07 E0.066
G1 Y116.73 E0.035
G1 X54.84 Y115.68 E0.079
G1 X54.48 Y115.98 E0.025
G1 X55.32 Y116.91 E0.066
G1 X54.69 E0.033
G1 X53.82 Y116.1 E0.062
G1 X53.19 E0.033
G1 X53.91 Y116.91 E0.057
G1 X53.28 E0.033
G1 X52.41 Y116.1 E0.062
G1 X51.78 E0.033
G1 X52.5 Y116.91 E0.057
G1 X51.87 E0.033
G1 X51.0 Y116.1 E0.062
G1 X50.34 E0.035
G1 X51.09 Y116.91 E0.058
G1 X50.46 E0.033
G1 X49.56 Y116.1 E0.063
G1 X48.93 E0.033
G1 X49.68 Y116.91 E0.058
G1 X49.05 E0.033
G1 X48.15 Y116.1 E0.063
G1 X47.52 E0.033
G1 X48.27 Y116.91 E0.058
G1 X47.64 E0.033
G1 X46.8 Y116.1 E0.061
G1 F1995.6
G1 E-10.913
G1 F2000.0
G1 X44.1 Y116.22 F15000.0
G1 F1995.6
G1 E10.913
G1 F2000.0
G1 F99.8
G1 E0.109
G1 F2000.0
G1 X44.79 Y116.91 E0.051
G1 X45.42 E0.033
G1 X44.1 Y115.5 E0.101
G1 Y114.87 E0.033
G1 X46.2 Y116.91 E0.153
G1 X46.86 E0.035
G1 X46.08 Y116.1 E0.059
G1 X45.57 Y116.01 E0.027
G1 X45.06 Y115.5 E0.038
G1 X44.94 Y114.99 E0.027
G1 X44.1 Y114.09 E0.064
G1 Y113.46 E0.033
G1 X44.94 Y114.21 E0.059
G1 Y113.58 E0.033
G1 X44.1 Y112.68 E0.064
G1 Y112.05 E0.033
G1 X44.94 Y112.8 E0.059
G1 Y112.17 E0.033
G1 X44.1 Y111.27 E0.064
G1 Y110.64 E0.033
G1 X44.94 Y111.39 E0.059
G1 Y110.76 E0.033
G1 X44.1 Y109.86 E0.064
G1 Y109.2 E0.035
G1 X44.94 Y109.98 E0.06
G1 Y109.35 E0.033
G1 X44.1 Y108.42 E0.066
G1 Y107.79 E0.033
G1 X44.94 Y108.57 E0.06
G1 Y107.94 E0.033
G1 X44.1 Y107.01 E0.066
G1 Y106.38 E0.033
G1 X44.94 Y107.16 E0.06
G1 Y106.53 E0.033
G1 X44.1 Y105.6 E0.066
G1 Y104.97 E0.033
G1 X44.94 Y105.75 E0.06
G1 Y105.09 E0.035
G1 X44.1 Y104.19 E0.064
G1 Y103.56 E0.033
G1 X44.94 Y104.31 E0.059
G1 Y103.68 E0.033
G1 X44.1 Y102.78 E0.064
G1 Y102.15 E0.033
G1 X44.94 Y102.9 E0.059
G1 Y102.27 E0.033
G1 X44.1 Y101.37 E0.064
G1 Y100.74 E0.033
G1 X44.94 Y101.49 E0.059
G1 Y100.86 E0.033
G1 X44.1 Y99.96 E0.064
G1 Y99.3 E0.035
G1 X44.94 Y100.08 E0.06
G1 Y99.45 E0.033
G1 X44.1 Y98.52 E0.066
G1 Y97.89 E0.033
G1 X44.94 Y98.67 E0.06
G1 Y98.04 E0.033
G1 X44.1 Y97.11 E0.066
G1 Y96.48 E0.033
G1 X44.94 Y97.26 E0.06
G1 Y96.63 E0.033
G1 X44.1 Y95.7 E0.066
G1 Y95.07 E0.033
G1 X44.94 Y95.85 E0.06
G1 Y95.19 E0.035
G1 X44.1 Y94.29 E0.064
G1 Y93.66 E0.033
G1 X44.94 Y94.41 E0.059
G1 Y93.78 E0.033
G1 X44.1 Y92.88 E0.064
G1 Y92.25 E0.033
G1 X44.94 Y93.0 E0.059
G1 Y92.37 E0.033
G1 X44.1 Y91.47 E0.064
G1 Y90.84 E0.033
G1 X44.94 Y91.59 E0.059
G1 Y90.96 E0.033
G1 X44.1 Y90.06 E0.064
G1 Y89.4 E0.035
G1 X44.94 Y90.18 E0.06
G1 Y89.55 E0.033
G1 X44.1 Y88.62 E0.066
G1 Y87.99 E0.033
G1 X44.94 Y88.77 E0.06
G1 Y88.14 E0.033
G1 X44.1 Y87.21 E0.066
G1 Y86.58 E0.033
G1 X44.94 Y87.36 E0.06
G1 Y86.73 E0.033
G1 X44.1 Y85.8 E0.066
G1 Y85.17 E0.033
G1 X44.94 Y85.95 E0.06
G1 Y85.32 E0.033
G1 X44.1 Y84.39 E0.066
G1 Y83.73 E0.035
G1 X45.03 Y84.57 E0.066
G1 X45.3 Y84.21 E0.024
G1 X44.22 Y83.1 E0.081
G1 X44.85 E0.033
G1 X45.78 Y83.94 E0.066
G1 X46.38 Y83.91 E0.031
G1 X45.63 Y83.1 E0.058
G1 X46.26 E0.033
G1 X47.16 Y83.91 E0.063
G1 X47.79 E0.033
G1 X47.04 Y83.1 E0.058
G1 X47.67 E0.033
G1 X48.57 Y83.91 E0.063
G1 X49.2 E0.033
G1 X48.48 Y83.1 E0.057
G1 X49.11 E0.033
G1 X49.98 Y83.91 E0.062
G1 X50.61 E0.033
G1 X49.89 Y83.1 E0.057
G1 X50.52 E0.033
G1 X51.39 Y83.91 E0.062
G1 X52.02 E0.033
G1 X51.3 Y83.1 E0.057
G1 X51.93 E0.033
G1 X52.8 Y83.91 E0.062
G1 X53.43 E0.033
G1 X52.71 Y83.1 E0.057
G1 X53.34 E0.033
G1 X54.27 Y83.94 E0.066
G1 X54.42 Y84.0 E0.008
G1 X54.78 Y84.27 E0.024
G1 X55.02 Y84.66 E0.024
G1 X55.92 Y85.59 E0.068
G1 Y84.96 E0.033
G1 X54.12 Y83.1 E0.136
G1 X54.75 E0.033
G1 X55.92 Y84.18 E0.083
G1 Y83.55 E0.033
G1 X55.53 Y83.1 E0.031
G1 F1995.6
G1 E-10.913
G1 F2000.0
G1 X122.22 Y93.21 F15000.0
G1 F1995.6
G1 E10.913
G1 F2000.0
G1 F99.8
G1 E0.109
G1 F2000.0
G1 X103.8 Y93.15 E0.965 F1800.0
G1 Y74.79 E0.962
G1 X122.22 Y74.85 E0.965
G1 Y93.21 E0.962
G1 X122.7 Y93.72 E0.037
G1 X103.29 Y93.66 E1.017
G1 Y74.28 E1.015
G1 X122.73 Y74.34 E1.018
G1 X122.7 Y93.72 E1.015
G1 F1995.6
G1 E-10.913
G1 F2000.0
G1 X122.22 Y93.21
G1 X104.19 Y92.88 F15000.0
G1 F1995.6
G1 E10.913
G1 F2000.0
G1 F99.8
G1 E0.109
G1 F2000.0
G1 X104.1 Y92.76 E0.008
G1 Y92.13 E0.033
G1 X104.91 Y92.88 E0.058
G1 X105.54 E0.033
G1 X104.1 Y91.35 E0.11
G1 Y90.72 E0.033
G1 X106.32 Y92.88 E0.162
G1 X106.95 E0.033
G1 X104.1 Y89.94 E0.214
G1 Y89.31 E0.033
G1 X107.73 Y92.88 E0.267
G1 X108.39 E0.035
G1 X104.1 Y88.53 E0.32
G1 Y87.9 E0.033
G1 X109.17 Y92.88 E0.372
G1 X109.8 E0.033
G1 X104.1 Y87.12 E0.425
G1 Y86.49 E0.033
G1 X110.58 Y92.88 E0.477
G1 X111.21 E0.033
G1 X104.1 Y85.71 E0.529
G1 Y85.08 E0.033
G1 X111.99 Y92.88 E0.581
G1 X112.62 E0.033
G1 X104.1 Y84.3 E0.633
G1 Y83.64 E0.035
G1 X113.43 Y92.91 E0.689
G1 X114.06 E0.033
G1 X104.1 Y82.86 E0.741
G1 Y82.23 E0.033
G1 X114.84 Y92.91 E0.793
G1 X115.47 E0.033
G1 X104.1 Y81.45 E0.846
G1 Y80.82 E0.033
G1 X116.25 Y92.91 E0.898
G1 X116.88 E0.033
G1 X104.1 Y80.04 E0.95
G1 Y79.41 E0.033
G1 X117.66 Y92.91 E1.002
G1 X118.32 E0.035
G1 X104.1 Y78.63 E1.056
G1 Y78.0 E0.033
G1 X119.1 Y92.91 E1.108
G1 X119.73 E0.033
G1 X104.1 Y77.22 E1.16
G1 Y76.59 E0.033
G1 X120.51 Y92.91 E1.212
G1 X121.14 E0.033
G1 X104.1 Y75.81 E1.265
G1 Y75.12 E0.036
G1 X121.92 Y92.91 E1.319
G1 Y92.28 E0.033
G1 X104.79 Y75.09 E1.271
G1 X105.45 E0.035
G1 X121.92 Y91.5 E1.218
G1 Y90.87 E0.033
G1 X106.23 Y75.09 E1.166
G1 X106.86 E0.033
G1 X121.92 Y90.09 E1.113
G1 Y89.46 E0.033
G1 X107.64 Y75.09 E1.061
G1 X108.27 E0.033
G1 X121.92 Y88.68 E1.009
G1 Y88.05 E0.033
G1 X109.05 Y75.09 E0.957
G1 X109.68 E0.033
G1 X121.92 Y87.27 E0.905
G1 Y86.61 E0.035
G1 X110.46 Y75.09 E0.851
G1 X111.09 E0.033
G1 X121.92 Y85.83 E0.799
G1 Y85.2 E0.033
G1 X111.87 Y75.09 E0.747
G1 X112.5 E0.033
G1 X121.92 Y84.42 E0.695
G1 Y83.79 E0.033
G1 X113.31 Y75.12 E0.64
G1 X113.94 E0.033
G1 X121.92 Y83.01 E0.588
G1 Y82.38 E0.033
G1 X114.72 Y75.12 E0.536
G1 X115.38 E0.035
G1 X121.92 Y81.6 E0.482
G1 Y80.97 E0.033
G1 X116.16 Y75.12 E0.43
G1 X116.79 E0.033
G1 X121.92 Y80.19 E0.378
G1 Y79.56 E0.033
G1 X117.57 Y75.12 E0.326
G1 X118.2 E0.033
G1 X121.92 Y78.78 E0.273
G1 Y78.15 E0.033
G1 X118.98 Y75.12 E0.221
G1 X119.61 E0.033
G1 X121.92 Y77.37 E0.169
G1 Y76.74 E0.033
G1 X120.39 Y75.12 E0.117
G1 X121.02 E0.033
G1 X121.92 Y75.93 E0.063
G1 Y75.33 E0.031
G1 X121.8 Y75.12 E0.013
G1 F1995.6
G1 E-10.913
G1 F2000.0
G1 X123.21 Y122.22 F15000.0
G1 F1995.6
G1 E10.913
G1 F2000.0
G1 F99.8
G1 E0.109
G1 F2000.0
G1 X104.79 Y122.16 E0.965 F1800.0
G1 Y103.8 E0.962
G1 X123.21 Y103.86 E0.965
G1 Y122.22 E0.962
G1 X123.69 Y122.73 E0.037
G1 X104.28 Y122.67 E1.017
G1 Y103.29 E1.015
G1 X123.72 Y103.35 E1.018
G1 X123.69 Y122.73 E1.015
G1 F1995.6
G1 E-10.913
G1 F2000.0
G1 X123.21 Y122.22
G1 X122.52 Y104.13 F15000.0
G1 F1995.6
G1 E10.913
G1 F2000.0
G1 F99.8
G1 E0.109
G1 F2000.0
G1 X122.91 Y104.58 E0.031
G1 Y105.21 E0.033
G1 X121.74 Y104.13 E0.083
G1 X121.11 E0.033
G1 X122.91 Y105.99 E0.136
G1 Y106.62 E0.033
G1 X120.33 Y104.13 E0.188
G1 X119.7 E0.033
G1 X122.91 Y107.4 E0.24
G1 Y108.06 E0.035
G1 X118.92 Y104.13 E0.293
G1 X118.29 E0.033
G1 X122.91 Y108.84 E0.346
G1 Y109.47 E0.033
G1 X117.51 Y104.13 E0.398
G1 X116.88 E0.033
G1 X122.91 Y110.25 E0.45
G1 Y110.88 E0.033
G1 X116.1 Y104.13 E0.502
G1 X115.47 E0.033
G1 X122.91 Y111.66 E0.555
G1 Y112.29 E0.033
G1 X114.69 Y104.13 E0.607
G1 X114.03 E0.035
G1 X122.91 Y113.07 E0.66
G1 Y113.7 E0.033
G1 X113.22 Y104.1 E0.715
G1 X112.59 E0.033
G1 X122.91 Y114.48 E0.767
G1 Y115.11 E0.033
G1 X111.81 Y104.1 E0.819
G1 X111.18 E0.033
G1 X122.91 Y115.89 E0.871
G1 Y116.52 E0.033
G1 X110.4 Y104.1 E0.923
G1 X109.77 E0.033
G1 X122.91 Y117.3 E0.976
G1 Y117.96 E0.035
G1 X108.99 Y104.1 E1.029
G1 X108.36 E0.033
G1 X122.91 Y118.74 E1.081
G1 Y119.37 E0.033
G1 X107.58 Y104.1 E1.133
G1 X106.95 E0.033
G1 X122.91 Y120.15 E1.186
G1 Y120.78 E0.033
G1 X106.17 Y104.1 E1.238
G1 X105.54 E0.033
G1 X122.91 Y121.56 E1.29
G1 X122.88 Y121.92 E0.019
G1 X122.64 E0.013
G1 X105.09 Y104.43 E1.298
G1 Y105.09 E0.035
G1 X121.86 Y121.92 E1.245
G1 X121.23 E0.033
G1 X105.09 Y105.87 E1.192
G1 Y106.5 E0.033
G1 X120.45 Y121.92 E1.14
G1 X119.82 E0.033
G1 X105.09 Y107.28 E1.088
G1 Y107.91 E0.033
G1 X119.04 Y121.92 E1.036
G1 X118.41 E0.033
G1 X105.09 Y108.69 E0.983
G1 Y109.32 E0.033
G1 X117.63 Y121.92 E0.931
G1 X117.0 E0.033
G1 X105.09 Y110.1 E0.879
G1 Y110.73 E0.033
G1 X116.19 Y121.92 E0.826
G1 X115.56 E0.033
G1 X105.09 Y111.51 E0.773
G1 Y112.14 E0.033
G1 X114.78 Y121.92 E0.721
G1 X114.15 E0.033
G1 X105.09 Y112.92 E0.669
G1 Y113.55 E0.033
G1 X113.34 Y121.89 E0.615
G1 X112.71 E0.033
G1 X105.09 Y114.33 E0.562
G1 Y114.96 E0.033
G1 X111.93 Y121.89 E0.51
G1 X111.3 E0.033
G1 X105.09 Y115.77 E0.457
G1 Y116.4 E0.033
G1 X110.52 Y121.89 E0.405
G1 X109.89 E0.033
G1 X105.09 Y117.18 E0.352
G1 Y117.81 E0.033
G1 X109.11 Y121.89 E0.3
G1 X108.48 E0.033
G1 X105.09 Y118.59 E0.248
G1 Y119.22 E0.033
G1 X107.7 Y121.89 E0.196
G1 X107.07 E0.033
G1 X105.09 Y120.0 E0.143
G1 Y120.63 E0.033
G1 X106.26 Y121.89 E0.09
G1 X105.63 E0.033
G1 X105.09 Y121.35 E0.04
G1 F1995.6
G1 E-10.913
G1 F2000.0
;#!LAYER: 3/25
G92 E0
G1 Z0.72 F200.0
G1 X43.8 Y82.8 F15000.0
G1 X52.0 Y87.5
T0
G1 F1995.6
G1 E10.913
G1 F2000.0
G1 F99.8
G1 E0.109
G1 F2000.0
G1 Y112.5 E1.31
G1 X51.5 E0.026
G1 Y87.5 E1.31
G1 X51.0 E0.026
G1 Y112.5 E1.31
G1 F1995.6
G1 E-10.913
G1 F2000.0
G1 X43.8 Y82.8 F15000.0
G1 F1995.6
G1 E10.913
G1 F2000.0
G1 F99.8
G1 E0.109
G1 F2000.0
G1 X56.22 E0.651 F1800.0
G1 Y117.21 E1.803
G1 X43.8 E0.651
G1 Y82.8 E1.803
G1 X43.29 Y82.29 E0.038
G1 X56.73 E0.704
G1 Y117.72 E1.856
G1 X43.29 E0.704
G1 Y82.29 E1.856
G1 F1995.6
G1 E-10.913
G1 F2000.0
G1 X43.8 Y82.8
G1 X45.87 Y84.24 F15000.0
G1 F1995.6
G1 E10.913
G1 F2000.0
G1 F99.8
G1 E0.109
G1 F2000.0
G1 X45.51 Y84.42 E0.021 F1800.0
G1 X45.36 Y84.57 E0.011
G1 X45.24 Y85.08 E0.027
G1 X45.27 Y115.11 E1.573
G1 X45.3 Y115.32 E0.011
G1 X45.6 Y115.68 E0.025
G1 X45.96 Y115.8 E0.02
G1 X54.12 E0.427
G1 X54.48 Y115.62 E0.021
G1 X54.66 Y115.41 E0.014
G1 X54.78 Y115.11 E0.017
G1 X54.72 Y84.75 E1.59
G1 X54.6 Y84.51 E0.014
G1 X54.12 Y84.21 E0.03
G1 X45.87 Y84.24 E0.432
G1 X45.96 Y84.72 E0.026
G1 X45.78 Y84.87 E0.012
G1 X45.81 Y115.17 E1.587
G1 X45.9 Y115.26 E0.007
G1 X54.06 Y115.29 E0.427
G1 X54.24 Y115.11 E0.013
G1 X54.27 Y114.81 E0.016
G1 X54.24 Y84.87 E1.568
G1 X54.12 Y84.75 E0.009
G1 X45.96 Y84.72 E0.427
G1 F1995.6
G1 E-10.913
G1 F2000.0
G1 X45.87 Y84.24
G1 X44.94 Y85.86 F15000.0
G1 F1995.6
G1 E10.913
G1 F2000.0
G1 F99.8
G1 E0.109
G1 F2000.0
G1 X44.1 Y86.73 E0.063
G1 Y87.36 E0.033
G1 X44.94 Y86.61 E0.059
G1 Y87.24 E0.033
G1 X44.1 Y88.14 E0.064
G1 Y88.77 E0.033
G1 X44.94 Y88.02 E0.059
G1 Y88.65 E0.033
G1 X44.1 Y89.55 E0.064
G1 Y90.18 E0.033
G1 X44.94 Y89.43 E0.059
G1 Y90.06 E0.033
G1 X44.1 Y90.96 E0.064
G1 Y91.59 E0.033
G1 X44.94 Y90.84 E0.059
G1 Y91.47 E0.033
G1 X44.1 Y92.4 E0.066
G1 Y93.03 E0.033
G1 X44.94 Y92.25 E0.06
G1 Y92.88 E0.033
G1 X44.1 Y93.81 E0.066
G1 Y94.44 E0.033
G1 X44.94 Y93.66 E0.06
G1 Y94.29 E0.033
G1 X44.1 Y95.22 E0.066
G1 Y95.85 E0.033
G1 X44.94 Y95.07 E0.06
G1 Y95.7 E0.033
G1 X44.1 Y96.63 E0.066
G1 Y97.26 E0.033
G1 X44.94 Y96.51 E0.059
G1 Y97.14 E0.033
G1 X44.1 Y98.04 E0.064
G1 Y98.67 E0.033
G1 X44.94 Y97.92 E0.059
G1 Y98.55 E0.033
G1 X44.1 Y99.45 E0.064
G1 Y100.08 E0.033
G1 X44.94 Y99.33 E0.059
G1 Y99.96 E0.033
G1 X44.1 Y100.86 E0.064
G1 Y101.49 E0.033
G1 X44.94 Y100.74 E0.059
G1 Y101.37 E0.033
G1 X44.1 Y102.3 E0.066
G1 Y102.93 E0.033
G1 X44.94 Y102.15 E0.06
G1 Y102.78 E0.033
G1 X44.1 Y103.71 E0.066
G1 Y104.34 E0.033
G1 X44.94 Y103.56 E0.06
G1 Y104.19 E0.033
G1 X44.1 Y105.12 E0.066
G1 Y105.75 E0.033
G1 X44.94 Y104.97 E0.06
G1 Y105.6 E0.033
G1 X44.1 Y106.53 E0.066
G1 Y107.16 E0.033
G1 X44.94 Y106.41 E0.059
G1 Y107.04 E0.033
G1 X44.1 Y107.94 E0.064
G1 Y108.57 E0.033
G1 X44.94 Y107.82 E0.059
G1 Y108.45 E0.033
G1 X44.1 Y109.35 E0.064
G1 Y109.98 E0.033
G1 X44.94 Y109.23 E0.059
G1 Y109.86 E0.033
G1 X44.1 Y110.76 E0.064
G1 Y111.39 E0.033
G1 X44.94 Y110.64 E0.059
G1 Y111.27 E0.033
G1 X44.1 Y112.2 E0.066
G1 Y112.83 E0.033
G1 X44.94 Y112.05 E0.06
G1 Y112.68 E0.033
G1 X44.1 Y113.61 E0.066
G1 Y114.24 E0.033
G1 X44.94 Y113.46 E0.06
G1 Y114.09 E0.033
G1 X44.1 Y115.02 E0.066
G1 Y115.65 E0.033
G1 X44.94 Y114.87 E0.06
G1 X45.03 Y115.41 E0.029
G1 X44.1 Y116.43 E0.072
G1 Y116.88 E0.024
G1 X44.25 Y116.91 E0.008
G1 X45.36 Y115.86 E0.08
G1 X45.84 Y116.07 E0.027
G1 X45.03 Y116.91 E0.061
G1 X45.66 E0.033
G1 X46.56 Y116.1 E0.063
G1 X47.19 E0.033
G1 X46.44 Y116.91 E0.058
G1 X47.07 E0.033
G1 X47.97 Y116.1 E0.063
G1 X48.6 E0.033
G1 X47.85 Y116.91 E0.058
G1 X48.48 E0.033
G1 X49.38 Y116.1 E0.063
G1 X50.01 E0.033
G1 X49.29 Y116.91 E0.057
G1 X49.92 E0.033
G1 X50.79 Y116.1 E0.062
G1 X51.42 E0.033
G1 X50.7 Y116.91 E0.057
G1 X51.33 E0.033
G1 X52.2 Y116.1 E0.062
G1 X52.83 E0.033
G1 X52.11 Y116.91 E0.057
G1 X52.74 E0.033
G1 X53.61 Y116.1 E0.062
G1 F1995.6
G1 E-10.913
G1 F2000.0
G1 X55.92 Y116.61 F15000.0
G1 F1995.6
G1 E10.913
G1 F2000.0
G1 F99.8
G1 E0.109
G1 F2000.0
G1 X55.56 Y116.91 E0.025
G1 X54.93 E0.033
G1 X55.92 Y115.86 E0.076
G1 Y115.2 E0.035
G1 X54.15 Y116.91 E0.129
G1 X53.52 E0.033
G1 X54.48 Y115.98 E0.07
G1 X54.96 Y115.5 E0.036
G1 X55.92 Y114.42 E0.076
G1 Y113.79 E0.033
G1 X55.08 Y114.57 E0.06
G1 Y113.94 E0.033
G1 X55.92 Y113.01 E0.066
G1 Y112.38 E0.033
G1 X55.08 Y113.16 E0.06
G1 Y112.53 E0.033
G1 X55.92 Y111.6 E0.066
G1 Y110.97 E0.033
G1 X55.08 Y111.75 E0.06
G1 Y111.12 E0.033
G1 X55.92 Y110.19 E0.066
G1 Y109.56 E0.033
G1 X55.08 Y110.31 E0.059
G1 Y109.68 E0.033
G1 X55.92 Y108.78 E0.064
G1 Y108.15 E0.033
G1 X55.08 Y108.9 E0.059
G1 Y108.27 E0.033
G1 X55.92 Y107.37 E0.064
G1 Y106.74 E0.033
G1 X55.08 Y107.49 E0.059
G1 Y106.86 E0.033
G1 X55.92 Y105.96 E0.064
G1 Y105.33 E0.033
G1 X55.08 Y106.08 E0.059
G1 Y105.45 E0.033
G1 X55.92 Y104.52 E0.066
G1 Y103.89 E0.033
G1 X55.08 Y104.67 E0.06
G1 Y104.04 E0.033
G1 X55.92 Y103.11 E0.066
G1 Y102.48 E0.033
G1 X55.08 Y103.26 E0.06
G1 Y102.63 E0.033
G1 X55.92 Y101.7 E0.066
G1 Y101.07 E0.033
G1 X55.08 Y101.85 E0.06
G1 Y101.22 E0.033
G1 X55.92 Y100.29 E0.066
G1 Y99.66 E0.033
G1 X55.08 Y100.41 E0.059
G1 Y99.78 E0.033
G1 X55.92 Y98.88 E0.064
G1 Y98.25 E0.033
G1 X55.08 Y99.0 E0.059
G1 Y98.37 E0.033
G1 X55.92 Y97.47 E0.064
G1 Y96.84 E0.033
G1 X55.08 Y97.59 E0.059
G1 Y96.96 E0.033
G1 X55.92 Y96.06 E0.064
G1 Y95.43 E0.033
G1 X55.08 Y96.18 E0.059
G1 Y95.55 E0.033
G1 X55.92 Y94.62 E0.066
G1 Y93.99 E0.033
G1 X55.08 Y94.77 E0.06
G1 Y94.14 E0.033
G1 X55.92 Y93.21 E0.066
G1 Y92.58 E0.033
G1 X55.08 Y93.36 E0.06
G1 Y92.73 E0.033
G1 X55.92 Y91.8 E0.066
G1 Y91.17 E0.033
G1 X55.08 Y91.95 E0.06
G1 Y91.32 E0.033
G1 X55.92 Y90.39 E0.066
G1 Y89.76 E0.033
G1 X55.08 Y90.51 E0.059
G1 Y89.88 E0.033
G1 X55.92 Y88.98 E0.064
G1 Y88.35 E0.033
G1 X55.08 Y89.1 E0.059
G1 Y88.47 E0.033
G1 X55.92 Y87.57 E0.064
G1 Y86.94 E0.033
G1 X55.08 Y87.69 E0.059
G1 Y87.06 E0.033
G1 X55.92 Y86.16 E0.064
G1 Y85.53 E0.033
G1 X55.08 Y86.28 E0.059
G1 Y85.65 E0.033
G1 X55.92 Y84.72 E0.066
G1 Y84.09 E0.033
G1 X55.05 Y84.9 E0.062
G1 X54.96 Y84.51 E0.021
G1 X54.9 Y84.42 E0.006
G1 X55.92 Y83.31 E0.079
G1 X55.89 Y83.1 E0.011
G1 X55.5 E0.02
G1 X54.51 Y84.03 E0.071
G1 X54.0 Y83.91 E0.027
G1 X54.72 Y83.1 E0.057
G1 X54.09 E0.033
G1 X53.22 Y83.91 E0.062
G1 X52.59 E0.033
G1 X53.31 Y83.1 E0.057
G1 X52.68 E0.033
G1 X51.78 Y83.91 E0.063
G1 X51.15 E0.033
G1 X51.9 Y83.1 E0.058
G1 X51.27 E0.033
G1 X50.37 Y83.91 E0.063
G1 X49.74 E0.033
G1 X50.49 Y83.1 E0.058
G1 X49.86 E0.033
G1 X48.96 Y83.91 E0.063
G1 X48.33 E0.033
G1 X49.08 Y83.1 E0.058
G1 X48.45 E0.033
G1 X47.55 Y83.91 E0.063
G1 X46.92 E0.033
G1 X47.64 Y83.1 E0.057
G1 X47.01 E0.033
G1 X46.14 Y83.91 E0.062
G1 X45.66 Y83.97 E0.025
G1 X45.24 Y84.27 E0.027
G1 X45.0 Y84.69 E0.025
G1 X44.94 Y85.14 E0.024
G1 X44.1 Y85.95 E0.061
G1 Y85.32 E0.033
G1 X46.23 Y83.1 E0.161
G1 X45.6 E0.033
G1 X44.1 Y84.54 E0.109
G1 Y83.91 E0.033
G1 X44.82 Y83.1 E0.057
G1 X44.19 E0.033
G1 X44.1 Y83.19 E0.007
G1 F1995.6
G1 E-10.913
G1 F2000.0
G1 X122.22 Y93.21 F15000.0
G1 F1995.6
G1 E10.913
G1 F2000.0
G1 F99.8
G1 E0.109
G1 F2000.0
G1 X103.8 Y93.15 E0.965 F1800.0
G1 Y74.79 E0.962
G1 X122.22 Y74.85 E0.965
G1 Y93.21 E0.962
G1 X122.7 Y93.72 E0.037
G1 X103.29 Y93.66 E1.017
G1 Y74.28 E1.015
G1 X122.73 Y74.34 E1.018
G1 X122.7 Y93.72 E1.015
G1 F1995.6
G1 E-10.913
G1 F2000.0
G1 X122.22 Y93.21
G1 X121.92 Y92.34 F15000.0
G1 F1995.6
G1 E10.913
G1 F2000.0
G1 F99.8
G1 E0.109
G1 F2000.0
G1 X121.29 Y92.91 E0.045
G1 X120.66 E0.033
G1 X121.92 Y91.56 E0.097
G1 Y90.93 E0.033
G1 X119.88 Y92.91 E0.149
G1 X119.25 E0.033
G1 X121.92 Y90.15 E0.201
G1 Y89.52 E0.033
G1 X118.44 Y92.91 E0.254
G1 X117.81 E0.033
G1 X121.92 Y88.74 E0.307
G1 Y88.11 E0.033
G1 X117.03 Y92.91 E0.359
G1 X116.4 E0.033
G1 X121.92 Y87.33 E0.411
G1 Y86.7 E0.033
G1 X115.62 Y92.91 E0.463
G1 X114.99 E0.033
G1 X121.92 Y85.92 E0.516
G1 Y85.29 E0.033
G1 X114.21 Y92.91 E0.568
G1 X113.58 E0.033
G1 X121.92 Y84.51 E0.62
G1 Y83.85 E0.035
G1 X112.83 Y92.88 E0.671
G1 X112.2 E0.033
G1 X121.92 Y83.07 E0.723
G1 Y82.44 E0.033
G1 X111.42 Y92.88 E0.776
G1 X110.79 E0.033
G1 X121.92 Y81.66 E0.828
G1 Y81.03 E0.033
G1 X110.01 Y92.88 E0.88
G1 X109.38 E0.033
G1 X121.92 Y80.25 E0.932
G1 Y79.62 E0.033
G1 X108.6 Y92.88 E0.985
G1 X107.94 E0.035
G1 X121.92 Y78.84 E1.038
G1 Y78.21 E0.033
G1 X107.16 Y92.88 E1.09
G1 X106.53 E0.033
G1 X121.92 Y77.43 E1.142
G1 Y76.8 E0.033
G1 X105.75 Y92.88 E1.195
G1 X105.12 E0.033
G1 X121.92 Y76.02 E1.247
G1 Y75.39 E0.033
G1 X104.34 Y92.88 E1.299
G1 X104.1 Y92.85 E0.013
G1 Y92.49 E0.019
G1 X121.41 Y75.12 E1.285
G1 X120.75 E0.035
G1 X104.1 Y91.71 E1.231
G1 Y91.08 E0.033
G1 X119.97 Y75.12 E1.179
G1 X119.34 E0.033
G1 X104.1 Y90.3 E1.127
G1 Y89.67 E0.033
G1 X118.56 Y75.12 E1.075
G1 X117.93 E0.033
G1 X104.1 Y88.89 E1.022
G1 Y88.26 E0.033
G1 X117.15 Y75.12 E0.97
G1 X116.52 E0.033
G1 X104.1 Y87.48 E0.918
G1 Y86.82 E0.035
G1 X115.74 Y75.12 E0.865
G1 X115.11 E0.033
G1 X104.1 Y86.04 E0.812
G1 Y85.41 E0.033
G1 X114.33 Y75.12 E0.76
G1 X113.7 E0.033
G1 X104.1 Y84.63 E0.708
G1 Y84.0 E0.033
G1 X112.98 Y75.09 E0.659
G1 X112.29 E0.036
G1 X104.1 Y83.22 E0.605
G1 Y82.59 E0.033
G1 X111.54 Y75.09 E0.553
G1 X110.88 E0.035
G1 X104.1 Y81.81 E0.5
G1 Y81.18 E0.033
G1 X110.1 Y75.09 E0.448
G1 X109.47 E0.033
G1 X104.1 Y80.4 E0.396
G1 Y79.77 E0.033
G1 X108.69 Y75.09 E0.343
G1 X108.06 E0.033
G1 X104.1 Y78.99 E0.291
G1 Y78.36 E0.033
G1 X107.28 Y75.09 E0.239
G1 X106.65 E0.033
G1 X104.1 Y77.58 E0.187
G1 Y76.92 E0.035
G1 X105.87 Y75.09 E0.133
G1 X105.24 E0.033
G1 X104.1 Y76.14 E0.081
G1 Y75.51 E0.033
G1 X104.52 Y75.09 E0.031
G1 F1995.6
G1 E-10.913
G1 F2000.0
G1 X123.21 Y122.22 F15000.0
G1 F1995.6
G1 E10.913
G1 F2000.0
G1 F99.8
G1 E0.109
G1 F2000.0
G1 X104.79 Y122.16 E0.965 F1800.0
G1 Y103.8 E0.962
G1 X123.21 Y103.86 E0.965
G1 Y122.22 E0.962
G1 X123.69 Y122.73 E0.037
G1 X104.28 Y122.67 E1.017
G1 Y103.29 E1.015
G1 X123.72 Y103.35 E1.018
G1 X123.69 Y122.73 E1.015
G1 F1995.6
G1 E-10.913
G1 F2000.0
G1 X123.21 Y122.22
G1 X122.91 Y121.74 F15000.0
G1 F1995.6
G1 E10.913
G1 F2000.0
G1 F99.8
G1 E0.109
G1 F2000.0
G1 X122.67 Y121.92 E0.016
G1 X122.04 E0.033
G1 X122.91 Y120.99 E0.067
G1 Y120.36 E0.033
G1 X121.26 Y121.92 E0.119
G1 X120.63 E0.033
G1 X122.91 Y119.58 E0.171
G1 Y118.95 E0.033
G1 X119.85 Y121.92 E0.223
G1 X119.22 E0.033
G1 X122.91 Y118.14 E0.277
G1 Y117.51 E0.033
G1 X118.44 Y121.92 E0.329
G1 X117.81 E0.033
G1 X122.91 Y116.73 E0.381
G1 Y116.1 E0.033
G1 X117.03 Y121.92 E0.433
G1 X116.4 E0.033
G1 X122.91 Y115.32 E0.486
G1 Y114.69 E0.033
G1 X115.62 Y121.92 E0.538
G1 X114.99 E0.033
G1 X122.91 Y113.91 E0.59
G1 Y113.28 E0.033
G1 X114.18 Y121.92 E0.643
G1 X113.58 Y121.89 E0.031
G1 X122.91 Y112.5 E0.693
G1 Y111.87 E0.033
G1 X112.8 Y121.89 E0.746
G1 X112.17 E0.033
G1 X122.91 Y111.09 E0.798
G1 Y110.46 E0.033
G1 X111.39 Y121.89 E0.85
G1 X110.76 E0.033
G1 X122.91 Y109.68 E0.902
G1 Y109.05 E0.033
G1 X109.98 Y121.89 E0.955
G1 X109.35 E0.033
G1 X122.91 Y108.24 E1.008
G1 Y107.61 E0.033
G1 X108.57 Y121.89 E1.06
G1 X107.94 E0.033
G1 X122.91 Y106.83 E1.112
G1 Y106.2 E0.033
G1 X107.16 Y121.89 E1.165
G1 X106.53 E0.033
G1 X122.91 Y105.42 E1.217
G1 Y104.79 E0.033
G1 X105.75 Y121.89 E1.269
G1 X105.12 E0.033
G1 X122.79 Y104.13 E1.312
G1 X122.16 E0.033
G1 X105.09 Y121.11 E1.261
G1 Y120.48 E0.033
G1 X121.38 Y104.13 E1.209
G1 X120.75 E0.033
G1 X105.09 Y119.7 E1.157
G1 Y119.07 E0.033
G1 X119.97 Y104.13 E1.105
G1 X119.34 E0.033
G1 X105.09 Y118.29 E1.052
G1 Y117.66 E0.033
G1 X118.56 Y104.13 E1.0
G1 X117.93 E0.033
G1 X105.09 Y116.88 E0.948
G1 Y116.25 E0.033
G1 X117.12 Y104.13 E0.895
G1 X116.49 E0.033
G1 X105.09 Y115.47 E0.842
G1 Y114.84 E0.033
G1 X115.71 Y104.13 E0.79
G1 X115.08 E0.033
G1 X105.09 Y114.06 E0.738
G1 Y113.43 E0.033
G1 X114.3 Y104.13 E0.686
G1 X113.7 Y104.1 E0.031
G1 X105.09 Y112.65 E0.636
G1 Y112.02 E0.033
G1 X112.92 Y104.1 E0.583
G1 X112.29 E0.033
G1 X105.09 Y111.21 E0.53
G1 Y110.58 E0.033
G1 X111.51 Y104.1 E0.478
G1 X110.88 E0.033
G1 X105.09 Y109.8 E0.426
G1 Y109.17 E0.033
G1 X110.1 Y104.1 E0.373
G1 X109.47 E0.033
G1 X105.09 Y108.39 E0.321
G1 Y107.76 E0.033
G1 X108.69 Y104.1 E0.269
G1 X108.06 E0.033
G1 X105.09 Y106.98 E0.217
G1 Y106.35 E0.033
G1 X107.25 Y104.1 E0.163
G1 X106.62 E0.033
G1 X105.09 Y105.57 E0.111
G1 Y104.94 E0.033
G1 X105.84 Y104.1 E0.059
G1 X105.21 E0.033
G1 X105.09 Y104.22 E0.009
G1 F1995.6
G1 E-10.913
G1 F2000.0
;#!LAYER: 4/25
G92 E0
G1 Z0.96 F200.0
G1 X43.8 Y82.8 F15000.0
G1 X52.0 Y87.5
T0
G1 F1995.6
G1 E10.913
G1 F2000.0
G1 F99.8
G1 E0.109
G1 F2000.0
G1 Y112.5 E1.31
G1 X51.5 E0.026
G1 Y87.5 E1.31
G1 X51.0 E0.026
G1 Y112.5 E1.31
G1 F1995.6
G1 E-10.913
G1 F2000.0
G1 X43.8 Y82.8 F15000.0
G1 F1995.6
G1 E10.913
G1 F2000.0
G1 F99.8
G1 E0.109
G1 F2000.0
G1 X56.22 E0.651 F1800.0
G1 Y117.21 E1.803
G1 X43.8 E0.651
G1 Y82.8 E1.803
G1 X43.29 Y82.29 E0.038
G1 X56.73 E0.704
G1 Y117.72 E1.856
G1 X43.29 E0.704
G1 Y82.29 E1.856
G1 F1995.6
G1 E-10.913
G1 F2000.0
G1 X43.8 Y82.8
G1 X45.87 Y84.24 F15000.0
G1 F1995.6
G1 E10.913
G1 F2000.0
G1 F99.8
G1 E0.109
G1 F2000.0
G1 X45.51 Y84.42 E0.021 F1800.0
G1 X45.36 Y84.57 E0.011
G1 X45.24 Y85.08 E0.027
G1 X45.27 Y115.11 E1.573
G1 X45.3 Y115.32 E0.011
G1 X45.6 Y115.68 E0.025
G1 X45.96 Y115.8 E0.02
G1 X54.12 E0.427
G1 X54.48 Y115.62 E0.021
G1 X54.66 Y115.41 E0.014
G1 X54.78 Y115.11 E0.017
G1 X54.72 Y84.75 E1.59
G1 X54.6 Y84.51 E0.014
G1 X54.12 Y84.21 E0.03
G1 X45.87 Y84.24 E0.432
G1 X45.96 Y84.72 E0.026
G1 X45.78 Y84.87 E0.012
G1 X45.81 Y115.17 E1.587
G1 X45.9 Y115.26 E0.007
G1 X54.06 Y115.29 E0.427
G1 X54.24 Y115.11 E0.013
G1 X54.27 Y114.81 E0.016
G1 X54.24 Y84.87 E1.568
G1 X54.12 Y84.75 E0.009
G1 X45.96 Y84.72 E0.427
G1 F1995.6
G1 E-10.913
G1 F2000.0
G1 X45.87 Y84.24
G1 X44.1 Y113.04 F15000.0
G1 F1995.6
G1 E10.913
G1 F2000.0
G1 F99.8
G1 E0.109
G1 F2000.0
G1 X44.94 Y113.88 E0.062
G1 Y112.11 E0.093
G1 X44.1 Y111.18 E0.066
G1 Y109.44 E0.091
G1 X44.94 Y110.19 E0.059
G1 Y108.42 E0.093
G1 X44.1 Y107.52 E0.064
G1 Y105.75 E0.093
G1 X44.94 Y106.5 E0.059
G1 Y104.76 E0.091
G1 X44.1 Y103.83 E0.066
G1 Y102.06 E0.093
G1 X44.94 Y102.84 E0.06
G1 Y101.07 E0.093
G1 X44.1 Y100.17 E0.064
G1 Y98.4 E0.093
G1 X44.94 Y99.15 E0.059
G1 Y97.41 E0.091
G1 X44.1 Y96.48 E0.066
G1 Y94.71 E0.093
G1 X44.94 Y95.49 E0.06
G1 Y93.72 E0.093
G1 X44.1 Y92.79 E0.066
G1 Y91.05 E0.091
G1 X44.94 Y91.8 E0.059
G1 Y90.03 E0.093
G1 X44.1 Y89.13 E0.064
G1 Y87.36 E0.093
G1 X44.94 Y88.14 E0.06
G1 Y86.37 E0.093
G1 X44.1 Y85.44 E0.066
G1 Y83.67 E0.093
G1 X45.06 Y84.54 E0.068
G1 X45.24 Y84.27 E0.017
G1 X45.66 Y83.97 E0.027
G1 X46.17 Y83.91 E0.027
G1 X45.42 Y83.1 E0.058
G1 X47.19 E0.093
G1 X48.06 Y83.91 E0.062
G1 X49.83 E0.093
G1 X49.11 Y83.1 E0.057
G1 X50.88 E0.093
G1 X51.75 Y83.91 E0.062
G1 X53.52 E0.093
G1 X52.77 Y83.1 E0.058
G1 X54.54 E0.093
G1 X55.92 Y84.42 E0.1
G1 Y86.19 E0.093
G1 X55.08 Y85.41 E0.06
G1 Y87.18 E0.093
G1 X55.92 Y88.08 E0.064
G1 Y89.85 E0.093
G1 X55.08 Y89.1 E0.059
G1 Y90.87 E0.093
G1 X55.92 Y91.77 E0.064
G1 Y93.54 E0.093
G1 X55.08 Y92.76 E0.06
G1 Y94.53 E0.093
G1 X55.92 Y95.46 E0.066
G1 Y97.2 E0.091
G1 X55.08 Y96.45 E0.059
G1 Y98.22 E0.093
G1 X55.92 Y99.12 E0.064
G1 Y100.89 E0.093
G1 X55.08 Y100.11 E0.06
G1 Y101.88 E0.093
G1 X55.92 Y102.81 E0.066
G1 Y104.55 E0.091
G1 X55.08 Y103.8 E0.059
G1 Y105.57 E0.093
G1 X55.92 Y106.47 E0.064
G1 Y108.24 E0.093
G1 X55.08 Y107.49 E0.059
G1 Y109.23 E0.091
G1 X55.92 Y110.16 E0.066
G1 Y111.93 E0.093
G1 X55.08 Y111.15 E0.06
G1 Y112.92 E0.093
G1 X55.92 Y113.82 E0.064
G1 Y115.62 E0.094
G1 X55.11 Y114.9 E0.057
G1 X54.96 Y115.5 E0.032
G1 X54.48 Y115.98 E0.036
G1 X55.32 Y116.91 E0.066
G1 X53.55 E0.093
G1 X52.68 Y116.1 E0.062
G1 X50.91 E0.093
G1 X51.63 Y116.91 E0.057
G1 X49.89 E0.091
G1 X48.99 Y116.1 E0.063
G1 X47.22 E0.093
G1 X47.97 Y116.91 E0.058
G1 X46.2 E0.093
G1 X44.1 Y114.87 E0.153
G1 Y116.64 E0.093
G1 X44.28 Y116.91 E0.017
G1 F1995.6
G1 E-10.913
G1 F2000.0
G1 X122.22 Y93.21 F15000.0
G1 F1995.6
G1 E10.913
G1 F2000.0
G1 F99.8
G1 E0.109
G1 F2000.0
G1 X103.8 Y93.15 E0.965 F1800.0
G1 Y74.79 E0.962
G1 X122.22 Y74.85 E0.965
G1 Y93.21 E0.962
G1 X122.7 Y93.72 E0.037
G1 X103.29 Y93.66 E1.017
G1 Y74.28 E1.015
G1 X122.73 Y74.34 E1.018
G1 X122.7 Y93.72 E1.015
G1 F1995.6
G1 E-10.913
G1 F2000.0
G1 X122.22 Y93.21
G1 X104.82 Y92.88 F15000.0
G1 F1995.6
G1 E10.913
G1 F2000.0
G1 F99.8
G1 E0.109
G1 F2000.0
G1 X104.1 Y92.13 E0.054
G1 Y90.36 E0.093
G1 X106.68 Y92.88 E0.189
G1 X108.45 E0.093
G1 X104.1 Y88.47 E0.324
G1 Y86.7 E0.093
G1 X110.37 Y92.88 E0.461
G1 X112.11 E0.091
G1 X104.1 Y84.78 E0.597
G1 Y83.01 E0.093
G1 X114.06 Y92.91 E0.736
G1 X115.83 E0.093
G1 X104.1 Y81.09 E0.872
G1 Y79.35 E0.091
G1 X117.75 Y92.91 E1.008
G1 X119.52 E0.093
G1 X104.1 Y77.43 E1.145
G1 Y75.66 E0.093
G1 X121.41 Y92.91 E1.28
G1 X121.89 E0.025
G1 X121.92 Y91.65 E0.066
G1 X105.45 Y75.09 E1.223
G1 X107.19 E0.091
G1 X121.92 Y89.73 E1.088
G1 Y87.96 E0.093
G1 X109.11 Y75.09 E0.951
G1 X110.88 E0.093
G1 X121.92 Y86.04 E0.815
G1 Y84.3 E0.091
G1 X112.8 Y75.09 E0.679
G1 X114.6 Y75.12 E0.094
G1 X121.92 Y82.38 E0.54
G1 Y80.61 E0.093
G1 X116.49 Y75.12 E0.405
G1 X118.26 E0.093
G1 X121.92 Y78.69 E0.268
G1 Y76.95 E0.091
G1 X120.15 Y75.12 E0.133
G1 F1995.6
G1 E-10.913
G1 F2000.0
G1 X123.21 Y122.22 F15000.0
G1 F1995.6
G1 E10.913
G1 F2000.0
G1 F99.8
G1 E0.109
G1 F2000.0
G1 X104.79 Y122.16 E0.965 F1800.0
G1 Y103.8 E0.962
G1 X123.21 Y103.86 E0.965
G1 Y122.22 E0.962
G1 X123.69 Y122.73 E0.037
G1 X104.28 Y122.67 E1.017
G1 Y103.29 E1.015
G1 X123.72 Y103.35 E1.018
G1 X123.69 Y122.73 E1.015
G1 F1995.6
G1 E-10.913
G1 F2000.0
G1 X123.21 Y122.22
G1 X106.26 Y121.89 F15000.0
G1 F1995.6
G1 E10.913
G1 F2000.0
G1 F99.8
G1 E0.109
G1 F2000.0
G1 X105.09 Y120.69 E0.088
G1 Y118.95 E0.091
G1 X108.12 Y121.89 E0.221
G1 X109.89 E0.093
G1 X105.09 Y117.03 E0.358
G1 Y115.26 E0.093
G1 X111.78 Y121.89 E0.493
G1 X113.55 E0.093
G1 X105.09 Y113.34 E0.63
G1 Y111.57 E0.093
G1 X115.5 Y121.92 E0.769
G1 X117.27 E0.093
G1 X105.09 Y109.68 E0.905
G1 Y107.91 E0.093
G1 X119.19 Y121.92 E1.041
G1 X120.93 E0.091
G1 X105.09 Y105.99 E1.177
G1 Y104.22 E0.093
G1 X122.88 Y121.92 E1.315
G1 X122.91 Y120.21 E0.09
G1 X106.86 Y104.1 E1.191
G1 X108.63 E0.093
G1 X122.91 Y118.29 E1.055
G1 Y116.55 E0.091
G1 X110.55 Y104.1 E0.919
G1 X112.32 E0.093
G1 X122.91 Y114.63 E0.782
G1 Y112.86 E0.093
G1 X114.27 Y104.13 E0.643
G1 X116.01 E0.091
G1 X122.91 Y110.94 E0.508
G1 Y109.17 E0.093
G1 X117.93 Y104.13 E0.371
G1 X119.7 E0.093
G1 X122.91 Y107.28 E0.236
G1 Y105.51 E0.093
G1 X121.59 Y104.13 E0.1
G1 F1995.6
G1 E-10.913
G1 F2000.0
;#!LAYER: 5/25
G92 E0
G1 Z1.2 F200.0
G1 X43.8 Y82.8 F15000.0
G1 X52.0 Y87.5
T0
G1 F1995.6
G1 E10.913
G1 F2000.0
G1 F99.8
G1 E0.109
G1 F2000.0
G1 Y112.5 E1.31
G1 X51.5 E0.026
G1 Y87.5 E1.31
G1 X51.0 E0.026
G1 Y112.5 E1.31
G1 F1995.6
G1 E-10.913
G1 F2000.0
G1 X43.8 Y82.8 F15000.0
G1 F1995.6
G1 E10.913
G1 F2000.0
G1 F99.8
G1 E0.109
G1 F2000.0
G1 X56.22 E0.651 F1800.0
G1 Y117.21 E1.803
G1 X43.8 E0.651
G1 Y82.8 E1.803
G1 X43.29 Y82.29 E0.038
G1 X56.73 E0.704
G1 Y117.72 E1.856
G1 X43.29 E0.704
G1 Y82.29 E1.856
G1 F1995.6
G1 E-10.913
G1 F2000.0
G1 X43.8 Y82.8
G1 X45.87 Y84.24 F15000.0
G1 F1995.6
G1 E10.913
G1 F2000.0
G1 F99.8
G1 E0.109
G1 F2000.0
G1 X45.51 Y84.42 E0.021 F1800.0
G1 X45.36 Y84.57 E0.011
G1 X45.24 Y85.08 E0.027
G1 X45.27 Y115.11 E1.573
G1 X45.3 Y115.32 E0.011
G1 X45.6 Y115.68 E0.025
G1 X45.96 Y115.8 E0.02
G1 X54.12 E0.427
G1 X54.48 Y115.62 E0.021
G1 X54.66 Y115.41 E0.014
G1 X54.78 Y115.11 E0.017
G1 X54.72 Y84.75 E1.59
G1 X54.6 Y84.51 E0.014
G1 X54.12 Y84.21 E0.03
G1 X45.87 Y84.24 E0.432
G1 X45.96 Y84.72 E0.026
G1 X45.78 Y84.87 E0.012
G1 X45.81 Y115.17 E1.587
G1 X45.9 Y115.26 E0.007
G1 X54.06 Y115.29 E0.427
G1 X54.24 Y115.11 E0.013
G1 X54.27 Y114.81 E0.016
G1 X54.24 Y84.87 E1.568
G1 X54.12 Y84.75 E0.009
G1 X45.96 Y84.72 E0.427
G1 F1995.6
G1 E-10.913
G1 F2000.0
G1 X45.87 Y84.24
G1 X44.1 Y83.67 F15000.0
G1 F1995.6
G1 E10.913
G1 F2000.0
G1 F99.8
G1 E0.109
G1 F2000.0
G1 X44.76 Y83.1 E0.046
G1 X46.5 E0.091
G1 X45.45 Y84.09 E0.076
G1 X45.06 Y84.51 E0.03
G1 X44.1 Y85.59 E0.076
G1 Y87.36 E0.093
G1 X44.94 Y86.58 E0.06
G1 Y88.35 E0.093
G1 X44.1 Y89.25 E0.064
G1 Y91.02 E0.093
G1 X44.94 Y90.27 E0.059
G1 Y92.04 E0.093
G1 X44.1 Y92.94 E0.064
G1 Y94.71 E0.093
G1 X44.94 Y93.93 E0.06
G1 Y95.7 E0.093
G1 X44.1 Y96.63 E0.066
G1 Y98.37 E0.091
G1 X44.94 Y97.62 E0.059
G1 Y99.39 E0.093
G1 X44.1 Y100.29 E0.064
G1 Y102.06 E0.093
G1 X44.94 Y101.28 E0.06
G1 Y103.05 E0.093
G1 X44.1 Y103.98 E0.066
G1 Y105.75 E0.093
G1 X44.94 Y104.97 E0.06
G1 Y106.74 E0.093
G1 X44.1 Y107.64 E0.064
G1 Y109.41 E0.093
G1 X44.94 Y108.66 E0.059
G1 Y110.4 E0.091
G1 X44.1 Y111.33 E0.066
G1 Y113.1 E0.093
G1 X44.94 Y112.32 E0.06
G1 Y114.09 E0.093
G1 X44.1 Y114.99 E0.064
G1 Y116.76 E0.093
G1 X45.24 Y115.74 E0.08
G1 X45.6 Y116.01 E0.024
G1 X46.14 Y116.1 E0.029
G1 X46.62 E0.025
G1 X45.87 Y116.91 E0.058
G1 X47.64 E0.093
G1 X48.51 Y116.1 E0.062
G1 X50.28 E0.093
G1 X49.56 Y116.91 E0.057
G1 X51.3 E0.091
G1 X52.2 Y116.1 E0.063
G1 X53.97 E0.093
G1 X53.22 Y116.91 E0.058
G1 X54.99 E0.093
G1 X55.92 Y115.92 E0.071
G1 Y114.15 E0.093
G1 X55.08 Y114.93 E0.06
G1 Y113.16 E0.093
G1 X55.92 Y112.23 E0.066
G1 Y110.49 E0.091
G1 X55.08 Y111.24 E0.059
G1 Y109.47 E0.093
G1 X55.92 Y108.57 E0.064
G1 Y106.8 E0.093
G1 X55.08 Y107.58 E0.06
G1 Y105.81 E0.093
G1 X55.92 Y104.88 E0.066
G1 Y103.11 E0.093
G1 X55.08 Y103.89 E0.06
G1 Y102.12 E0.093
G1 X55.92 Y101.22 E0.064
G1 Y99.45 E0.093
G1 X55.08 Y100.2 E0.059
G1 Y98.46 E0.091
G1 X55.92 Y97.53 E0.066
G1 Y95.76 E0.093
G1 X55.08 Y96.54 E0.06
G1 Y94.77 E0.093
G1 X55.92 Y93.87 E0.064
G1 Y92.1 E0.093
G1 X55.08 Y92.85 E0.059
G1 Y91.08 E0.093
G1 X55.92 Y90.18 E0.064
G1 Y88.41 E0.093
G1 X55.08 Y89.19 E0.06
G1 Y87.42 E0.093
G1 X55.92 Y86.49 E0.066
G1 Y84.75 E0.091
G1 X55.08 Y85.5 E0.059
G1 X55.02 Y84.63 E0.046
G1 X54.72 Y84.21 E0.027
G1 X54.66 Y84.15 E0.004
G1 X55.65 Y83.1 E0.076
G1 X53.88 E0.093
G1 X53.01 Y83.91 E0.062
G1 X51.24 E0.093
G1 X51.96 Y83.1 E0.057
G1 X50.19 E0.093
G1 X49.32 Y83.91 E0.062
G1 X47.55 E0.093
G1 X48.36 Y83.1 E0.06
G1 F1995.6
G1 E-10.913
G1 F2000.0
G1 X122.22 Y93.21 F15000.0
G1 F1995.6
G1 E10.913
G1 F2000.0
G1 F99.8
G1 E0.109
G1 F2000.0
G1 X103.8 Y93.15 E0.965 F1800.0
G1 Y74.79 E0.962
G1 X122.22 Y74.85 E0.965
G1 Y93.21 E0.962
G1 X122.7 Y93.72 E0.037
G1 X103.29 Y93.66 E1.017
G1 Y74.28 E1.015
G1 X122.73 Y74.34 E1.018
G1 X122.7 Y93.72 E1.015
G1 F1995.6
G1 E-10.913
G1 F2000.0
G1 X122.22 Y93.21
G1 X121.92 Y92.25 F15000.0
G1 F1995.6
G1 E10.913
G1 F2000.0
G1 F99.8
G1 E0.109
G1 F2000.0
G1 X121.2 Y92.91 E0.051
G1 X119.46 E0.091
G1 X121.92 Y90.36 E0.186
G1 Y88.59 E0.093
G1 X117.54 Y92.91 E0.322
G1 X115.77 E0.093
G1 X121.92 Y86.7 E0.458
G1 Y84.93 E0.093
G1 X113.85 Y92.91 E0.595
G1 X112.14 Y92.88 E0.09
G1 X121.92 Y83.01 E0.728
G1 Y81.24 E0.093
G1 X110.22 Y92.88 E0.865
G1 X108.45 E0.093
G1 X121.92 Y79.32 E1.001
G1 Y77.58 E0.091
G1 X106.53 Y92.88 E1.137
G1 X104.76 E0.093
G1 X121.92 Y75.66 E1.273
G1 X121.89 Y75.12 E0.028
G1 X120.69 E0.063
G1 X104.1 Y91.65 E1.227
G1 Y89.88 E0.093
G1 X118.77 Y75.12 E1.09
G1 X117.03 E0.091
G1 X104.1 Y87.96 E0.955
G1 Y86.19 E0.093
G1 X115.11 Y75.12 E0.818
G1 X113.34 E0.093
G1 X104.1 Y84.27 E0.681
G1 Y82.53 E0.091
G1 X111.45 Y75.09 E0.548
G1 X109.68 E0.093
G1 X104.1 Y80.61 E0.411
G1 Y78.84 E0.093
G1 X107.79 Y75.09 E0.276
G1 X106.02 E0.093
G1 X104.1 Y76.92 E0.139
G1 Y75.18 E0.091
G1 X104.16 Y75.09 E0.006
G1 F1995.6
G1 E-10.913
G1 F2000.0
G1 X123.21 Y122.22 F15000.0
G1 F1995.6
G1 E10.913
G1 F2000.0
G1 F99.8
G1 E0.109
G1 F2000.0
G1 X104.79 Y122.16 E0.965 F1800.0
G1 Y103.8 E0.962
G1 X123.21 Y103.86 E0.965
G1 Y122.22 E0.962
G1 X123.69 Y122.73 E0.037
G1 X104.28 Y122.67 E1.017
G1 Y103.29 E1.015
G1 X123.72 Y103.35 E1.018
G1 X123.69 Y122.73 E1.015
G1 F1995.6
G1 E-10.913
G1 F2000.0
G1 X123.21 Y122.22
G1 X122.91 Y120.69 F15000.0
G1 F1995.6
G1 E10.913
G1 F2000.0
G1 F99.8
G1 E0.109
G1 F2000.0
G1 X121.62 Y121.92 E0.093
G1 X119.85 E0.093
G1 X122.91 Y118.8 E0.229
G1 Y117.03 E0.093
G1 X117.93 Y121.92 E0.366
G1 X116.19 E0.091
G1 X122.91 Y115.11 E0.501
G1 Y113.34 E0.093
G1 X114.27 Y121.92 E0.638
G1 X112.53 Y121.89 E0.091
G1 X122.91 Y111.45 E0.771
G1 Y109.68 E0.093
G1 X110.61 Y121.89 E0.908
G1 X108.84 E0.093
G1 X122.91 Y107.76 E1.045
G1 Y105.99 E0.093
G1 X106.95 Y121.89 E1.18
G1 X105.18 E0.093
G1 X122.85 Y104.13 E1.312
G1 X121.11 E0.091
G1 X105.09 Y120.06 E1.183
G1 Y118.29 E0.093
G1 X119.19 Y104.13 E1.047
G1 X117.42 E0.093
G1 X105.09 Y116.4 E0.911
G1 Y114.63 E0.093
G1 X115.5 Y104.13 E0.775
G1 X113.76 Y104.1 E0.091
G1 X105.09 Y112.71 E0.64
G1 Y110.94 E0.093
G1 X111.87 Y104.1 E0.505
G1 X110.1 E0.093
G1 X105.09 Y109.02 E0.368
G1 Y107.28 E0.091
G1 X108.18 Y104.1 E0.232
G1 X106.41 E0.093
G1 X105.09 Y105.42 E0.098
G1 F1995.6
G1 E-10.913
G1 F2000.0
;#!LAYER: 6/25
G92 E0
G1 Z1.44 F200.0
G1 X43.8 Y82.8 F15000.0
G1 X52.0 Y87.5
T0
G1 F1995.6
G1 E10.913
G1 F2000.0
G1 F99.8
G1 E0.109
G1 F2000.0
G1 Y112.5 E1.31
G1 X51.5 E0.026
G1 Y87.5 E1.31
G1 X51.0 E0.026
G1 Y112.5 E1.31
G1 F1995.6
G1 E-10.913
G1 F2000.0
G1 X43.8 Y82.8 F15000.0
G1 F1995.6
G1 E10.913
G1 F2000.0
G1 F99.8
G1 E0.109
G1 F2000.0
G1 X56.22 E0.651 F1800.0
G1 Y117.21 E1.803
G1 X43.8 E0.651
G1 Y82.8 E1.803
G1 X43.29 Y82.29 E0.038
G1 X56.73 E0.704
G1 Y117.72 E1.856
G1 X43.29 E0.704
G1 Y82.29 E1.856
G1 F1995.6
G1 E-10.913
G1 F2000.0
G1 X43.8 Y82.8
G1 X45.87 Y84.24 F15000.0
G1 F1995.6
G1 E10.913
G1 F2000.0
G1 F99.8
G1 E0.109
G1 F2000.0
G1 X45.51 Y84.42 E0.021 F1800.0
G1 X45.36 Y84.57 E0.011
G1 X45.24 Y85.08 E0.027
G1 X45.27 Y115.11 E1.573
G1 X45.3 Y115.32 E0.011
G1 X45.6 Y115.68 E0.025
G1 X45.96 Y115.8 E0.02
G1 X54.12 E0.427
G1 X54.48 Y115.62 E0.021
G1 X54.66 Y115.41 E0.014
G1 X54.78 Y115.11 E0.017
G1 X54.72 Y84.75 E1.59
G1 X54.6 Y84.51 E0.014
G1 X54.12 Y84.21 E0.03
G1 X45.87 Y84.24 E0.432
G1 X45.96 Y84.72 E0.026
G1 X45.78 Y84.87 E0.012
G1 X45.81 Y115.17 E1.587
G1 X45.9 Y115.26 E0.007
G1 X54.06 Y115.29 E0.427
G1 X54.24 Y115.11 E0.013
G1 X54.27 Y114.81 E0.016
G1 X54.24 Y84.87 E1.568
G1 X54.12 Y84.75 E0.009
G1 X45.96 Y84.72 E0.427
G1 F1995.6
G1 E-10.913
G1 F2000.0
G1 X45.87 Y84.24
G1 X45.45 Y84.09 F15000.0
G1 F1995.6
G1 E10.913
G1 F2000.0
G1 F99.8
G1 E0.109
G1 F2000.0
G1 X44.52 Y83.1 E0.071
G1 X46.26 E0.091
G1 X47.16 Y83.91 E0.063
G1 X48.93 E0.093
G1 X48.18 Y83.1 E0.058
G1 X49.95 E0.093
G1 X50.82 Y83.91 E0.062
G1 X52.59 E0.093
G1 X51.87 Y83.1 E0.057
G1 X53.61 E0.091
G1 X55.92 Y85.32 E0.168
G1 Y83.55 E0.093
G1 X55.53 Y83.1 E0.031
G1 F1995.6
G1 E-10.913
G1 F2000.0
G1 X55.08 Y86.34 F15000.0
G1 F1995.6
G1 E10.913
G1 F2000.0
G1 F99.8
G1 E0.109
G1 F2000.0
G1 X55.92 Y87.24 E0.064
G1 Y89.01 E0.093
G1 X55.08 Y88.23 E0.06
G1 Y90.0 E0.093
G1 X55.92 Y90.9 E0.064
G1 Y92.67 E0.093
G1 X55.08 Y91.92 E0.059
G1 Y93.66 E0.091
G1 X55.92 Y94.59 E0.066
G1 Y96.36 E0.093
G1 X55.08 Y95.58 E0.06
G1 Y97.35 E0.093
G1 X55.92 Y98.25 E0.064
G1 Y100.02 E0.093
G1 X55.08 Y99.27 E0.059
G1 Y101.04 E0.093
G1 X55.92 Y101.94 E0.064
G1 Y103.71 E0.093
G1 X55.08 Y102.93 E0.06
G1 Y104.7 E0.093
G1 X55.92 Y105.63 E0.066
G1 Y107.37 E0.091
G1 X55.08 Y106.62 E0.059
G1 Y108.39 E0.093
G1 X55.92 Y109.29 E0.064
G1 Y111.06 E0.093
G1 X55.08 Y110.28 E0.06
G1 Y112.05 E0.093
G1 X55.92 Y112.98 E0.066
G1 Y114.75 E0.093
G1 X55.08 Y113.97 E0.06
G1 Y115.14 E0.061
G1 X54.93 Y115.56 E0.023
G1 X55.92 Y116.64 E0.077
G1 X55.89 Y116.91 E0.014
G1 X54.42 E0.077
G1 X53.52 Y116.1 E0.063
G1 X51.78 E0.091
G1 X52.5 Y116.91 E0.057
G1 X50.73 E0.093
G1 X49.86 Y116.1 E0.062
G1 X48.09 E0.093
G1 X48.84 Y116.91 E0.058
G1 X47.07 E0.093
G1 X46.17 Y116.1 E0.063
G1 X45.66 Y116.04 E0.027
G1 X45.24 Y115.74 E0.027
G1 X45.0 Y115.32 E0.025
G1 X44.94 Y114.81 E0.027
G1 X44.1 Y114.03 E0.06
G1 Y115.8 E0.093
G1 X45.21 Y116.91 E0.082
G1 F1995.6
G1 E-10.913
G1 F2000.0
G1 X44.1 Y112.11 F15000.0
G1 F1995.6
G1 E10.913
G1 F2000.0
G1 F99.8
G1 E0.109
G1 F2000.0
G1 X44.94 Y112.95 E0.062
G1 Y111.18 E0.093
G1 X44.1 Y110.28 E0.064
G1 Y108.51 E0.093
G1 X44.94 Y109.26 E0.059
G1 Y107.52 E0.091
G1 X44.1 Y106.59 E0.066
G1 Y104.82 E0.093
G1 X44.94 Y105.6 E0.06
G1 Y103.83 E0.093
G1 X44.1 Y102.93 E0.064
G1 Y101.16 E0.093
G1 X44.94 Y101.91 E0.059
G1 Y100.14 E0.093
G1 X44.1 Y99.24 E0.064
G1 Y97.47 E0.093
G1 X44.94 Y98.25 E0.06
G1 Y96.48 E0.093
G1 X44.1 Y95.55 E0.066
G1 Y93.81 E0.091
G1 X44.94 Y94.56 E0.059
G1 Y92.79 E0.093
G1 X44.1 Y91.89 E0.064
G1 Y90.12 E0.093
G1 X44.94 Y90.9 E0.06
G1 Y89.13 E0.093
G1 X44.1 Y88.2 E0.066
G1 Y86.43 E0.093
G1 X44.94 Y87.21 E0.06
G1 Y85.44 E0.093
G1 X44.1 Y84.54 E0.064
G1 F1995.6
G1 E-10.913
G1 F2000.0
G1 X122.22 Y93.21 F15000.0
G1 F1995.6
G1 E10.913
G1 F2000.0
G1 F99.8
G1 E0.109
G1 F2000.0
G1 X103.8 Y93.15 E0.965 F1800.0
G1 Y74.79 E0.962
G1 X122.22 Y74.85 E0.965
G1 Y93.21 E0.962
G1 X122.7 Y93.72 E0.037
G1 X103.29 Y93.66 E1.017
G1 Y74.28 E1.015
G1 X122.73 Y74.34 E1.018
G1 X122.7 Y93.72 E1.015
G1 F1995.6
G1 E-10.913
G1 F2000.0
G1 X122.22 Y93.21
G1 X105.75 Y92.88 F15000.0
G1 F1995.6
G1 E10.913
G1 F2000.0
G1 F99.8
G1 E0.109
G1 F2000.0
G1 X104.1 Y91.23 E0.122
G1 Y89.46 E0.093
G1 X107.61 Y92.88 E0.257
G1 X109.38 E0.093
G1 X104.1 Y87.54 E0.393
G1 Y85.77 E0.093
G1 X111.27 Y92.88 E0.529
G1 X113.07 Y92.91 E0.094
G1 X104.1 Y83.85 E0.668
G1 Y82.11 E0.091
G1 X114.99 Y92.91 E0.803
G1 X116.76 E0.093
G1 X104.1 Y80.19 E0.94
G1 Y78.42 E0.093
G1 X118.65 Y92.91 E1.076
G1 X120.42 E0.093
G1 X104.1 Y76.5 E1.212
G1 Y75.12 E0.072
G1 X104.46 Y75.09 E0.019
G1 X121.92 Y92.49 E1.291
G1 Y90.72 E0.093
G1 X106.35 Y75.09 E1.156
G1 X108.12 E0.093
G1 X121.92 Y88.8 E1.019
G1 Y87.06 E0.091
G1 X110.04 Y75.09 E0.883
G1 X111.81 E0.093
G1 X121.92 Y85.14 E0.747
G1 Y83.37 E0.093
G1 X113.73 Y75.12 E0.609
G1 X115.5 E0.093
G1 X121.92 Y81.45 E0.472
G1 Y79.71 E0.091
G1 X117.42 Y75.12 E0.337
G1 X119.19 E0.093
G1 X121.92 Y77.79 E0.2
G1 Y76.02 E0.093
G1 X121.08 Y75.12 E0.064
G1 F1995.6
G1 E-10.913
G1 F2000.0
G1 X123.21 Y122.22 F15000.0
G1 F1995.6
G1 E10.913
G1 F2000.0
G1 F99.8
G1 E0.109
G1 F2000.0
G1 X104.79 Y122.16 E0.965 F1800.0
G1 Y103.8 E0.962
G1 X123.21 Y103.86 E0.965
G1 Y122.22 E0.962
G1 X123.69 Y122.73 E0.037
G1 X104.28 Y122.67 E1.017
G1 Y103.29 E1.015
G1 X123.72 Y103.35 E1.018
G1 X123.69 Y122.73 E1.015
G1 F1995.6
G1 E-10.913
G1 F2000.0
G1 X123.21 Y122.22
G1 X105.09 Y121.65 F15000.0
G1 F1995.6
G1 E10.913
G1 F2000.0
G1 F99.8
G1 E0.109
G1 F2000.0
G1 X105.36 Y121.89 E0.019
G1 X107.13 E0.093
G1 X105.09 Y119.79 E0.153
G1 Y118.02 E0.093
G1 X109.05 Y121.89 E0.29
G1 X110.79 E0.091
G1 X105.09 Y116.1 E0.426
G1 Y114.33 E0.093
G1 X112.71 Y121.89 E0.562
G1 X114.51 Y121.92 E0.094
G1 X105.09 Y112.44 E0.7
G1 Y110.67 E0.093
G1 X116.43 Y121.92 E0.837
G1 X118.17 E0.091
G1 X105.09 Y108.75 E0.972
G1 Y106.98 E0.093
G1 X120.09 Y121.92 E1.109
G1 X121.86 E0.093
G1 X105.09 Y105.09 E1.245
G1 Y104.13 E0.05
G1 X105.87 Y104.1 E0.041
G1 X122.91 Y121.05 E1.259
G1 Y119.28 E0.093
G1 X107.79 Y104.1 E1.122
G1 X109.56 E0.093
G1 X122.91 Y117.39 E0.987
G1 Y115.62 E0.093
G1 X111.48 Y104.1 E0.85
G1 X113.22 E0.091
G1 X122.91 Y113.7 E0.715
G1 Y111.93 E0.093
G1 X115.17 Y104.13 E0.576
G1 X116.94 E0.093
G1 X122.91 Y110.04 E0.44
G1 Y108.27 E0.093
G1 X118.86 Y104.13 E0.303
G1 X120.63 E0.093
G1 X122.91 Y106.35 E0.167
G1 Y104.58 E0.093
G1 X122.52 Y104.13 E0.031
G1 F1995.6
G1 E-10.913
G1 F2000.0
;#!LAYER: 7/25
G92 E0
G1 Z1.68 F200.0
G1 X43.8 Y82.8 F15000.0
G1 X52.0 Y87.5
T0
G1 F1995.6
G1 E10.913
G1 F2000.0
G1 F99.8
G1 E0.109
G1 F2000.0
G1 Y112.5 E1.31
G1 X51.5 E0.026
G1 Y87.5 E1.31
G1 X51.0 E0.026
G1 Y112.5 E1.31
G1 F1995.6
G1 E-10.913
G1 F2000.0
G1 X43.8 Y82.8 F15000.0
G1 F1995.6
G1 E10.913
G1 F2000.0
G1 F99.8
G1 E0.109
G1 F2000.0
G1 X56.22 E0.651 F1800.0
G1 Y117.21 E1.803
G1 X43.8 E0.651
G1 Y82.8 E1.803
G1 X43.29 Y82.29 E0.038
G1 X56.73 E0.704
G1 Y117.72 E1.856
G1 X43.29 E0.704
G1 Y82.29 E1.856
G1 F1995.6
G1 E-10.913
G1 F2000.0
G1 X43.8 Y82.8
G1 X45.87 Y84.24 F15000.0
G1 F1995.6
G1 E10.913
G1 F2000.0
G1 F99.8
G1 E0.109
G1 F2000.0
G1 X45.51 Y84.42 E0.021 F1800.0
G1 X45.36 Y84.57 E0.011
G1 X45.24 Y85.08 E0.027
G1 X45.27 Y115.11 E1.573
G1 X45.3 Y115.32 E0.011
G1 X45.6 Y115.68 E0.025
G1 X45.96 Y115.8 E0.02
G1 X54.12 E0.427
G1 X54.48 Y115.62 E0.021
G1 X54.66 Y115.41 E0.014
G1 X54.78 Y115.11 E0.017
G1 X54.72 Y84.75 E1.59
G1 X54.6 Y84.51 E0.014
G1 X54.12 Y84.21 E0.03
G1 X45.87 Y84.24 E0.432
G1 X45.96 Y84.72 E0.026
G1 X45.78 Y84.87 E0.012
G1 X45.81 Y115.17 E1.587
G1 X45.9 Y115.26 E0.007
G1 X54.06 Y115.29 E0.427
G1 X54.24 Y115.11 E0.013
G1 X54.27 Y114.81 E0.016
G1 X54.24 Y84.87 E1.568
G1 X54.12 Y84.75 E0.009
G1 X45.96 Y84.72 E0.427
G1 F1995.6
G1 E-10.913
G1 F2000.0
G1 X45.87 Y84.24
G1 X55.92 Y113.22 F15000.0
G1 F1995.6
G1 E10.913
G1 F2000.0
G1 F99.8
G1 E0.109
G1 F2000.0
G1 X55.08 Y114.06 E0.062
G1 Y112.29 E0.093
G1 X55.92 Y111.39 E0.064
G1 Y109.62 E0.093
G1 X55.08 Y110.37 E0.059
G1 Y108.63 E0.091
G1 X55.92 Y107.7 E0.066
G1 Y105.93 E0.093
G1 X55.08 Y106.71 E0.06
G1 Y104.94 E0.093
G1 X55.92 Y104.04 E0.064
G1 Y102.27 E0.093
G1 X55.08 Y103.02 E0.059
G1 Y101.28 E0.091
G1 X55.92 Y100.35 E0.066
G1 Y98.58 E0.093
G1 X55.08 Y99.36 E0.06
G1 Y97.59 E0.093
G1 X55.92 Y96.66 E0.066
G1 Y94.92 E0.091
G1 X55.08 Y95.67 E0.059
G1 Y93.9 E0.093
G1 X55.92 Y93.0 E0.064
G1 Y91.23 E0.093
G1 X55.08 Y92.01 E0.06
G1 Y90.24 E0.093
G1 X55.92 Y89.31 E0.066
G1 Y87.57 E0.091
G1 X55.08 Y88.32 E0.059
G1 Y86.55 E0.093
G1 X55.92 Y85.65 E0.064
G1 Y83.88 E0.093
G1 X55.02 Y84.69 E0.063
G1 X54.96 Y84.51 E0.01
G1 X54.54 Y84.06 E0.032
G1 X54.06 Y83.91 E0.026
G1 X54.78 Y83.1 E0.057
G1 X53.01 E0.093
G1 X52.14 Y83.91 E0.062
G1 X50.37 E0.093
G1 X51.12 Y83.1 E0.058
G1 X49.35 E0.093
G1 X48.45 Y83.91 E0.063
G1 X46.71 E0.091
G1 X47.43 Y83.1 E0.057
G1 X45.66 E0.093
G1 X44.1 Y84.6 E0.113
G1 Y86.37 E0.093
G1 X44.94 Y85.62 E0.059
G1 Y87.36 E0.091
G1 X44.1 Y88.29 E0.066
G1 Y90.06 E0.093
G1 X44.94 Y89.28 E0.06
G1 Y91.05 E0.093
G1 X44.1 Y91.95 E0.064
G1 Y93.72 E0.093
G1 X44.94 Y92.97 E0.059
G1 Y94.71 E0.091
G1 X44.1 Y95.64 E0.066
G1 Y97.41 E0.093
G1 X44.94 Y96.63 E0.06
G1 Y98.4 E0.093
G1 X44.1 Y99.33 E0.066
G1 Y101.07 E0.091
G1 X44.94 Y100.32 E0.059
G1 Y102.09 E0.093
G1 X44.1 Y102.99 E0.064
G1 Y104.76 E0.093
G1 X44.94 Y103.98 E0.06
G1 Y105.75 E0.093
G1 X44.1 Y106.68 E0.066
G1 Y108.42 E0.091
G1 X44.94 Y107.67 E0.059
G1 Y109.44 E0.093
G1 X44.1 Y110.34 E0.064
G1 Y112.11 E0.093
G1 X44.94 Y111.36 E0.059
G1 Y113.1 E0.091
G1 X44.1 Y114.03 E0.066
G1 Y115.8 E0.093
G1 X44.94 Y115.02 E0.06
G1 X45.03 Y115.44 E0.023
G1 X45.3 Y115.8 E0.024
G1 X45.69 Y116.04 E0.024
G1 X44.88 Y116.91 E0.062
G1 X46.65 E0.093
G1 X47.55 Y116.1 E0.063
G1 X49.29 E0.091
G1 X48.57 Y116.91 E0.057
G1 X50.34 E0.093
G1 X51.21 Y116.1 E0.062
G1 X52.98 E0.093
G1 X52.23 Y116.91 E0.058
G1 X54.0 E0.093
G1 X55.92 Y115.08 E0.139
G1 Y116.91 E0.096
G1 F1995.6
G1 E-10.913
G1 F2000.0
G1 X122.22 Y93.21 F15000.0
G1 F1995.6
G1 E10.913
G1 F2000.0
G1 F99.8
G1 E0.109
G1 F2000.0
G1 X103.8 Y93.15 E0.965 F1800.0
G1 Y74.79 E0.962
G1 X122.22 Y74.85 E0.965
G1 Y93.21 E0.962
G1 X122.7 Y93.72 E0.037
G1 X103.29 Y93.66 E1.017
G1 Y74.28 E1.015
G1 X122.73 Y74.34 E1.018
G1 X122.7 Y93.72 E1.015
G1 F1995.6
G1 E-10.913
G1 F2000.0
G1 X122.22 Y93.21
G1 X121.92 Y91.35 F15000.0
G1 F1995.6
G1 E10.913
G1 F2000.0
G1 F99.8
G1 E0.109
G1 F2000.0
G1 X120.3 Y92.91 E0.118
G1 X118.53 E0.093
G1 X121.92 Y89.43 E0.254
G1 Y87.69 E0.091
G1 X116.61 Y92.91 E0.39
G1 X114.84 E0.093
G1 X121.92 Y85.77 E0.527
G1 Y84.0 E0.093
G1 X113.04 Y92.91 E0.659
G1 F1995.6
G1 E-10.913
G1 F2000.0
G1 X121.92 Y82.14 F15000.0
G1 F1995.6
G1 E10.913
G1 F2000.0
G1 F99.8
G1 E0.109
G1 F2000.0
G1 X111.12 Y92.88 E0.798
G1 X109.38 E0.091
G1 X121.92 Y80.25 E0.932
G1 Y78.48 E0.093
G1 X107.46 Y92.88 E1.069
G1 X105.69 E0.093
G1 X121.92 Y76.59 E1.205
G1 X121.89 Y75.12 E0.077
G1 X121.62 E0.014
G1 X104.1 Y92.55 E1.295
G1 Y90.78 E0.093
G1 X119.7 Y75.12 E1.158
G1 X117.93 E0.093
G1 X104.1 Y88.89 E1.022
G1 Y87.12 E0.093
G1 X116.01 Y75.12 E0.886
G1 X114.27 E0.091
G1 X104.1 Y85.2 E0.75
G1 Y83.43 E0.093
G1 X112.38 Y75.09 E0.616
G1 X110.61 E0.093
G1 X104.1 Y81.54 E0.48
G1 Y79.77 E0.093
G1 X108.69 Y75.09 E0.343
G1 X106.92 E0.093
G1 X104.1 Y77.85 E0.207
G1 Y76.08 E0.093
G1 X105.09 Y75.09 E0.073
G1 F1995.6
G1 E-10.913
G1 F2000.0
G1 X123.21 Y122.22 F15000.0
G1 F1995.6
G1 E10.913
G1 F2000.0
G1 F99.8
G1 E0.109
G1 F2000.0
G1 X104.79 Y122.16 E0.965 F1800.0
G1 Y103.8 E0.962
G1 X123.21 Y103.86 E0.965
G1 Y122.22 E0.962
G1 X123.69 Y122.73 E0.037
G1 X104.28 Y122.67 E1.017
G1 Y103.29 E1.015
G1 X123.72 Y103.35 E1.018
G1 X123.69 Y122.73 E1.015
G1 F1995.6
G1 E-10.913
G1 F2000.0
G1 X123.21 Y122.22
G1 X122.91 Y121.62 F15000.0
G1 F1995.6
G1 E10.913
G1 F2000.0
G1 F99.8
G1 E0.109
G1 F2000.0
G1 X122.55 Y121.92 E0.025
G1 X120.78 E0.093
G1 X122.91 Y119.7 E0.161
G1 Y117.96 E0.091
G1 X118.86 Y121.92 E0.297
G1 X117.09 E0.093
G1 X122.91 Y116.04 E0.433
G1 Y114.27 E0.093
G1 X115.17 Y121.92 E0.57
G1 X113.46 Y121.89 E0.09
G1 X122.91 Y112.35 E0.703
G1 Y110.58 E0.093
G1 X111.54 Y121.89 E0.84
G1 X109.77 E0.093
G1 X122.91 Y108.69 E0.976
G1 Y106.92 E0.093
G1 X107.85 Y121.89 E1.112
G1 X106.11 E0.091
G1 X122.91 Y105.0 E1.248
G1 X122.88 Y104.13 E0.046
G1 X122.01 E0.046
G1 X105.09 Y120.99 E1.251
G1 Y119.22 E0.093
G1 X120.09 Y104.13 E1.115
G1 X118.35 E0.091
G1 X105.09 Y117.3 E0.979
G1 Y115.53 E0.093
G1 X116.43 Y104.13 E0.842
G1 X114.66 E0.093
G1 X105.09 Y113.64 E0.707
G1 Y111.87 E0.093
G1 X112.77 Y104.1 E0.572
G1 X111.03 E0.091
G1 X105.09 Y109.95 E0.437
G1 Y108.18 E0.093
G1 X109.11 Y104.1 E0.3
G1 X107.34 E0.093
G1 X105.09 Y106.26 E0.163
G1 Y104.52 E0.091
G1 X105.48 Y104.1 E0.03
G1 F1995.6
G1 E-10.913
G1 F2000.0
;#!LAYER: 8/25
G92 E0
G1 Z1.92 F200.0
G1 X43.8 Y82.8 F15000.0
G1 X52.0 Y87.5
T0
G1 F1995.6
G1 E10.913
G1 F2000.0
G1 F99.8
G1 E0.109
G1 F2000.0
G1 Y112.5 E1.31
G1 X51.5 E0.026
G1 Y87.5 E1.31
G1 X51.0 E0.026
G1 Y112.5 E1.31
G1 F1995.6
G1 E-10.913
G1 F2000.0
G1 X43.8 Y82.8 F15000.0
G1 F1995.6
G1 E10.913
G1 F2000.0
G1 F99.8
G1 E0.109
G1 F2000.0
G1 X56.22 E0.651 F1800.0
G1 Y117.21 E1.803
G1 X43.8 E0.651
G1 Y82.8 E1.803
G1 X43.29 Y82.29 E0.038
G1 X56.73 E0.704
G1 Y117.72 E1.856
G1 X43.29 E0.704
G1 Y82.29 E1.856
G1 F1995.6
G1 E-10.913
G1 F2000.0
G1 X43.8 Y82.8
G1 X45.87 Y84.24 F15000.0
G1 F1995.6
G1 E10.913
G1 F2000.0
G1 F99.8
G1 E0.109
G1 F2000.0
G1 X45.51 Y84.42 E0.021 F1800.0
G1 X45.36 Y84.57 E0.011
G1 X45.24 Y85.08 E0.027
G1 X45.27 Y115.11 E1.573
G1 X45.3 Y115.32 E0.011
G1 X45.6 Y115.68 E0.025
G1 X45.96 Y115.8 E0.02
G1 X54.12 E0.427
G1 X54.48 Y115.62 E0.021
G1 X54.66 Y115.41 E0.014
G1 X54.78 Y115.11 E0.017
G1 X54.72 Y84.75 E1.59
G1 X54.6 Y84.51 E0.014
G1 X54.12 Y84.21 E0.03
G1 X45.87 Y84.24 E0.432
G1 X45.96 Y84.72 E0.026
G1 X45.78 Y84.87 E0.012
G1 X45.81 Y115.17 E1.587
G1 X45.9 Y115.26 E0.007
G1 X54.06 Y115.29 E0.427
G1 X54.24 Y115.11 E0.013
G1 X54.27 Y114.81 E0.016
G1 X54.24 Y84.87 E1.568
G1 X54.12 Y84.75 E0.009
G1 X45.96 Y84.72 E0.427
G1 F1995.6
G1 E-10.913
G1 F2000.0
G1 X45.87 Y84.24
G1 X44.1 Y113.04 F15000.0
G1 F1995.6
G1 E10.913
G1 F2000.0
G1 F99.8
G1 E0.109
G1 F2000.0
G1 X44.94 Y113.88 E0.062
G1 Y112.11 E0.093
G1 X44.1 Y111.18 E0.066
G1 Y109.44 E0.091
G1 X44.94 Y110.19 E0.059
G1 Y108.42 E0.093
G1 X44.1 Y107.52 E0.064
G1 Y105.75 E0.093
G1 X44.94 Y106.5 E0.059
G1 Y104.76 E0.091
G1 X44.1 Y103.83 E0.066
G1 Y102.06 E0.093
G1 X44.94 Y102.84 E0.06
G1 Y101.07 E0.093
G1 X44.1 Y100.17 E0.064
G1 Y98.4 E0.093
G1 X44.94 Y99.15 E0.059
G1 Y97.41 E0.091
G1 X44.1 Y96.48 E0.066
G1 Y94.71 E0.093
G1 X44.94 Y95.49 E0.06
G1 Y93.72 E0.093
G1 X44.1 Y92.79 E0.066
G1 Y91.05 E0.091
G1 X44.94 Y91.8 E0.059
G1 Y90.03 E0.093
G1 X44.1 Y89.13 E0.064
G1 Y87.36 E0.093
G1 X44.94 Y88.14 E0.06
G1 Y86.37 E0.093
G1 X44.1 Y85.44 E0.066
G1 Y83.67 E0.093
G1 X45.06 Y84.54 E0.068
G1 X45.24 Y84.27 E0.017
G1 X45.66 Y83.97 E0.027
G1 X46.17 Y83.91 E0.027
G1 X45.42 Y83.1 E0.058
G1 X47.19 E0.093
G1 X48.06 Y83.91 E0.062
G1 X49.83 E0.093
G1 X49.11 Y83.1 E0.057
G1 X50.88 E0.093
G1 X51.75 Y83.91 E0.062
G1 X53.52 E0.093
G1 X52.77 Y83.1 E0.058
G1 X54.54 E0.093
G1 X55.92 Y84.42 E0.1
G1 Y86.19 E0.093
G1 X55.08 Y85.41 E0.06
G1 Y87.18 E0.093
G1 X55.92 Y88.08 E0.064
G1 Y89.85 E0.093
G1 X55.08 Y89.1 E0.059
G1 Y90.87 E0.093
G1 X55.92 Y91.77 E0.064
G1 Y93.54 E0.093
G1 X55.08 Y92.76 E0.06
G1 Y94.53 E0.093
G1 X55.92 Y95.46 E0.066
G1 Y97.2 E0.091
G1 X55.08 Y96.45 E0.059
G1 Y98.22 E0.093
G1 X55.92 Y99.12 E0.064
G1 Y100.89 E0.093
G1 X55.08 Y100.11 E0.06
G1 Y101.88 E0.093
G1 X55.92 Y102.81 E0.066
G1 Y104.55 E0.091
G1 X55.08 Y103.8 E0.059
G1 Y105.57 E0.093
G1 X55.92 Y106.47 E0.064
G1 Y108.24 E0.093
G1 X55.08 Y107.49 E0.059
G1 Y109.23 E0.091
G1 X55.92 Y110.16 E0.066
G1 Y111.93 E0.093
G1 X55.08 Y111.15 E0.06
G1 Y112.92 E0.093
G1 X55.92 Y113.82 E0.064
G1 Y115.62 E0.094
G1 X55.11 Y114.9 E0.057
G1 X54.96 Y115.5 E0.032
G1 X54.48 Y115.98 E0.036
G1 X55.32 Y116.91 E0.066
G1 X53.55 E0.093
G1 X52.68 Y116.1 E0.062
G1 X50.91 E0.093
G1 X51.63 Y116.91 E0.057
G1 X49.89 E0.091
G1 X48.99 Y116.1 E0.063
G1 X47.22 E0.093
G1 X47.97 Y116.91 E0.058
G1 X46.2 E0.093
G1 X44.1 Y114.87 E0.153
G1 Y116.64 E0.093
G1 X44.28 Y116.91 E0.017
G1 F1995.6
G1 E-10.913
G1 F2000.0
G1 X122.22 Y93.21 F15000.0
G1 F1995.6
G1 E10.913
G1 F2000.0
G1 F99.8
G1 E0.109
G1 F2000.0
G1 X103.8 Y93.15 E0.965 F1800.0
G1 Y74.79 E0.962
G1 X122.22 Y74.85 E0.965
G1 Y93.21 E0.962
G1 X122.7 Y93.72 E0.037
G1 X103.29 Y93.66 E1.017
G1 Y74.28 E1.015
G1 X122.73 Y74.34 E1.018
G1 X122.7 Y93.72 E1.015
G1 F1995.6
G1 E-10.913
G1 F2000.0
G1 X122.22 Y93.21
G1 X104.82 Y92.88 F15000.0
G1 F1995.6
G1 E10.913
G1 F2000.0
G1 F99.8
G1 E0.109
G1 F2000.0
G1 X104.1 Y92.13 E0.054
G1 Y90.36 E0.093
G1 X106.68 Y92.88 E0.189
G1 X108.45 E0.093
G1 X104.1 Y88.47 E0.324
G1 Y86.7 E0.093
G1 X110.37 Y92.88 E0.461
G1 X112.11 E0.091
G1 X104.1 Y84.78 E0.597
G1 Y83.01 E0.093
G1 X114.06 Y92.91 E0.736
G1 X115.83 E0.093
G1 X104.1 Y81.09 E0.872
G1 Y79.35 E0.091
G1 X117.75 Y92.91 E1.008
G1 X119.52 E0.093
G1 X104.1 Y77.43 E1.145
G1 Y75.66 E0.093
G1 X121.41 Y92.91 E1.28
G1 X121.89 E0.025
G1 X121.92 Y91.65 E0.066
G1 X105.45 Y75.09 E1.223
G1 X107.19 E0.091
G1 X121.92 Y89.73 E1.088
G1 Y87.96 E0.093
G1 X109.11 Y75.09 E0.951
G1 X110.88 E0.093
G1 X121.92 Y86.04 E0.815
G1 Y84.3 E0.091
G1 X112.8 Y75.09 E0.679
G1 X114.6 Y75.12 E0.094
G1 X121.92 Y82.38 E0.54
G1 Y80.61 E0.093
G1 X116.49 Y75.12 E0.405
G1 X118.26 E0.093
G1 X121.92 Y78.69 E0.268
G1 Y76.95 E0.091
G1 X120.15 Y75.12 E0.133
G1 F1995.6
G1 E-10.913
G1 F2000.0
G1 X123.21 Y122.22 F15000.0
G1 F1995.6
G1 E10.913
G1 F2000.0
G1 F99.8
G1 E0.109
G1 F2000.0
G1 X104.79 Y122.16 E0.965 F1800.0
G1 Y103.8 E0.962
G1 X123.21 Y103.86 E0.965
G1 Y122.22 E0.962
G1 X123.69 Y122.73 E0.037
G1 X104.28 Y122.67 E1.017
G1 Y103.29 E1.015
G1 X123.72 Y103.35 E1.018
G1 X123.69 Y122.73 E1.015
G1 F1995.6
G1 E-10.913
G1 F2000.0
G1 X123.21 Y122.22
G1 X106.26 Y121.89 F15000.0
G1 F1995.6
G1 E10.913
G1 F2000.0
G1 F99.8
G1 E0.109
G1 F2000.0
G1 X105.09 Y120.69 E0.088
G1 Y118.95 E0.091
G1 X108.12 Y121.89 E0.221
G1 X109.89 E0.093
G1 X105.09 Y117.03 E0.358
G1 Y115.26 E0.093
G1 X111.78 Y121.89 E0.493
G1 X113.55 E0.093
G1 X105.09 Y113.34 E0.63
G1 Y111.57 E0.093
G1 X115.5 Y121.92 E0.769
G1 X117.27 E0.093
G1 X105.09 Y109.68 E0.905
G1 Y107.91 E0.093
G1 X119.19 Y121.92 E1.041
G1 X120.93 E0.091
G1 X105.09 Y105.99 E1.177
G1 Y104.22 E0.093
G1 X122.88 Y121.92 E1.315
G1 X122.91 Y120.21 E0.09
G1 X106.86 Y104.1 E1.191
G1 X108.63 E0.093
G1 X122.91 Y118.29 E1.055
G1 Y116.55 E0.091
G1 X110.55 Y104.1 E0.919
G1 X112.32 E0.093
G1 X122.91 Y114.63 E0.782
G1 Y112.86 E0.093
G1 X114.27 Y104.13 E0.643
G1 X116.01 E0.091
G1 X122.91 Y110.94 E0.508
G1 Y109.17 E0.093
G1 X117.93 Y104.13 E0.371
G1 X119.7 E0.093
G1 X122.91 Y107.28 E0.236
G1 Y105.51 E0.093
G1 X121.59 Y104.13 E0.1
G1 F1995.6
G1 E-10.913
G1 F2000.0
;#!LAYER: 9/25
G92 E0
G1 Z2.16 F200.0
G1 X43.8 Y82.8 F15000.0
G1 X52.0 Y87.5
T0
G1 F1995.6
G1 E10.913
G1 F2000.0
G1 F99.8
G1 E0.109
G1 F2000.0
G1 Y112.5 E1.31
G1 X51.5 E0.026
G1 Y87.5 E1.31
G1 X51.0 E0.026
G1 Y112.5 E1.31
G1 F1995.6
G1 E-10.913
G1 F2000.0
G1 X43.8 Y82.8 F15000.0
G1 F1995.6
G1 E10.913
G1 F2000.0
G1 F99.8
G1 E0.109
G1 F2000.0
G1 X56.22 E0.651 F1800.0
G1 Y117.21 E1.803
G1 X43.8 E0.651
G1 Y82.8 E1.803
G1 X43.29 Y82.29 E0.038
G1 X56.73 E0.704
G1 Y117.72 E1.856
G1 X43.29 E0.704
G1 Y82.29 E1.856
G1 F1995.6
G1 E-10.913
G1 F2000.0
G1 X43.8 Y82.8
G1 X45.87 Y84.24 F15000.0
G1 F1995.6
G1 E10.913
G1 F2000.0
G1 F99.8
G1 E0.109
G1 F2000.0
G1 X45.51 Y84.42 E0.021 F1800.0
G1 X45.36 Y84.57 E0.011
G1 X45.24 Y85.08 E0.027
G1 X45.27 Y115.11 E1.573
G1 X45.3 Y115.32 E0.011
G1 X45.6 Y115.68 E0.025
G1 X45.96 Y115.8 E0.02
G1 X54.12 E0.427
G1 X54.48 Y115.62 E0.021
G1 X54.66 Y115.41 E0.014
G1 X54.78 Y115.11 E0.017
G1 X54.72 Y84.75 E1.59
G1 X54.6 Y84.51 E0.014
G1 X54.12 Y84.21 E0.03
G1 X45.87 Y84.24 E0.432
G1 X45.96 Y84.72 E0.026
G1 X45.78 Y84.87 E0.012
G1 X45.81 Y115.17 E1.587
G1 X45.9 Y115.26 E0.007
G1 X54.06 Y115.29 E0.427
G1 X54.24 Y115.11 E0.013
G1 X54.27 Y114.81 E0.016
G1 X54.24 Y84.87 E1.568
G1 X54.12 Y84.75 E0.009
G1 X45.96 Y84.72 E0.427
G1 F1995.6
G1 E-10.913
G1 F2000.0
G1 X45.87 Y84.24
G1 X44.1 Y83.67 F15000.0
G1 F1995.6
G1 E10.913
G1 F2000.0
G1 F99.8
G1 E0.109
G1 F2000.0
G1 X44.76 Y83.1 E0.046
G1 X46.5 E0.091
G1 X45.45 Y84.09 E0.076
G1 X45.06 Y84.51 E0.03
G1 X44.1 Y85.59 E0.076
G1 Y87.36 E0.093
G1 X44.94 Y86.58 E0.06
G1 Y88.35 E0.093
G1 X44.1 Y89.25 E0.064
G1 Y91.02 E0.093
G1 X44.94 Y90.27 E0.059
G1 Y92.04 E0.093
G1 X44.1 Y92.94 E0.064
G1 Y94.71 E0.093
G1 X44.94 Y93.93 E0.06
G1 Y95.7 E0.093
G1 X44.1 Y96.63 E0.066
G1 Y98.37 E0.091
G1 X44.94 Y97.62 E0.059
G1 Y99.39 E0.093
G1 X44.1 Y100.29 E0.064
G1 Y102.06 E0.093
G1 X44.94 Y101.28 E0.06
G1 Y103.05 E0.093
G1 X44.1 Y103.98 E0.066
G1 Y105.75 E0.093
G1 X44.94 Y104.97 E0.06
G1 Y106.74 E0.093
G1 X44.1 Y107.64 E0.064
G1 Y109.41 E0.093
G1 X44.94 Y108.66 E0.059
G1 Y110.4 E0.091
G1 X44.1 Y111.33 E0.066
G1 Y113.1 E0.093
G1 X44.94 Y112.32 E0.06
G1 Y114.09 E0.093
G1 X44.1 Y114.99 E0.064
G1 Y116.76 E0.093
G1 X45.24 Y115.74 E0.08
G1 X45.6 Y116.01 E0.024
G1 X46.14 Y116.1 E0.029
G1 X46.62 E0.025
G1 X45.87 Y116.91 E0.058
G1 X47.64 E0.093
G1 X48.51 Y116.1 E0.062
G1 X50.28 E0.093
G1 X49.56 Y116.91 E0.057
G1 X51.3 E0.091
G1 X52.2 Y116.1 E0.063
G1 X53.97 E0.093
G1 X53.22 Y116.91 E0.058
G1 X54.99 E0.093
G1 X55.92 Y115.92 E0.071
G1 Y114.15 E0.093
G1 X55.08 Y114.93 E0.06
G1 Y113.16 E0.093
G1 X55.92 Y112.23 E0.066
G1 Y110.49 E0.091
G1 X55.08 Y111.24 E0.059
G1 Y109.47 E0.093
G1 X55.92 Y108.57 E0.064
G1 Y106.8 E0.093
G1 X55.08 Y107.58 E0.06
G1 Y105.81 E0.093
G1 X55.92 Y104.88 E0.066
G1 Y103.11 E0.093
G1 X55.08 Y103.89 E0.06
G1 Y102.12 E0.093
G1 X55.92 Y101.22 E0.064
G1 Y99.45 E0.093
G1 X55.08 Y100.2 E0.059
G1 Y98.46 E0.091
G1 X55.92 Y97.53 E0.066
G1 Y95.76 E0.093
G1 X55.08 Y96.54 E0.06
G1 Y94.77 E0.093
G1 X55.92 Y93.87 E0.064
G1 Y92.1 E0.093
G1 X55.08 Y92.85 E0.059
G1 Y91.08 E0.093
G1 X55.92 Y90.18 E0.064
G1 Y88.41 E0.093
G1 X55.08 Y89.19 E0.06
G1 Y87.42 E0.093
G1 X55.92 Y86.49 E0.066
G1 Y84.75 E0.091
G1 X55.08 Y85.5 E0.059
G1 X55.02 Y84.63 E0.046
G1 X54.72 Y84.21 E0.027
G1 X54.66 Y84.15 E0.004
G1 X55.65 Y83.1 E0.076
G1 X53.88 E0.093
G1 X53.01 Y83.91 E0.062
G1 X51.24 E0.093
G1 X51.96 Y83.1 E0.057
G1 X50.19 E0.093
G1 X49.32 Y83.91 E0.062
G1 X47.55 E0.093
G1 X48.36 Y83.1 E0.06
G1 F1995.6
G1 E-10.913
G1 F2000.0
G1 X122.22 Y93.21 F15000.0
G1 F1995.6
G1 E10.913
G1 F2000.0
G1 F99.8
G1 E0.109
G1 F2000.0
G1 X103.8 Y93.15 E0.965 F1800.0
G1 Y74.79 E0.962
G1 X122.22 Y74.85 E0.965
G1 Y93.21 E0.962
G1 X122.7 Y93.72 E0.037
G1 X103.29 Y93.66 E1.017
G1 Y74.28 E1.015
G1 X122.73 Y74.34 E1.018
G1 X122.7 Y93.72 E1.015
G1 F1995.6
G1 E-10.913
G1 F2000.0
G1 X122.22 Y93.21
G1 X121.92 Y92.25 F15000.0
G1 F1995.6
G1 E10.913
G1 F2000.0
G1 F99.8
G1 E0.109
G1 F2000.0
G1 X121.2 Y92.91 E0.051
G1 X119.46 E0.091
G1 X121.92 Y90.36 E0.186
G1 Y88.59 E0.093
G1 X117.54 Y92.91 E0.322
G1 X115.77 E0.093
G1 X121.92 Y86.7 E0.458
G1 Y84.93 E0.093
G1 X113.85 Y92.91 E0.595
G1 X112.14 Y92.88 E0.09
G1 X121.92 Y83.01 E0.728
G1 Y81.24 E0.093
G1 X110.22 Y92.88 E0.865
G1 X108.45 E0.093
G1 X121.92 Y79.32 E1.001
G1 Y77.58 E0.091
G1 X106.53 Y92.88 E1.137
G1 X104.76 E0.093
G1 X121.92 Y75.66 E1.273
G1 X121.89 Y75.12 E0.028
G1 X120.69 E0.063
G1 X104.1 Y91.65 E1.227
G1 Y89.88 E0.093
G1 X118.77 Y75.12 E1.09
G1 X117.03 E0.091
G1 X104.1 Y87.96 E0.955
G1 Y86.19 E0.093
G1 X115.11 Y75.12 E0.818
G1 X113.34 E0.093
G1 X104.1 Y84.27 E0.681
G1 Y82.53 E0.091
G1 X111.45 Y75.09 E0.548
G1 X109.68 E0.093
G1 X104.1 Y80.61 E0.411
G1 Y78.84 E0.093
G1 X107.79 Y75.09 E0.276
G1 X106.02 E0.093
G1 X104.1 Y76.92 E0.139
G1 Y75.18 E0.091
G1 X104.16 Y75.09 E0.006
G1 F1995.6
G1 E-10.913
G1 F2000.0
G1 X123.21 Y122.22 F15000.0
G1 F1995.6
G1 E10.913
G1 F2000.0
G1 F99.8
G1 E0.109
G1 F2000.0
G1 X104.79 Y122.16 E0.965 F1800.0
G1 Y103.8 E0.962
G1 X123.21 Y103.86 E0.965
G1 Y122.22 E0.962
G1 X123.69 Y122.73 E0.037
G1 X104.28 Y122.67 E1.017
G1 Y103.29 E1.015
G1 X123.72 Y103.35 E1.018
G1 X123.69 Y122.73 E1.015
G1 F1995.6
G1 E-10.913
G1 F2000.0
G1 X123.21 Y122.22
G1 X122.91 Y120.69 F15000.0
G1 F1995.6
G1 E10.913
G1 F2000.0
G1 F99.8
G1 E0.109
G1 F2000.0
G1 X121.62 Y121.92 E0.093
G1 X119.85 E0.093
G1 X122.91 Y118.8 E0.229
G1 Y117.03 E0.093
G1 X117.93 Y121.92 E0.366
G1 X116.19 E0.091
G1 X122.91 Y115.11 E0.501
G1 Y113.34 E0.093
G1 X114.27 Y121.92 E0.638
G1 X112.53 Y121.89 E0.091
G1 X122.91 Y111.45 E0.771
G1 Y109.68 E0.093
G1 X110.61 Y121.89 E0.908
G1 X108.84 E0.093
G1 X122.91 Y107.76 E1.045
G1 Y105.99 E0.093
G1 X106.95 Y121.89 E1.18
G1 X105.18 E0.093
G1 X122.85 Y104.13 E1.312
G1 X121.11 E0.091
G1 X105.09 Y120.06 E1.183
G1 Y118.29 E0.093
G1 X119.19 Y104.13 E1.047
G1 X117.42 E0.093
G1 X105.09 Y116.4 E0.911
G1 Y114.63 E0.093
G1 X115.5 Y104.13 E0.775
G1 X113.76 Y104.1 E0.091
G1 X105.09 Y112.71 E0.64
G1 Y110.94 E0.093
G1 X111.87 Y104.1 E0.505
G1 X110.1 E0.093
G1 X105.09 Y109.02 E0.368
G1 Y107.28 E0.091
G1 X108.18 Y104.1 E0.232
G1 X106.41 E0.093
G1 X105.09 Y105.42 E0.098
G1 F1995.6
G1 E-10.913
G1 F2000.0
;#!LAYER: 10/25
G92 E0
G1 Z2.4 F200.0
G1 X43.8 Y82.8 F15000.0
G1 X52.0 Y87.5
T0
G1 F1995.6
G1 E10.913
G1 F2000.0
G1 F99.8
G1 E0.109
G1 F2000.0
G1 Y112.5 E1.31
G1 X51.5 E0.026
G1 Y87.5 E1.31
G1 X51.0 E0.026
G1 Y112.5 E1.31
G1 F1995.6
G1 E-10.913
G1 F2000.0
G1 X43.8 Y82.8 F15000.0
G1 F1995.6
G1 E10.913
G1 F2000.0
G1 F99.8
G1 E0.109
G1 F2000.0
G1 X56.22 E0.651 F1800.0
G1 Y117.21 E1.803
G1 X43.8 E0.651
G1 Y82.8 E1.803
G1 X43.29 Y82.29 E0.038
G1 X56.73 E0.704
G1 Y117.72 E1.856
G1 X43.29 E0.704
G1 Y82.29 E1.856
G1 F1995.6
G1 E-10.913
G1 F2000.0
G1 X43.8 Y82.8
G1 X45.87 Y84.24 F15000.0
G1 F1995.6
G1 E10.913
G1 F2000.0
G1 F99.8
G1 E0.109
G1 F2000.0
G1 X45.51 Y84.42 E0.021 F1800.0
G1 X45.36 Y84.57 E0.011
G1 X45.24 Y85.08 E0.027
G1 X45.27 Y115.11 E1.573
G1 X45.3 Y115.32 E0.011
G1 X45.6 Y115.68 E0.025
G1 X45.96 Y115.8 E0.02
G1 X54.12 E0.427
G1 X54.48 Y115.62 E0.021
G1 X54.66 Y115.41 E0.014
G1 X54.78 Y115.11 E0.017
G1 X54.72 Y84.75 E1.59
G1 X54.6 Y84.51 E0.014
G1 X54.12 Y84.21 E0.03
G1 X45.87 Y84.24 E0.432
G1 X45.96 Y84.72 E0.026
G1 X45.78 Y84.87 E0.012
G1 X45.81 Y115.17 E1.587
G1 X45.9 Y115.26 E0.007
G1 X54.06 Y115.29 E0.427
G1 X54.24 Y115.11 E0.013
G1 X54.27 Y114.81 E0.016
G1 X54.24 Y84.87 E1.568
G1 X54.12 Y84.75 E0.009
G1 X45.96 Y84.72 E0.427
G1 F1995.6
G1 E-10.913
G1 F2000.0
G1 X45.87 Y84.24
G1 X45.45 Y84.09 F15000.0
G1 F1995.6
G1 E10.913
G1 F2000.0
G1 F99.8
G1 E0.109
G1 F2000.0
G1 X44.52 Y83.1 E0.071
G1 X46.26 E0.091
G1 X47.16 Y83.91 E0.063
G1 X48.93 E0.093
G1 X48.18 Y83.1 E0.058
G1 X49.95 E0.093
G1 X50.82 Y83.91 E0.062
G1 X52.59 E0.093
G1 X51.87 Y83.1 E0.057
G1 X53.61 E0.091
G1 X55.92 Y85.32 E0.168
G1 Y83.55 E0.093
G1 X55.53 Y83.1 E0.031
G1 F1995.6
G1 E-10.913
G1 F2000.0
G1 X55.08 Y86.34 F15000.0
G1 F1995.6
G1 E10.913
G1 F2000.0
G1 F99.8
G1 E0.109
G1 F2000.0
G1 X55.92 Y87.24 E0.064
G1 Y89.01 E0.093
G1 X55.08 Y88.23 E0.06
G1 Y90.0 E0.093
G1 X55.92 Y90.9 E0.064
G1 Y92.67 E0.093
G1 X55.08 Y91.92 E0.059
G1 Y93.66 E0.091
G1 X55.92 Y94.59 E0.066
G1 Y96.36 E0.093
G1 X55.08 Y95.58 E0.06
G1 Y97.35 E0.093
G1 X55.92 Y98.25 E0.064
G1 Y100.02 E0.093
G1 X55.08 Y99.27 E0.059
G1 Y101.04 E0.093
G1 X55.92 Y101.94 E0.064
G1 Y103.71 E0.093
G1 X55.08 Y102.93 E0.06
G1 Y104.7 E0.093
G1 X55.92 Y105.63 E0.066
G1 Y107.37 E0.091
G1 X55.08 Y106.62 E0.059
G1 Y108.39 E0.093
G1 X55.92 Y109.29 E0.064
G1 Y111.06 E0.093
G1 X55.08 Y110.28 E0.06
G1 Y112.05 E0.093
G1 X55.92 Y112.98 E0.066
G1 Y114.75 E0.093
G1 X55.08 Y113.97 E0.06
G1 Y115.14 E0.061
G1 X54.93 Y115.56 E0.023
G1 X55.92 Y116.64 E0.077
G1 X55.89 Y116.91 E0.014
G1 X54.42 E0.077
G1 X53.52 Y116.1 E0.063
G1 X51.78 E0.091
G1 X52.5 Y116.91 E0.057
G1 X50.73 E0.093
G1 X49.86 Y116.1 E0.062
G1 X48.09 E0.093
G1 X48.84 Y116.91 E0.058
G1 X47.07 E0.093
G1 X46.17 Y116.1 E0.063
G1 X45.66 Y116.04 E0.027
G1 X45.24 Y115.74 E0.027
G1 X45.0 Y115.32 E0.025
G1 X44.94 Y114.81 E0.027
G1 X44.1 Y114.03 E0.06
G1 Y115.8 E0.093
G1 X45.21 Y116.91 E0.082
G1 F1995.6
G1 E-10.913
G1 F2000.0
G1 X44.1 Y112.11 F15000.0
G1 F1995.6
G1 E10.913
G1 F2000.0
G1 F99.8
G1 E0.109
G1 F2000.0
G1 X44.94 Y112.95 E0.062
G1 Y111.18 E0.093
G1 X44.1 Y110.28 E0.064
G1 Y108.51 E0.093
G1 X44.94 Y109.26 E0.059
G1 Y107.52 E0.091
G1 X44.1 Y106.59 E0.066
G1 Y104.82 E0.093
G1 X44.94 Y105.6 E0.06
G1 Y103.83 E0.093
G1 X44.1 Y102.93 E0.064
G1 Y101.16 E0.093
G1 X44.94 Y101.91 E0.059
G1 Y100.14 E0.093
G1 X44.1 Y99.24 E0.064
G1 Y97.47 E0.093
G1 X44.94 Y98.25 E0.06
G1 Y96.48 E0.093
G1 X44.1 Y95.55 E0.066
G1 Y93.81 E0.091
G1 X44.94 Y94.56 E0.059
G1 Y92.79 E0.093
G1 X44.1 Y91.89 E0.064
G1 Y90.12 E0.093
G1 X44.94 Y90.9 E0.06
G1 Y89.13 E0.093
G1 X44.1 Y88.2 E0.066
G1 Y86.43 E0.093
G1 X44.94 Y87.21 E0.06
G1 Y85.44 E0.093
G1 X44.1 Y84.54 E0.064
G1 F1995.6
G1 E-10.913
G1 F2000.0
G1 X122.22 Y93.21 F15000.0
G1 F1995.6
G1 E10.913
G1 F2000.0
G1 F99.8
G1 E0.109
G1 F2000.0
G1 X103.8 Y93.15 E0.965 F1800.0
G1 Y74.79 E0.962
G1 X122.22 Y74.85 E0.965
G1 Y93.21 E0.962
G1 X122.7 Y93.72 E0.037
G1 X103.29 Y93.66 E1.017
G1 Y74.28 E1.015
G1 X122.73 Y74.34 E1.018
G1 X122.7 Y93.72 E1.015
G1 F1995.6
G1 E-10.913
G1 F2000.0
G1 X122.22 Y93.21
G1 X104.19 Y92.88 F15000.0
G1 F1995.6
G1 E10.913
G1 F2000.0
G1 F99.8
G1 E0.109
G1 F2000.0
G1 X104.1 Y92.76 E0.008
G1 Y92.13 E0.033
G1 X104.91 Y92.88 E0.058
G1 X105.54 E0.033
G1 X104.1 Y91.35 E0.11
G1 Y90.72 E0.033
G1 X106.32 Y92.88 E0.162
G1 X106.95 E0.033
G1 X104.1 Y89.94 E0.214
G1 Y89.31 E0.033
G1 X107.73 Y92.88 E0.267
G1 X108.39 E0.035
G1 X104.1 Y88.53 E0.32
G1 Y87.9 E0.033
G1 X109.17 Y92.88 E0.372
G1 X109.8 E0.033
G1 X104.1 Y87.12 E0.425
G1 Y86.49 E0.033
G1 X110.58 Y92.88 E0.477
G1 X111.21 E0.033
G1 X104.1 Y85.71 E0.529
G1 Y85.08 E0.033
G1 X111.99 Y92.88 E0.581
G1 X112.62 E0.033
G1 X104.1 Y84.3 E0.633
G1 Y83.64 E0.035
G1 X113.43 Y92.91 E0.689
G1 X114.06 E0.033
G1 X104.1 Y82.86 E0.741
G1 Y82.23 E0.033
G1 X114.84 Y92.91 E0.793
G1 X115.47 E0.033
G1 X104.1 Y81.45 E0.846
G1 Y80.82 E0.033
G1 X116.25 Y92.91 E0.898
G1 X116.88 E0.033
G1 X104.1 Y80.04 E0.95
G1 Y79.41 E0.033
G1 X117.66 Y92.91 E1.002
G1 X118.32 E0.035
G1 X104.1 Y78.63 E1.056
G1 Y78.0 E0.033
G1 X119.1 Y92.91 E1.108
G1 X119.73 E0.033
G1 X104.1 Y77.22 E1.16
G1 Y76.59 E0.033
G1 X120.51 Y92.91 E1.212
G1 X121.14 E0.033
G1 X104.1 Y75.81 E1.265
G1 Y75.12 E0.036
G1 X121.92 Y92.91 E1.319
G1 Y92.28 E0.033
G1 X104.79 Y75.09 E1.271
G1 X105.45 E0.035
G1 X121.92 Y91.5 E1.218
G1 Y90.87 E0.033
G1 X106.23 Y75.09 E1.166
G1 X106.86 E0.033
G1 X121.92 Y90.09 E1.113
G1 Y89.46 E0.033
G1 X107.64 Y75.09 E1.061
G1 X108.27 E0.033
G1 X121.92 Y88.68 E1.009
G1 Y88.05 E0.033
G1 X109.05 Y75.09 E0.957
G1 X109.68 E0.033
G1 X121.92 Y87.27 E0.905
G1 Y86.61 E0.035
G1 X110.46 Y75.09 E0.851
G1 X111.09 E0.033
G1 X121.92 Y85.83 E0.799
G1 Y85.2 E0.033
G1 X111.87 Y75.09 E0.747
G1 X112.5 E0.033
G1 X121.92 Y84.42 E0.695
G1 Y83.79 E0.033
G1 X113.31 Y75.12 E0.64
G1 X113.94 E0.033
G1 X121.92 Y83.01 E0.588
G1 Y82.38 E0.033
G1 X114.72 Y75.12 E0.536
G1 X115.38 E0.035
G1 X121.92 Y81.6 E0.482
G1 Y80.97 E0.033
G1 X116.16 Y75.12 E0.43
G1 X116.79 E0.033
G1 X121.92 Y80.19 E0.378
G1 Y79.56 E0.033
G1 X117.57 Y75.12 E0.326
G1 X118.2 E0.033
G1 X121.92 Y78.78 E0.273
G1 Y78.15 E0.033
G1 X118.98 Y75.12 E0.221
G1 X119.61 E0.033
G1 X121.92 Y77.37 E0.169
G1 Y76.74 E0.033
G1 X120.39 Y75.12 E0.117
G1 X121.02 E0.033
G1 X121.92 Y75.93 E0.063
G1 Y75.33 E0.031
G1 X121.8 Y75.12 E0.013
G1 F1995.6
G1 E-10.913
G1 F2000.0
G1 X123.21 Y122.22 F15000.0
G1 F1995.6
G1 E10.913
G1 F2000.0
G1 F99.8
G1 E0.109
G1 F2000.0
G1 X104.79 Y122.16 E0.965 F1800.0
G1 Y103.8 E0.962
G1 X123.21 Y103.86 E0.965
G1 Y122.22 E0.962
G1 X123.69 Y122.73 E0.037
G1 X104.28 Y122.67 E1.017
G1 Y103.29 E1.015
G1 X123.72 Y103.35 E1.018
G1 X123.69 Y122.73 E1.015
G1 F1995.6
G1 E-10.913
G1 F2000.0
G1 X123.21 Y122.22
G1 X122.52 Y104.13 F15000.0
G1 F1995.6
G1 E10.913
G1 F2000.0
G1 F99.8
G1 E0.109
G1 F2000.0
G1 X122.91 Y104.58 E0.031
G1 Y105.21 E0.033
G1 X121.74 Y104.13 E0.083
G1 X121.11 E0.033
G1 X122.91 Y105.99 E0.136
G1 Y106.62 E0.033
G1 X120.33 Y104.13 E0.188
G1 X119.7 E0.033
G1 X122.91 Y107.4 E0.24
G1 Y108.06 E0.035
G1 X118.92 Y104.13 E0.293
G1 X118.29 E0.033
G1 X122.91 Y108.84 E0.346
G1 Y109.47 E0.033
G1 X117.51 Y104.13 E0.398
G1 X116.88 E0.033
G1 X122.91 Y110.25 E0.45
G1 Y110.88 E0.033
G1 X116.1 Y104.13 E0.502
G1 X115.47 E0.033
G1 X122.91 Y111.66 E0.555
G1 Y112.29 E0.033
G1 X114.69 Y104.13 E0.607
G1 X114.03 E0.035
G1 X122.91 Y113.07 E0.66
G1 Y113.7 E0.033
G1 X113.22 Y104.1 E0.715
G1 X112.59 E0.033
G1 X122.91 Y114.48 E0.767
G1 Y115.11 E0.033
G1 X111.81 Y104.1 E0.819
G1 X111.18 E0.033
G1 X122.91 Y115.89 E0.871
G1 Y116.52 E0.033
G1 X110.4 Y104.1 E0.923
G1 X109.77 E0.033
G1 X122.91 Y117.3 E0.976
G1 Y117.96 E0.035
G1 X108.99 Y104.1 E1.029
G1 X108.36 E0.033
G1 X122.91 Y118.74 E1.081
G1 Y119.37 E0.033
G1 X107.58 Y104.1 E1.133
G1 X106.95 E0.033
G1 X122.91 Y120.15 E1.186
G1 Y120.78 E0.033
G1 X106.17 Y104.1 E1.238
G1 X105.54 E0.033
G1 X122.91 Y121.56 E1.29
G1 X122.88 Y121.92 E0.019
G1 X122.64 E0.013
G1 X105.09 Y104.43 E1.298
G1 Y105.09 E0.035
G1 X121.86 Y121.92 E1.245
G1 X121.23 E0.033
G1 X105.09 Y105.87 E1.192
G1 Y106.5 E0.033
G1 X120.45 Y121.92 E1.14
G1 X119.82 E0.033
G1 X105.09 Y107.28 E1.088
G1 Y107.91 E0.033
G1 X119.04 Y121.92 E1.036
G1 X118.41 E0.033
G1 X105.09 Y108.69 E0.983
G1 Y109.32 E0.033
G1 X117.63 Y121.92 E0.931
G1 X117.0 E0.033
G1 X105.09 Y110.1 E0.879
G1 Y110.73 E0.033
G1 X116.19 Y121.92 E0.826
G1 X115.56 E0.033
G1 X105.09 Y111.51 E0.773
G1 Y112.14 E0.033
G1 X114.78 Y121.92 E0.721
G1 X114.15 E0.033
G1 X105.09 Y112.92 E0.669
G1 Y113.55 E0.033
G1 X113.34 Y121.89 E0.615
G1 X112.71 E0.033
G1 X105.09 Y114.33 E0.562
G1 Y114.96 E0.033
G1 X111.93 Y121.89 E0.51
G1 X111.3 E0.033
G1 X105.09 Y115.77 E0.457
G1 Y116.4 E0.033
G1 X110.52 Y121.89 E0.405
G1 X109.89 E0.033
G1 X105.09 Y117.18 E0.352
G1 Y117.81 E0.033
G1 X109.11 Y121.89 E0.3
G1 X108.48 E0.033
G1 X105.09 Y118.59 E0.248
G1 Y119.22 E0.033
G1 X107.7 Y121.89 E0.196
G1 X107.07 E0.033
G1 X105.09 Y120.0 E0.143
G1 Y120.63 E0.033
G1 X106.26 Y121.89 E0.09
G1 X105.63 E0.033
G1 X105.09 Y121.35 E0.04
G1 F1995.6
G1 E-10.913
G1 F2000.0
;#!LAYER: 11/25
G92 E0
G1 Z2.64 F200.0
G1 X43.8 Y82.8 F15000.0
G1 X52.0 Y87.5
T0
G1 F1995.6
G1 E10.913
G1 F2000.0
G1 F99.8
G1 E0.109
G1 F2000.0
G1 Y112.5 E1.31
G1 X51.5 E0.026
G1 Y87.5 E1.31
G1 X51.0 E0.026
G1 Y112.5 E1.31
G1 F1995.6
G1 E-10.913
G1 F2000.0
G1 X43.8 Y82.8 F15000.0
G1 F1995.6
G1 E10.913
G1 F2000.0
G1 F99.8
G1 E0.109
G1 F2000.0
G1 X56.22 E0.651 F1800.0
G1 Y117.21 E1.803
G1 X43.8 E0.651
G1 Y82.8 E1.803
G1 X43.29 Y82.29 E0.038
G1 X56.73 E0.704
G1 Y117.72 E1.856
G1 X43.29 E0.704
G1 Y82.29 E1.856
G1 F1995.6
G1 E-10.913
G1 F2000.0
G1 X43.8 Y82.8
G1 X45.87 Y84.24 F15000.0
G1 F1995.6
G1 E10.913
G1 F2000.0
G1 F99.8
G1 E0.109
G1 F2000.0
G1 X45.51 Y84.42 E0.021 F1800.0
G1 X45.36 Y84.57 E0.011
G1 X45.24 Y85.08 E0.027
G1 X45.27 Y115.11 E1.573
G1 X45.3 Y115.32 E0.011
G1 X45.6 Y115.68 E0.025
G1 X45.96 Y115.8 E0.02
G1 X54.12 E0.427
G1 X54.48 Y115.62 E0.021
G1 X54.66 Y115.41 E0.014
G1 X54.78 Y115.11 E0.017
G1 X54.72 Y84.75 E1.59
G1 X54.6 Y84.51 E0.014
G1 X54.12 Y84.21 E0.03
G1 X45.87 Y84.24 E0.432
G1 X45.96 Y84.72 E0.026
G1 X45.78 Y84.87 E0.012
G1 X45.81 Y115.17 E1.587
G1 X45.9 Y115.26 E0.007
G1 X54.06 Y115.29 E0.427
G1 X54.24 Y115.11 E0.013
G1 X54.27 Y114.81 E0.016
G1 X54.24 Y84.87 E1.568
G1 X54.12 Y84.75 E0.009
G1 X45.96 Y84.72 E0.427
G1 F1995.6
G1 E-10.913
G1 F2000.0
G1 X45.87 Y84.24
G1 X55.92 Y113.22 F15000.0
G1 F1995.6
G1 E10.913
G1 F2000.0
G1 F99.8
G1 E0.109
G1 F2000.0
G1 X55.08 Y114.06 E0.062
G1 Y112.29 E0.093
G1 X55.92 Y111.39 E0.064
G1 Y109.62 E0.093
G1 X55.08 Y110.37 E0.059
G1 Y108.63 E0.091
G1 X55.92 Y107.7 E0.066
G1 Y105.93 E0.093
G1 X55.08 Y106.71 E0.06
G1 Y104.94 E0.093
G1 X55.92 Y104.04 E0.064
G1 Y102.27 E0.093
G1 X55.08 Y103.02 E0.059
G1 Y101.28 E0.091
G1 X55.92 Y100.35 E0.066
G1 Y98.58 E0.093
G1 X55.08 Y99.36 E0.06
G1 Y97.59 E0.093
G1 X55.92 Y96.66 E0.066
G1 Y94.92 E0.091
G1 X55.08 Y95.67 E0.059
G1 Y93.9 E0.093
G1 X55.92 Y93.0 E0.064
G1 Y91.23 E0.093
G1 X55.08 Y92.01 E0.06
G1 Y90.24 E0.093
G1 X55.92 Y89.31 E0.066
G1 Y87.57 E0.091
G1 X55.08 Y88.32 E0.059
G1 Y86.55 E0.093
G1 X55.92 Y85.65 E0.064
G1 Y83.88 E0.093
G1 X55.02 Y84.69 E0.063
G1 X54.96 Y84.51 E0.01
G1 X54.54 Y84.06 E0.032
G1 X54.06 Y83.91 E0.026
G1 X54.78 Y83.1 E0.057
G1 X53.01 E0.093
G1 X52.14 Y83.91 E0.062
G1 X50.37 E0.093
G1 X51.12 Y83.1 E0.058
G1 X49.35 E0.093
G1 X48.45 Y83.91 E0.063
G1 X46.71 E0.091
G1 X47.43 Y83.1 E0.057
G1 X45.66 E0.093
G1 X44.1 Y84.6 E0.113
G1 Y86.37 E0.093
G1 X44.94 Y85.62 E0.059
G1 Y87.36 E0.091
G1 X44.1 Y88.29 E0.066
G1 Y90.06 E0.093
G1 X44.94 Y89.28 E0.06
G1 Y91.05 E0.093
G1 X44.1 Y91.95 E0.064
G1 Y93.72 E0.093
G1 X44.94 Y92.97 E0.059
G1 Y94.71 E0.091
G1 X44.1 Y95.64 E0.066
G1 Y97.41 E0.093
G1 X44.94 Y96.63 E0.06
G1 Y98.4 E0.093
G1 X44.1 Y99.33 E0.066
G1 Y101.07 E0.091
G1 X44.94 Y100.32 E0.059
G1 Y102.09 E0.093
G1 X44.1 Y102.99 E0.064
G1 Y104.76 E0.093
G1 X44.94 Y103.98 E0.06
G1 Y105.75 E0.093
G1 X44.1 Y106.68 E0.066
G1 Y108.42 E0.091
G1 X44.94 Y107.67 E0.059
G1 Y109.44 E0.093
G1 X44.1 Y110.34 E0.064
G1 Y112.11 E0.093
G1 X44.94 Y111.36 E0.059
G1 Y113.1 E0.091
G1 X44.1 Y114.03 E0.066
G1 Y115.8 E0.093
G1 X44.94 Y115.02 E0.06
G1 X45.03 Y115.44 E0.023
G1 X45.3 Y115.8 E0.024
G1 X45.69 Y116.04 E0.024
G1 X44.88 Y116.91 E0.062
G1 X46.65 E0.093
G1 X47.55 Y116.1 E0.063
G1 X49.29 E0.091
G1 X48.57 Y116.91 E0.057
G1 X50.34 E0.093
G1 X51.21 Y116.1 E0.062
G1 X52.98 E0.093
G1 X52.23 Y116.91 E0.058
G1 X54.0 E0.093
G1 X55.92 Y115.08 E0.139
G1 Y116.91 E0.096
G1 F1995.6
G1 E-10.913
G1 F2000.0
G1 X122.22 Y93.21 F15000.0
G1 F1995.6
G1 E10.913
G1 F2000.0
G1 F99.8
G1 E0.109
G1 F2000.0
G1 X103.8 Y93.15 E0.965 F1800.0
G1 Y74.79 E0.962
G1 X122.22 Y74.85 E0.965
G1 Y93.21 E0.962
G1 X122.7 Y93.72 E0.037
G1 X103.29 Y93.66 E1.017
G1 Y74.28 E1.015
G1 X122.73 Y74.34 E1.018
G1 X122.7 Y93.72 E1.015
G1 F1995.6
G1 E-10.913
G1 F2000.0
G1 X122.22 Y93.21
G1 X121.92 Y92.34 F15000.0
G1 F1995.6
G1 E10.913
G1 F2000.0
G1 F99.8
G1 E0.109
G1 F2000.0
G1 X121.29 Y92.91 E0.045
G1 X120.66 E0.033
G1 X121.92 Y91.56 E0.097
G1 Y90.93 E0.033
G1 X119.88 Y92.91 E0.149
G1 X119.25 E0.033
G1 X121.92 Y90.15 E0.201
G1 Y89.52 E0.033
G1 X118.44 Y92.91 E0.254
G1 X117.81 E0.033
G1 X121.92 Y88.74 E0.307
G1 Y88.11 E0.033
G1 X117.03 Y92.91 E0.359
G1 X116.4 E0.033
G1 X121.92 Y87.33 E0.411
G1 Y86.7 E0.033
G1 X115.62 Y92.91 E0.463
G1 X114.99 E0.033
G1 X121.92 Y85.92 E0.516
G1 Y85.29 E0.033
G1 X114.21 Y92.91 E0.568
G1 X113.58 E0.033
G1 X121.92 Y84.51 E0.62
G1 Y83.85 E0.035
G1 X112.83 Y92.88 E0.671
G1 X112.2 E0.033
G1 X121.92 Y83.07 E0.723
G1 Y82.44 E0.033
G1 X111.42 Y92.88 E0.776
G1 X110.79 E0.033
G1 X121.92 Y81.66 E0.828
G1 Y81.03 E0.033
G1 X110.01 Y92.88 E0.88
G1 X109.38 E0.033
G1 X121.92 Y80.25 E0.932
G1 Y79.62 E0.033
G1 X108.6 Y92.88 E0.985
G1 X107.94 E0.035
G1 X121.92 Y78.84 E1.038
G1 Y78.21 E0.033
G1 X107.16 Y92.88 E1.09
G1 X106.53 E0.033
G1 X121.92 Y77.43 E1.142
G1 Y76.8 E0.033
G1 X105.75 Y92.88 E1.195
G1 X105.12 E0.033
G1 X121.92 Y76.02 E1.247
G1 Y75.39 E0.033
G1 X104.34 Y92.88 E1.299
G1 X104.1 Y92.85 E0.013
G1 Y92.49 E0.019
G1 X121.41 Y75.12 E1.285
G1 X120.75 E0.035
G1 X104.1 Y91.71 E1.231
G1 Y91.08 E0.033
G1 X119.97 Y75.12 E1.179
G1 X119.34 E0.033
G1 X104.1 Y90.3 E1.127
G1 Y89.67 E0.033
G1 X118.56 Y75.12 E1.075
G1 X117.93 E0.033
G1 X104.1 Y88.89 E1.022
G1 Y88.26 E0.033
G1 X117.15 Y75.12 E0.97
G1 X116.52 E0.033
G1 X104.1 Y87.48 E0.918
G1 Y86.82 E0.035
G1 X115.74 Y75.12 E0.865
G1 X115.11 E0.033
G1 X104.1 Y86.04 E0.812
G1 Y85.41 E0.033
G1 X114.33 Y75.12 E0.76
G1 X113.7 E0.033
G1 X104.1 Y84.63 E0.708
G1 Y84.0 E0.033
G1 X112.98 Y75.09 E0.659
G1 X112.29 E0.036
G1 X104.1 Y83.22 E0.605
G1 Y82.59 E0.033
G1 X111.54 Y75.09 E0.553
G1 X110.88 E0.035
G1 X104.1 Y81.81 E0.5
G1 Y81.18 E0.033
G1 X110.1 Y75.09 E0.448
G1 X109.47 E0.033
G1 X104.1 Y80.4 E0.396
G1 Y79.77 E0.033
G1 X108.69 Y75.09 E0.343
G1 X108.06 E0.033
G1 X104.1 Y78.99 E0.291
G1 Y78.36 E0.033
G1 X107.28 Y75.09 E0.239
G1 X106.65 E0.033
G1 X104.1 Y77.58 E0.187
G1 Y76.92 E0.035
G1 X105.87 Y75.09 E0.133
G1 X105.24 E0.033
G1 X104.1 Y76.14 E0.081
G1 Y75.51 E0.033
G1 X104.52 Y75.09 E0.031
G1 F1995.6
G1 E-10.913
G1 F2000.0
G1 X123.21 Y122.22 F15000.0
G1 F1995.6
G1 E10.913
G1 F2000.0
G1 F99.8
G1 E0.109
G1 F2000.0
G1 X104.79 Y122.16 E0.965 F1800.0
G1 Y103.8 E0.962
G1 X123.21 Y103.86 E0.965
G1 Y122.22 E0.962
G1 X123.69 Y122.73 E0.037
G1 X104.28 Y122.67 E1.017
G1 Y103.29 E1.015
G1 X123.72 Y103.35 E1.018
G1 X123.69 Y122.73 E1.015
G1 F1995.6
G1 E-10.913
G1 F2000.0
G1 X123.21 Y122.22
G1 X122.91 Y121.74 F15000.0
G1 F1995.6
G1 E10.913
G1 F2000.0
G1 F99.8
G1 E0.109
G1 F2000.0
G1 X122.67 Y121.92 E0.016
G1 X122.04 E0.033
G1 X122.91 Y120.99 E0.067
G1 Y120.36 E0.033
G1 X121.26 Y121.92 E0.119
G1 X120.63 E0.033
G1 X122.91 Y119.58 E0.171
G1 Y118.95 E0.033
G1 X119.85 Y121.92 E0.223
G1 X119.22 E0.033
G1 X122.91 Y118.14 E0.277
G1 Y117.51 E0.033
G1 X118.44 Y121.92 E0.329
G1 X117.81 E0.033
G1 X122.91 Y116.73 E0.381
G1 Y116.1 E0.033
G1 X117.03 Y121.92 E0.433
G1 X116.4 E0.033
G1 X122.91 Y115.32 E0.486
G1 Y114.69 E0.033
G1 X115.62 Y121.92 E0.538
G1 X114.99 E0.033
G1 X122.91 Y113.91 E0.59
G1 Y113.28 E0.033
G1 X114.18 Y121.92 E0.643
G1 X113.58 Y121.89 E0.031
G1 X122.91 Y112.5 E0.693
G1 Y111.87 E0.033
G1 X112.8 Y121.89 E0.746
G1 X112.17 E0.033
G1 X122.91 Y111.09 E0.798
G1 Y110.46 E0.033
G1 X111.39 Y121.89 E0.85
G1 X110.76 E0.033
G1 X122.91 Y109.68 E0.902
G1 Y109.05 E0.033
G1 X109.98 Y121.89 E0.955
G1 X109.35 E0.033
G1 X122.91 Y108.24 E1.008
G1 Y107.61 E0.033
G1 X108.57 Y121.89 E1.06
G1 X107.94 E0.033
G1 X122.91 Y106.83 E1.112
G1 Y106.2 E0.033
G1 X107.16 Y121.89 E1.165
G1 X106.53 E0.033
G1 X122.91 Y105.42 E1.217
G1 Y104.79 E0.033
G1 X105.75 Y121.89 E1.269
G1 X105.12 E0.033
G1 X122.79 Y104.13 E1.312
G1 X122.16 E0.033
G1 X105.09 Y121.11 E1.261
G1 Y120.48 E0.033
G1 X121.38 Y104.13 E1.209
G1 X120.75 E0.033
G1 X105.09 Y119.7 E1.157
G1 Y119.07 E0.033
G1 X119.97 Y104.13 E1.105
G1 X119.34 E0.033
G1 X105.09 Y118.29 E1.052
G1 Y117.66 E0.033
G1 X118.56 Y104.13 E1.0
G1 X117.93 E0.033
G1 X105.09 Y116.88 E0.948
G1 Y116.25 E0.033
G1 X117.12 Y104.13 E0.895
G1 X116.49 E0.033
G1 X105.09 Y115.47 E0.842
G1 Y114.84 E0.033
G1 X115.71 Y104.13 E0.79
G1 X115.08 E0.033
G1 X105.09 Y114.06 E0.738
G1 Y113.43 E0.033
G1 X114.3 Y104.13 E0.686
G1 X113.7 Y104.1 E0.031
G1 X105.09 Y112.65 E0.636
G1 Y112.02 E0.033
G1 X112.92 Y104.1 E0.583
G1 X112.29 E0.033
G1 X105.09 Y111.21 E0.53
G1 Y110.58 E0.033
G1 X111.51 Y104.1 E0.478
G1 X110.88 E0.033
G1 X105.09 Y109.8 E0.426
G1 Y109.17 E0.033
G1 X110.1 Y104.1 E0.373
G1 X109.47 E0.033
G1 X105.09 Y108.39 E0.321
G1 Y107.76 E0.033
G1 X108.69 Y104.1 E0.269
G1 X108.06 E0.033
G1 X105.09 Y106.98 E0.217
G1 Y106.35 E0.033
G1 X107.25 Y104.1 E0.163
G1 X106.62 E0.033
G1 X105.09 Y105.57 E0.111
G1 Y104.94 E0.033
G1 X105.84 Y104.1 E0.059
G1 X105.21 E0.033
G1 X105.09 Y104.22 E0.009
G1 F1995.6
G1 E-10.913
G1 F2000.0
;#!LAYER: 12/25
G92 E0
G1 Z2.88 F200.0
G1 X43.8 Y82.8 F15000.0
G1 X52.0 Y87.5
T0
G1 F1995.6
G1 E10.913
G1 F2000.0
G1 F99.8
G1 E0.109
G1 F2000.0
G1 Y112.5 E1.31
G1 X51.5 E0.026
G1 Y87.5 E1.31
G1 X51.0 E0.026
G1 Y112.5 E1.31
G1 F1995.6
G1 E-10.913
G1 F2000.0
G1 X43.8 Y82.8 F15000.0
G1 F1995.6
G1 E10.913
G1 F2000.0
G1 F99.8
G1 E0.109
G1 F2000.0
G1 X56.22 E0.651 F1800.0
G1 Y117.21 E1.803
G1 X43.8 E0.651
G1 Y82.8 E1.803
G1 X43.29 Y82.29 E0.038
G1 X56.73 E0.704
G1 Y117.72 E1.856
G1 X43.29 E0.704
G1 Y82.29 E1.856
G1 F1995.6
G1 E-10.913
G1 F2000.0
G1 X43.8 Y82.8
G1 X45.87 Y84.24 F15000.0
G1 F1995.6
G1 E10.913
G1 F2000.0
G1 F99.8
G1 E0.109
G1 F2000.0
G1 X45.51 Y84.42 E0.021 F1800.0
G1 X45.36 Y84.57 E0.011
G1 X45.24 Y85.08 E0.027
G1 X45.27 Y115.11 E1.573
G1 X45.3 Y115.32 E0.011
G1 X45.6 Y115.68 E0.025
G1 X45.96 Y115.8 E0.02
G1 X54.12 E0.427
G1 X54.48 Y115.62 E0.021
G1 X54.66 Y115.41 E0.014
G1 X54.78 Y115.11 E0.017
G1 X54.72 Y84.75 E1.59
G1 X54.6 Y84.51 E0.014
G1 X54.12 Y84.21 E0.03
G1 X45.87 Y84.24 E0.432
G1 X45.96 Y84.72 E0.026
G1 X45.78 Y84.87 E0.012
G1 X45.81 Y115.17 E1.587
G1 X45.9 Y115.26 E0.007
G1 X54.06 Y115.29 E0.427
G1 X54.24 Y115.11 E0.013
G1 X54.27 Y114.81 E0.016
G1 X54.24 Y84.87 E1.568
G1 X54.12 Y84.75 E0.009
G1 X45.96 Y84.72 E0.427
G1 F1995.6
G1 E-10.913
G1 F2000.0
G1 X45.87 Y84.24
G1 X44.1 Y113.04 F15000.0
G1 F1995.6
G1 E10.913
G1 F2000.0
G1 F99.8
G1 E0.109
G1 F2000.0
G1 X44.94 Y113.88 E0.062
G1 Y112.11 E0.093
G1 X44.1 Y111.18 E0.066
G1 Y109.44 E0.091
G1 X44.94 Y110.19 E0.059
G1 Y108.42 E0.093
G1 X44.1 Y107.52 E0.064
G1 Y105.75 E0.093
G1 X44.94 Y106.5 E0.059
G1 Y104.76 E0.091
G1 X44.1 Y103.83 E0.066
G1 Y102.06 E0.093
G1 X44.94 Y102.84 E0.06
G1 Y101.07 E0.093
G1 X44.1 Y100.17 E0.064
G1 Y98.4 E0.093
G1 X44.94 Y99.15 E0.059
G1 Y97.41 E0.091
G1 X44.1 Y96.48 E0.066
G1 Y94.71 E0.093
G1 X44.94 Y95.49 E0.06
G1 Y93.72 E0.093
G1 X44.1 Y92.79 E0.066
G1 Y91.05 E0.091
G1 X44.94 Y91.8 E0.059
G1 Y90.03 E0.093
G1 X44.1 Y89.13 E0.064
G1 Y87.36 E0.093
G1 X44.94 Y88.14 E0.06
G1 Y86.37 E0.093
G1 X44.1 Y85.44 E0.066
G1 Y83.67 E0.093
G1 X45.06 Y84.54 E0.068
G1 X45.24 Y84.27 E0.017
G1 X45.66 Y83.97 E0.027
G1 X46.17 Y83.91 E0.027
G1 X45.42 Y83.1 E0.058
G1 X47.19 E0.093
G1 X48.06 Y83.91 E0.062
G1 X49.83 E0.093
G1 X49.11 Y83.1 E0.057
G1 X50.88 E0.093
G1 X51.75 Y83.91 E0.062
G1 X53.52 E0.093
G1 X52.77 Y83.1 E0.058
G1 X54.54 E0.093
G1 X55.92 Y84.42 E0.1
G1 Y86.19 E0.093
G1 X55.08 Y85.41 E0.06
G1 Y87.18 E0.093
G1 X55.92 Y88.08 E0.064
G1 Y89.85 E0.093
G1 X55.08 Y89.1 E0.059
G1 Y90.87 E0.093
G1 X55.92 Y91.77 E0.064
G1 Y93.54 E0.093
G1 X55.08 Y92.76 E0.06
G1 Y94.53 E0.093
G1 X55.92 Y95.46 E0.066
G1 Y97.2 E0.091
G1 X55.08 Y96.45 E0.059
G1 Y98.22 E0.093
G1 X55.92 Y99.12 E0.064
G1 Y100.89 E0.093
G1 X55.08 Y100.11 E0.06
G1 Y101.88 E0.093
G1 X55.92 Y102.81 E0.066
G1 Y104.55 E0.091
G1 X55.08 Y103.8 E0.059
G1 Y105.57 E0.093
G1 X55.92 Y106.47 E0.064
G1 Y108.24 E0.093
G1 X55.08 Y107.49 E0.059
G1 Y109.23 E0.091
G1 X55.92 Y110.16 E0.066
G1 Y111.93 E0.093
G1 X55.08 Y111.15 E0.06
G1 Y112.92 E0.093
G1 X55.92 Y113.82 E0.064
G1 Y115.62 E0.094
G1 X55.11 Y114.9 E0.057
G1 X54.96 Y115.5 E0.032
G1 X54.48 Y115.98 E0.036
G1 X55.32 Y116.91 E0.066
G1 X53.55 E0.093
G1 X52.68 Y116.1 E0.062
G1 X50.91 E0.093
G1 X51.63 Y116.91 E0.057
G1 X49.89 E0.091
G1 X48.99 Y116.1 E0.063
G1 X47.22 E0.093
G1 X47.97 Y116.91 E0.058
G1 X46.2 E0.093
G1 X44.1 Y114.87 E0.153
G1 Y116.64 E0.093
G1 X44.28 Y116.91 E0.017
G1 F1995.6
G1 E-10.913
G1 F2000.0
G1 X122.22 Y93.21 F15000.0
G1 F1995.6
G1 E10.913
G1 F2000.0
G1 F99.8
G1 E0.109
G1 F2000.0
G1 X103.8 Y93.15 E0.965 F1800.0
G1 Y74.79 E0.962
G1 X122.22 Y74.85 E0.965
G1 Y93.21 E0.962
G1 X122.7 Y93.72 E0.037
G1 X103.29 Y93.66 E1.017
G1 Y74.28 E1.015
G1 X122.73 Y74.34 E1.018
G1 X122.7 Y93.72 E1.015
G1 F1995.6
G1 E-10.913
G1 F2000.0
G1 X122.22 Y93.21
G1 X121.44 Y75.12 F15000.0
G1 F1995.6
G1 E10.913
G1 F2000.0
G1 F99.8
G1 E0.109
G1 F2000.0
G1 X121.92 Y75.66 E0.038
G1 Y76.29 E0.033
G1 X120.66 Y75.12 E0.09
G1 X120.03 E0.033
G1 X121.92 Y77.07 E0.142
G1 Y77.7 E0.033
G1 X119.25 Y75.12 E0.194
G1 X118.62 E0.033
G1 X121.92 Y78.48 E0.247
G1 Y79.14 E0.035
G1 X117.84 Y75.12 E0.3
G1 X117.21 E0.033
G1 X121.92 Y79.92 E0.352
G1 Y80.55 E0.033
G1 X116.43 Y75.12 E0.405
G1 X115.8 E0.033
G1 X121.92 Y81.33 E0.457
G1 Y81.96 E0.033
G1 X115.02 Y75.12 E0.509
G1 X114.39 E0.033
G1 X121.92 Y82.74 E0.561
G1 Y83.37 E0.033
G1 X113.61 Y75.12 E0.613
G1 X112.95 Y75.09 E0.035
G1 X121.92 Y84.15 E0.668
G1 Y84.78 E0.033
G1 X112.14 Y75.09 E0.721
G1 X111.51 E0.033
G1 X121.92 Y85.56 E0.773
G1 Y86.19 E0.033
G1 X110.73 Y75.09 E0.826
G1 X110.1 E0.033
G1 X121.92 Y86.97 E0.878
G1 Y87.6 E0.033
G1 X109.32 Y75.09 E0.93
G1 X108.69 E0.033
G1 X121.92 Y88.38 E0.982
G1 Y89.01 E0.033
G1 X107.91 Y75.09 E1.035
G1 X107.28 E0.033
G1 X121.92 Y89.82 E1.088
G1 Y90.45 E0.033
G1 X106.5 Y75.09 E1.14
G1 X105.87 E0.033
G1 X121.92 Y91.23 E1.192
G1 Y91.86 E0.033
G1 X105.09 Y75.09 E1.245
G1 X104.46 E0.033
G1 X121.92 Y92.64 E1.297
G1 X121.89 Y92.91 E0.014
G1 X121.56 E0.017
G1 X104.1 Y75.51 E1.291
G1 Y76.14 E0.033
G1 X120.78 Y92.91 E1.239
G1 X120.15 E0.033
G1 X104.1 Y76.95 E1.186
G1 Y77.58 E0.033
G1 X119.37 Y92.91 E1.133
G1 X118.74 E0.033
G1 X104.1 Y78.36 E1.081
G1 Y78.99 E0.033
G1 X117.96 Y92.91 E1.029
G1 X117.33 E0.033
G1 X104.1 Y79.77 E0.977
G1 Y80.4 E0.033
G1 X116.55 Y92.91 E0.925
G1 X115.92 E0.033
G1 X104.1 Y81.18 E0.872
G1 Y81.81 E0.033
G1 X115.11 Y92.91 E0.819
G1 X114.48 E0.033
G1 X104.1 Y82.59 E0.767
G1 Y83.22 E0.033
G1 X113.7 Y92.91 E0.715
G1 X113.07 E0.033
G1 X104.1 Y84.0 E0.662
G1 Y84.63 E0.033
G1 X112.26 Y92.88 E0.608
G1 X111.63 E0.033
G1 X104.1 Y85.41 E0.556
G1 Y86.04 E0.033
G1 X110.85 Y92.88 E0.503
G1 X110.22 E0.033
G1 X104.1 Y86.85 E0.45
G1 Y87.48 E0.033
G1 X109.44 Y92.88 E0.398
G1 X108.81 E0.033
G1 X104.1 Y88.26 E0.346
G1 Y88.89 E0.033
G1 X108.03 Y92.88 E0.293
G1 X107.4 E0.033
G1 X104.1 Y89.67 E0.241
G1 Y90.3 E0.033
G1 X106.62 Y92.88 E0.189
G1 X105.99 E0.033
G1 X104.1 Y91.08 E0.137
G1 Y91.71 E0.033
G1 X105.18 Y92.88 E0.083
G1 X104.55 E0.033
G1 X104.1 Y92.43 E0.033
G1 F1995.6
G1 E-10.913
G1 F2000.0
G1 X123.21 Y122.22 F15000.0
G1 F1995.6
G1 E10.913
G1 F2000.0
G1 F99.8
G1 E0.109
G1 F2000.0
G1 X104.79 Y122.16 E0.965 F1800.0
G1 Y103.8 E0.962
G1 X123.21 Y103.86 E0.965
G1 Y122.22 E0.962
G1 X123.69 Y122.73 E0.037
G1 X104.28 Y122.67 E1.017
G1 Y103.29 E1.015
G1 X123.72 Y103.35 E1.018
G1 X123.69 Y122.73 E1.015
G1 F1995.6
G1 E-10.913
G1 F2000.0
G1 X123.21 Y122.22
G1 X105.09 Y121.71 F15000.0
G1 F1995.6
G1 E10.913
G1 F2000.0
G1 F99.8
G1 E0.109
G1 F2000.0
G1 X105.3 Y121.89 E0.014
G1 X105.93 E0.033
G1 X105.09 Y120.99 E0.064
G1 Y120.36 E0.033
G1 X106.71 Y121.89 E0.117
G1 X107.34 E0.033
G1 X105.09 Y119.58 E0.169
G1 Y118.95 E0.033
G1 X108.12 Y121.89 E0.221
G1 X108.75 E0.033
G1 X105.09 Y118.17 E0.273
G1 Y117.51 E0.035
G1 X109.53 Y121.89 E0.327
G1 X110.16 E0.033
G1 X105.09 Y116.73 E0.379
G1 Y116.1 E0.033
G1 X110.94 Y121.89 E0.431
G1 X111.57 E0.033
G1 X105.09 Y115.32 E0.483
G1 Y114.69 E0.033
G1 X112.35 Y121.89 E0.536
G1 X112.98 E0.033
G1 X105.09 Y113.91 E0.588
G1 Y113.28 E0.033
G1 X113.76 Y121.89 E0.64
G1 X114.45 Y121.92 E0.036
G1 X105.09 Y112.5 E0.696
G1 Y111.87 E0.033
G1 X115.23 Y121.92 E0.748
G1 X115.86 E0.033
G1 X105.09 Y111.09 E0.8
G1 Y110.46 E0.033
G1 X116.64 Y121.92 E0.852
G1 X117.27 E0.033
G1 X105.09 Y109.68 E0.905
G1 Y109.05 E0.033
G1 X118.05 Y121.92 E0.957
G1 X118.68 E0.033
G1 X105.09 Y108.27 E1.009
G1 Y107.61 E0.035
G1 X119.46 Y121.92 E1.062
G1 X120.09 E0.033
G1 X105.09 Y106.83 E1.115
G1 Y106.2 E0.033
G1 X120.87 Y121.92 E1.167
G1 X121.5 E0.033
G1 X105.09 Y105.42 E1.219
G1 Y104.79 E0.033
G1 X122.28 Y121.92 E1.271
G1 X122.91 E0.033
G1 X105.18 Y104.1 E1.317
G1 X105.81 E0.033
G1 X122.91 Y121.14 E1.265
G1 Y120.51 E0.033
G1 X106.59 Y104.1 E1.212
G1 X107.22 E0.033
G1 X122.91 Y119.7 E1.159
G1 Y119.07 E0.033
G1 X108.0 Y104.1 E1.107
G1 X108.63 E0.033
G1 X122.91 Y118.29 E1.055
G1 Y117.66 E0.033
G1 X109.41 Y104.1 E1.002
G1 X110.04 E0.033
G1 X122.91 Y116.88 E0.95
G1 Y116.25 E0.033
G1 X110.82 Y104.1 E0.898
G1 X111.45 E0.033
G1 X122.91 Y115.47 E0.846
G1 Y114.84 E0.033
G1 X112.26 Y104.1 E0.792
G1 X112.89 E0.033
G1 X122.91 Y114.06 E0.74
G1 Y113.43 E0.033
G1 X113.67 Y104.1 E0.688
G1 X114.33 Y104.13 E0.035
G1 X122.91 Y112.65 E0.633
G1 Y112.02 E0.033
G1 X115.11 Y104.13 E0.581
G1 X115.74 E0.033
G1 X122.91 Y111.24 E0.529
G1 Y110.61 E0.033
G1 X116.52 Y104.13 E0.477
G1 X117.15 E0.033
G1 X122.91 Y109.8 E0.423
G1 Y109.17 E0.033
G1 X117.93 Y104.13 E0.371
G1 X118.56 E0.033
G1 X122.91 Y108.39 E0.319
G1 Y107.76 E0.033
G1 X119.34 Y104.13 E0.267
G1 X119.97 E0.033
G1 X122.91 Y106.98 E0.214
G1 Y106.35 E0.033
G1 X120.75 Y104.13 E0.162
G1 X121.38 E0.033
G1 X122.91 Y105.57 E0.11
G1 Y104.94 E0.033
G1 X122.16 Y104.13 E0.058
G1 F1995.6
G1 E-10.913
G1 F2000.0
;#!LAYER: 13/25
G92 E0
G1 Z3.12 F200.0
G1 X43.8 Y82.8 F15000.0
G1 X52.0 Y87.5
T0
G1 F1995.6
G1 E10.913
G1 F2000.0
G1 F99.8
G1 E0.109
G1 F2000.0
G1 Y112.5 E1.31
G1 X51.5 E0.026
G1 Y87.5 E1.31
G1 X51.0 E0.026
G1 Y112.5 E1.31
G1 F1995.6
G1 E-10.913
G1 F2000.0
G1 X43.8 Y82.8 F15000.0
G1 F1995.6
G1 E10.913
G1 F2000.0
G1 F99.8
G1 E0.109
G1 F2000.0
G1 X56.22 E0.651 F1800.0
G1 Y117.21 E1.803
G1 X43.8 E0.651
G1 Y82.8 E1.803
G1 X43.29 Y82.29 E0.038
G1 X56.73 E0.704
G1 Y117.72 E1.856
G1 X43.29 E0.704
G1 Y82.29 E1.856
G1 F1995.6
G1 E-10.913
G1 F2000.0
G1 X43.8 Y82.8
G1 X45.87 Y84.24 F15000.0
G1 F1995.6
G1 E10.913
G1 F2000.0
G1 F99.8
G1 E0.109
G1 F2000.0
