; generated by Slic3r 0.9.9-dev on 2013-02-13 at 15:28:29

; layer_height = 0.4
; perimeters = 2
; top_solid_layers = 3
; bottom_solid_layers = 2
; fill_density = 0.2
; perimeter_speed = 40
; infill_speed = 50
; travel_speed = 250
; scale = 1
; nozzle_diameter = 0.5
; filament_diameter = 1.75
; extrusion_multiplier = 0.88
; perimeters extrusion width = 0.50mm
; infill extrusion width = 0.50mm
; first layer extrusion width = 0.50mm

M107
M190 S57 ; wait for bed temperature to be reached
M104 S190 ; set temperature
G28 X0 Y0
G1 X75 Y75 F12000
G28 Z0
G1 Z0.3 F200
G1 X15 Y20 F12000
M109 S190 ; wait for temperature to be reached
G90 ; use absolute coordinates
G21 ; set units to millimeters
G92 E0
M82 ; use absolute distances for extrusion
G1 F4800.000 E-2.40000
G92 E0
G1 Z0.400 F15000.000
G1 X16.467 Y15.490
G1 X16.847 Y15.120 F4800.000 E2.40000
G1 X16.847 Y15.120 F2400.000
G1 X17.467 Y14.640 E2.45737
G1 X18.137 Y14.230 E2.51485
G1 X18.607 Y14.010 E2.55282
G1 X19.097 Y13.820 E2.59128
G1 X19.857 Y13.620 E2.64878
G1 X20.117 Y13.570 E2.66816
G1 X20.637 Y13.510 E2.70646
G1 X21.157 Y13.490 E2.74454
G1 X137.667 Y13.490 E11.26984
G1 X138.567 Y13.550 E11.33584
G1 X139.157 Y13.660 E11.37976
G1 X140.017 Y13.930 E11.44571
G1 X195.177 Y35.270 E15.77342
G1 X195.667 Y35.480 E15.81243
G1 X195.907 Y35.610 E15.83240
G1 X196.367 Y35.880 E15.87143
G1 X196.807 Y36.190 E15.91081
G1 X197.417 Y36.730 E15.97043
G1 X197.777 Y37.120 E16.00926
G1 X198.267 Y37.770 E16.06883
G1 X198.667 Y38.470 E16.12782
G1 X198.977 Y39.210 E16.18653
G1 X199.127 Y39.730 E16.22613
G1 X199.277 Y40.520 E16.28497
G1 X199.307 Y40.790 E16.30484
G1 X199.327 Y41.330 E16.34438
G1 X199.327 Y157.830 E24.86896
G1 X199.307 Y158.370 E24.90850
G1 X199.187 Y159.180 E24.96841
G1 X199.127 Y159.440 E24.98794
G1 X198.877 Y160.220 E25.04787
G1 X198.657 Y160.710 E25.08717
G1 X198.527 Y160.950 E25.10715
G1 X198.247 Y161.420 E25.14718
G1 X197.927 Y161.860 E25.18699
G1 X197.577 Y162.270 E25.22643
G1 X196.987 Y162.830 E25.28595
G1 X196.327 Y163.310 E25.34567
G1 X195.617 Y163.700 E25.40494
G1 X140.457 Y189.870 E29.87235
G1 X139.927 Y190.100 E29.91462
G1 X139.377 Y190.270 E29.95675
G1 X138.817 Y190.400 E29.99881
G1 X138.247 Y190.470 E30.04083
G1 X137.667 Y190.500 E30.08333
G1 X21.157 Y190.500 E38.60864
G1 X20.637 Y190.480 E38.64671
G1 X20.117 Y190.420 E38.68502
G1 X19.597 Y190.310 E38.72391
G1 X19.097 Y190.170 E38.76190
G1 X18.857 Y190.080 E38.78066
G1 X18.367 Y189.870 E38.81966
G1 X17.907 Y189.630 E38.85763
G1 X17.257 Y189.200 E38.91466
G1 X16.847 Y188.870 E38.95317
G1 X16.287 Y188.310 E39.01112
G1 X15.957 Y187.900 E39.04963
G1 X15.527 Y187.250 E39.10666
G1 X15.397 Y187.020 E39.12599
G1 X15.177 Y186.550 E39.16396
G1 X14.987 Y186.060 E39.20242
G1 X14.787 Y185.300 E39.25992
G1 X14.737 Y185.040 E39.27929
G1 X14.677 Y184.520 E39.31760
G1 X14.657 Y184.000 E39.35567
G1 X14.657 Y19.990 E51.35666
G1 X14.677 Y19.470 E51.39474
G1 X14.737 Y18.950 E51.43304
G1 X14.847 Y18.430 E51.47193
G1 X14.987 Y17.930 E51.50993
G1 X15.077 Y17.690 E51.52868
G1 X15.287 Y17.200 E51.56769
G1 X15.527 Y16.740 E51.60565
G1 X15.957 Y16.090 E51.66268
G1 X16.415 Y15.544 E51.71482
G1 X16.467 Y15.490 E51.72031
G1 F4800.000 E49.32031
G92 E0
G1 X98.614 Y104.123 F15000.000
G1 X99.364 Y104.123 F4800.000 E2.40000
G1 X122.294 Y104.123 F936.000 E4.07782
G1 X122.294 Y122.877 E5.45015
G1 X98.539 Y122.877 E7.18834
G1 X98.539 Y104.198 E8.55518
G1 X98.614 Y104.123 E8.56295
G1 X98.539 Y104.198 F4800.000 E6.16295
G92 E0
G1 X123.502 Y112.800 F15000.000
G1 X123.759 Y112.296 F4800.000 E2.40000
G1 X123.759 Y112.296 F1560.000
G1 X124.212 Y111.842 E2.44690
G1 X124.784 Y111.551 E2.49381
G1 X125.417 Y111.451 E2.54071
G1 X126.050 Y111.551 E2.58762
G1 X126.621 Y111.842 E2.63452
G1 X127.074 Y112.296 E2.68142
G1 X127.365 Y112.867 E2.72833
G1 X127.465 Y113.500 E2.77523
G1 X127.365 Y114.133 E2.82213
G1 X127.074 Y114.704 E2.86904
G1 X126.621 Y115.158 E2.91594
G1 X126.050 Y115.449 E2.96285
G1 X125.417 Y115.549 E3.00975
G1 X124.784 Y115.449 E3.05666
G1 X124.212 Y115.158 E3.10356
G1 X123.759 Y114.704 E3.15046
G1 X123.468 Y114.133 E3.19736
G1 X123.368 Y113.500 E3.24427
G1 X123.456 Y112.941 E3.28569
G1 X123.502 Y112.800 E3.29653
G1 X123.456 Y112.941 F4800.000 E0.89653
G92 E0
G1 X97.454 Y113.574 F15000.000
G1 X97.365 Y114.133 F4800.000 E2.40000
G1 X97.365 Y114.133 F1560.000
G1 X97.074 Y114.704 E2.44691
G1 X96.621 Y115.158 E2.49381
G1 X96.050 Y115.449 E2.54071
G1 X95.417 Y115.549 E2.58762
G1 X94.784 Y115.449 E2.63452
G1 X94.212 Y115.158 E2.68142
G1 X93.759 Y114.704 E2.72833
G1 X93.468 Y114.133 E2.77523
G1 X93.368 Y113.500 E2.82214
G1 X93.468 Y112.867 E2.86904
G1 X93.759 Y112.296 E2.91594
G1 X94.212 Y111.842 E2.96285
G1 X94.784 Y111.551 E3.00975
G1 X95.417 Y111.451 E3.05665
G1 X96.050 Y111.551 E3.10356
G1 X96.621 Y111.842 E3.15046
G1 X97.074 Y112.296 E3.19736
G1 X97.365 Y112.867 E3.24427
G1 X97.454 Y113.426 E3.28569
G1 X97.454 Y113.574 E3.29653
G1 X97.801 Y114.379 F15000.000
G1 X97.484 Y115.002 F1440.000 E3.34765
G1 X96.918 Y115.567 E3.40614
G1 X96.206 Y115.930 E3.46463
G1 X95.417 Y116.055 E3.52313
G1 X94.627 Y115.930 E3.58162
G1 X93.915 Y115.567 E3.64012
G1 X93.350 Y115.002 E3.69861
G1 X92.987 Y114.290 E3.75710
G1 X92.862 Y113.500 E3.81559
G1 X92.987 Y112.710 E3.87409
G1 X93.350 Y111.998 E3.93258
G1 X93.915 Y111.433 E3.99107
G1 X94.627 Y111.070 E4.04956
G1 X95.417 Y110.945 E4.10806
G1 X96.206 Y111.070 E4.16655
G1 X96.918 Y111.433 E4.22504
G1 X97.484 Y111.998 E4.28354
G1 X97.835 Y112.688 E4.34015
G1 X98.039 Y112.638 E4.35552
G1 X98.039 Y103.623 E5.01523
G1 X122.794 Y103.623 E6.82660
G1 X122.794 Y112.638 E7.48631
G1 X122.998 Y112.688 E7.50169
G1 X123.350 Y111.998 E7.55830
G1 X123.915 Y111.433 E7.61679
G1 X124.627 Y111.070 E7.67528
G1 X125.417 Y110.945 E7.73378
G1 X126.206 Y111.070 E7.79227
G1 X126.918 Y111.433 E7.85076
G1 X127.484 Y111.998 E7.90925
G1 X127.847 Y112.710 E7.96775
G1 X127.972 Y113.500 E8.02624
G1 X127.847 Y114.290 E8.08473
G1 X127.484 Y115.002 E8.14323
G1 X126.918 Y115.567 E8.20173
G1 X126.206 Y115.930 E8.26022
G1 X125.417 Y116.055 E8.31871
G1 X124.627 Y115.930 E8.37721
G1 X123.915 Y115.567 E8.43570
G1 X123.350 Y115.002 E8.49419
G1 X122.998 Y114.312 E8.55080
G1 X122.794 Y114.362 E8.56618
G1 X122.794 Y123.377 E9.22589
G1 X98.039 Y123.377 E11.03725
G1 X98.039 Y114.701 E11.67210
G1 X97.801 Y114.379
G1 F4800.000 E9.27210
G92 E0
G1 X43.301 Y114.691 F15000.000
G1 X43.301 Y115.441 F4800.000 E2.40000
G1 X43.301 Y118.884 F936.000 E2.65195
G1 X35.533 Y118.884 E3.22038
G1 X35.533 Y114.616 E3.53270
G1 X43.226 Y114.616 E4.09564
G1 X43.301 Y114.691 E4.10340
G1 X43.801 Y114.191 F15000.000
G1 X43.801 Y119.384 F936.000 E4.48340
G1 X35.033 Y119.384 E5.12500
G1 X35.033 Y114.116 E5.51049
G1 X43.251 Y114.116 E6.11185
G1 X43.801 Y114.191
G1 F4800.000 E3.71185
G92 E0
G1 X21.167 Y128.425 F15000.000
G1 X21.167 Y127.675 F4800.000 E2.40000
G1 X21.167 Y75.500 F936.000 E6.21776
G1 X137.667 Y75.500 E14.74234
G1 X137.667 Y128.500 E18.62047
G1 X21.242 Y128.500 E27.13955
G1 X21.167 Y128.425 E27.14732
G1 X21.667 Y127.925 F15000.000
G1 X21.667 Y76.000 F1440.000 E30.94679
G1 X137.167 Y76.000 E39.39819
G1 X137.167 Y128.000 E43.20315
G1 X22.217 Y128.000 E51.61430
G1 X21.667 Y127.925
G1 X22.326 Y127.659 F15000.000
G1 X22.007 Y127.341 F1800.000 E51.64726
G1 X22.007 Y126.634 E51.69902
G1 X23.033 Y127.659 E51.80518
G1 X23.740 Y127.659 E51.85695
G1 X22.007 Y125.926 E52.03631
G1 X22.007 Y125.219 E52.08808
G1 X24.448 Y127.659 E52.34065
G1 X25.155 Y127.659 E52.39241
G1 X22.007 Y124.512 E52.71819
G1 X22.007 Y123.804 E52.76995
G1 X25.862 Y127.659 E53.16893
G1 X26.569 Y127.659 E53.22069
G1 X22.007 Y123.097 E53.69288
G1 X22.007 Y122.390 E53.74464
G1 X27.277 Y127.659 E54.29004
G1 X27.984 Y127.659 E54.34180
G1 X22.007 Y121.683 E54.96040
G1 X22.007 Y120.975 E55.01216
G1 X28.691 Y127.659 E55.70396
G1 X29.399 Y127.659 E55.75572
G1 X22.007 Y120.268 E56.52073
G1 X22.007 Y119.561 E56.57249
G1 X30.106 Y127.659 E57.41071
G1 X30.813 Y127.659 E57.46247
G1 X22.007 Y118.854 E58.37389
G1 X22.007 Y118.146 E58.42565
G1 X31.520 Y127.659 E59.41027
G1 X32.228 Y127.659 E59.46204
G1 X22.007 Y117.439 E60.51986
G1 X22.007 Y116.732 E60.57163
G1 X32.935 Y127.659 E61.70266
G1 X33.642 Y127.659 E61.75442
G1 X22.007 Y116.025 E62.95866
G1 X22.007 Y115.317 E63.01042
G1 X34.349 Y127.659 E64.28786
G1 X35.057 Y127.659 E64.33963
G1 X22.007 Y114.610 E65.69028
G1 X22.007 Y113.903 E65.74204
G1 X35.764 Y127.659 E67.16589
G1 X36.471 Y127.659 E67.21766
G1 X22.007 Y113.196 E68.71471
G1 X22.007 Y112.488 E68.76648
G1 X37.178 Y127.659 E70.33674
G1 X37.886 Y127.659 E70.38850
G1 X22.007 Y111.781 E72.03197
G1 X22.007 Y111.074 E72.08373
G1 X38.593 Y127.659 E73.80041
G1 X39.300 Y127.659 E73.85217
G1 X22.007 Y110.366 E75.64205
G1 X22.007 Y109.659 E75.69381
G1 X40.007 Y127.659 E77.55689
G1 X40.715 Y127.659 E77.60866
G1 X22.007 Y108.952 E79.54494
G1 X22.007 Y108.245 E79.59671
G1 X41.422 Y127.659 E81.60620
G1 X42.129 Y127.659 E81.65797
G1 X22.007 Y107.537 E83.74066
G1 X22.007 Y106.830 E83.79243
G1 X34.692 Y119.514 E85.10531
G1 X34.902 Y119.725 F15000.000
G1 X42.837 Y127.659 F1800.000 E85.92654
G1 X43.544 Y127.659 E85.97830
G1 X35.610 Y119.725 E86.79953
G1 X36.317 Y119.725 E86.85130
G1 X44.251 Y127.659 E87.67253
G1 X44.958 Y127.659 E87.72429
G1 X37.024 Y119.725 E88.54552
G1 X37.731 Y119.725 E88.59729
G1 X45.666 Y127.659 E89.41852
G1 X46.373 Y127.659 E89.47028
G1 X38.439 Y119.725 E90.29152
G1 X39.146 Y119.725 E90.34328
G1 X47.080 Y127.659 E91.16451
G1 X47.787 Y127.659 E91.21628
G1 X39.853 Y119.725 E92.03751
G1 X40.560 Y119.725 E92.08927
G1 X48.495 Y127.659 E92.91050
G1 X49.202 Y127.659 E92.96227
G1 X41.268 Y119.725 E93.78350
G1 X41.975 Y119.725 E93.83526
G1 X49.909 Y127.659 E94.65650
G1 X50.616 Y127.659 E94.70826
G1 X42.682 Y119.725 E95.52949
G1 X43.389 Y119.725 E95.58126
G1 X51.324 Y127.659 E96.40249
G1 X52.031 Y127.659 E96.45425
G1 X44.097 Y119.725 E97.27548
G1 X44.142 Y119.063 E97.32407
G1 X52.738 Y127.659 E98.21386
G1 X53.446 Y127.659 E98.26563
G1 X44.142 Y118.355 E99.22863
G1 X44.142 Y117.648 E99.28039
G1 X54.153 Y127.659 E100.31659
G1 X54.860 Y127.659 E100.36835
G1 X44.142 Y116.941 E101.47776
G1 X44.142 Y116.233 E101.52952
G1 X55.567 Y127.659 E102.71214
G1 X56.275 Y127.659 E102.76390
G1 X44.142 Y115.526 E104.01972
G1 X44.142 Y114.819 E104.07148
G1 X56.982 Y127.659 E105.40050
G1 X57.689 Y127.659 E105.45227
G1 X44.142 Y114.112 E106.85449
G1 X43.805 Y113.775 F15000.000
G1 X22.007 Y91.978 F1800.000 E109.11063
G1 X22.007 Y92.685 E109.16239
G1 X43.098 Y113.775 E111.34533
G1 X42.390 Y113.775 E111.39709
G1 X22.007 Y93.392 E113.50682
G1 X22.007 Y94.099 E113.55858
G1 X41.683 Y113.775 E115.59511
G1 X40.976 Y113.775 E115.64687
G1 X22.007 Y94.807 E117.61019
G1 X22.007 Y95.514 E117.66195
G1 X40.269 Y113.775 E119.55207
G1 X39.561 Y113.775 E119.60383
G1 X22.007 Y96.221 E121.42074
G1 X22.007 Y96.928 E121.47250
G1 X38.854 Y113.775 E123.21620
G1 X38.147 Y113.775 E123.26797
G1 X22.007 Y97.636 E124.93847
G1 X22.007 Y98.343 E124.99023
G1 X37.440 Y113.775 E126.58752
G1 X36.732 Y113.775 E126.63929
G1 X22.007 Y99.050 E128.16337
G1 X22.007 Y99.757 E128.21514
G1 X36.025 Y113.775 E129.66602
G1 X35.318 Y113.775 E129.71778
G1 X22.007 Y100.465 E131.09546
G1 X22.007 Y101.172 E131.14722
G1 X34.692 Y113.856 E132.46010
G1 X34.692 Y114.564 E132.51187
G1 X22.007 Y101.879 E133.82474
G1 X22.007 Y102.587 E133.87651
G1 X34.692 Y115.271 E135.18939
G1 X34.692 Y115.978 E135.24115
G1 X22.007 Y103.294 E136.55403
G1 X22.007 Y104.001 E136.60579
G1 X34.692 Y116.685 E137.91867
G1 X34.692 Y117.393 E137.97043
G1 X22.007 Y104.708 E139.28331
G1 X22.007 Y105.416 E139.33508
G1 X34.692 Y118.100 E140.64795
G1 X34.692 Y118.807 E140.69972
G1 X22.007 Y106.123 E142.01260
G1 F4800.000 E139.61260
G92 E0
G1 X22.007 Y91.270 F15000.000
G1 X22.538 Y91.801 F4800.000 E2.40000
G1 X58.396 Y127.659 F1800.000 E6.11152
G1 X59.104 Y127.659 E6.16329
G1 X22.007 Y90.563 E10.00291
G1 X22.007 Y89.856 E10.05467
G1 X59.811 Y127.659 E13.96750
G1 X60.518 Y127.659 E14.01926
G1 X22.007 Y89.148 E18.00529
G1 X22.007 Y88.441 E18.05705
G1 X61.225 Y127.659 E22.11629
G1 X61.933 Y127.659 E22.16805
G1 X22.007 Y87.734 E26.30049
G1 X22.007 Y87.027 E26.35226
G1 X62.640 Y127.659 E30.55790
G1 X63.347 Y127.659 E30.60966
G1 X22.007 Y86.319 E34.88851
G1 X22.007 Y85.612 E34.94028
G1 X64.054 Y127.659 E39.29233
G1 X64.762 Y127.659 E39.34410
G1 X22.007 Y84.905 E43.76936
G1 X22.007 Y84.198 E43.82112
G1 X65.469 Y127.659 E48.31959
G1 X66.176 Y127.659 E48.37135
G1 X22.007 Y83.490 E52.94302
G1 X22.007 Y82.783 E52.99478
G1 X66.884 Y127.659 E57.63966
G1 X67.591 Y127.659 E57.69142
G1 X22.007 Y82.076 E62.40950
G1 X22.007 Y81.369 E62.46127
G1 X68.298 Y127.659 E67.25255
G1 X69.005 Y127.659 E67.30432
G1 X22.007 Y80.661 E72.16881
G1 X22.007 Y79.954 E72.22057
G1 X69.713 Y127.659 E77.15827
G1 X70.420 Y127.659 E77.21003
G1 X22.007 Y79.247 E82.22093
G1 X22.007 Y78.540 E82.27270
G1 X71.127 Y127.659 E87.35680
G1 X71.834 Y127.659 E87.40857
G1 X22.007 Y77.832 E92.56588
G1 X22.007 Y77.125 E92.61764
G1 X72.542 Y127.659 E97.84816
G1 X73.249 Y127.659 E97.89992
G1 X22.007 Y76.418 E103.20364
G1 X22.638 Y76.341 E103.25012
G1 X73.956 Y127.659 E108.56180
G1 X74.663 Y127.659 E108.61357
G1 X23.345 Y76.341 E113.92525
G1 X24.052 Y76.341 E113.97701
G1 X75.371 Y127.659 E119.28870
G1 X76.078 Y127.659 E119.34046
G1 X24.760 Y76.341 E124.65215
G1 X25.467 Y76.341 E124.70391
G1 X76.785 Y127.659 E130.01559
G1 X77.493 Y127.659 E130.06736
G1 X26.174 Y76.341 E135.37904
G1 X26.881 Y76.341 E135.43081
G1 X78.200 Y127.659 E140.74249
G1 X78.907 Y127.659 E140.79425
G1 X27.589 Y76.341 E146.10594
G1 X28.296 Y76.341 E146.15770
G1 X79.614 Y127.659 E151.46939
G1 X80.322 Y127.659 E151.52115
G1 X29.003 Y76.341 E156.83283
G1 X29.710 Y76.341 E156.88460
G1 X81.029 Y127.659 E162.19628
G1 X81.736 Y127.659 E162.24804
G1 X30.418 Y76.341 E167.55973
G1 X31.125 Y76.341 E167.61149
G1 X82.443 Y127.659 E172.92318
G1 X83.151 Y127.659 E172.97494
G1 X31.832 Y76.341 E178.28662
G1 X32.539 Y76.341 E178.33839
G1 X83.858 Y127.659 E183.65007
G1 X84.565 Y127.659 E183.70184
G1 X33.247 Y76.341 E189.01352
G1 X33.954 Y76.341 E189.06528
G1 X85.272 Y127.659 E194.37697
G1 X85.980 Y127.659 E194.42873
G1 X34.661 Y76.341 E199.74042
G1 X35.369 Y76.341 E199.79218
G1 X86.687 Y127.659 E205.10386
G1 X87.394 Y127.659 E205.15563
G1 X36.076 Y76.341 E210.46731
G1 X36.783 Y76.341 E210.51908
G1 X88.102 Y127.659 E215.83076
G1 X88.809 Y127.659 E215.88252
G1 X37.490 Y76.341 E221.19421
G1 X38.198 Y76.341 E221.24597
G1 X89.516 Y127.659 E226.55766
G1 X90.223 Y127.659 E226.60942
G1 X38.905 Y76.341 E231.92110
G1 X39.612 Y76.341 E231.97287
G1 X90.931 Y127.659 E237.28455
G1 X91.638 Y127.659 E237.33632
G1 X40.319 Y76.341 E242.64800
G1 X41.027 Y76.341 E242.69976
G1 X92.345 Y127.659 E248.01145
G1 X93.052 Y127.659 E248.06321
G1 X41.734 Y76.341 E253.37490
G1 X42.441 Y76.341 E253.42666
G1 X93.760 Y127.659 E258.73834
G1 X94.467 Y127.659 E258.79011
G1 X43.148 Y76.341 E264.10179
G1 X43.856 Y76.341 E264.15356
G1 X95.174 Y127.659 E269.46524
G1 X95.881 Y127.659 E269.51700
G1 X44.563 Y76.341 E274.82869
G1 X45.270 Y76.341 E274.88045
G1 X96.589 Y127.659 E280.19214
G1 X97.296 Y127.659 E280.24390
G1 X45.978 Y76.341 E285.55558
G1 X46.685 Y76.341 E285.60735
G1 X98.003 Y127.659 E290.91903
G1 X98.710 Y127.659 E290.97079
G1 X47.392 Y76.341 E296.28248
G1 X48.099 Y76.341 E296.33424
G1 X99.418 Y127.659 E301.64593
G1 X100.125 Y127.659 E301.69769
G1 X48.807 Y76.341 E307.00937
G1 X49.514 Y76.341 E307.06114
G1 X100.832 Y127.659 E312.37282
G1 X101.540 Y127.659 E312.42459
G1 X97.599 Y123.718 E312.83250
G1 X97.698 Y123.818 F15000.000
G1 X50.221 Y76.341 F1800.000 E317.74662
G1 X50.928 Y76.341 E317.79838
G1 X97.698 Y123.111 E322.63930
G1 X97.698 Y122.404 E322.69106
G1 X51.636 Y76.341 E327.45877
G1 X52.343 Y76.341 E327.51053
G1 X97.698 Y121.696 E332.20503
G1 X97.698 Y120.989 E332.25680
G1 X53.050 Y76.341 E336.87810
G1 X53.757 Y76.341 E336.92986
G1 X97.698 Y120.282 E341.47795
G1 X97.698 Y119.575 E341.52972
G1 X94.388 Y116.264 E341.87234
G1 X95.229 Y116.397 E341.93461
G1 X97.698 Y118.867 E342.19025
G1 X97.698 Y118.160 E342.24201
G1 X95.847 Y116.309 E342.43363
