; GCode generated by RepRap Java Host Software
; Created: 2012-12-29:14-37-22
;#!RECTANGLE: <BOX x:[l:13.0, h:127.20000076293945], y:[l:25.0, h:111.5]>, height: 17.000051192506362
M110
G21
G90
G10 P0 X0 Y0 Z0 S205.0 R205.0
M83
G92 E0
G28 X0
G28 Y0
G28 Z0
T0
G1 X100.0 Y100.0 F15000.0
T0
G1 F5612.6
G1 E3.118
G1 F2500.0
G1 F78.0
G1 E0.065
G1 F2500.0
G1 X25.0 Y0.0 E3.898
G1 F5612.6
G1 E-3.118
G1 F2500.0
G1 Z0.25 F200.0
G1 X11.8 Y23.8 F2500.0
G1 F5612.6
G1 E3.118
G1 F2500.0
G1 F78.0
G1 E0.065
G1 F2500.0
G1 X128.4 E3.636
G1 Y112.7 E2.772
G1 X11.8 E3.636
G1 Y23.8 E2.772
G1 F5612.6
G1 E-3.118
G1 F2500.0
;#!LAYER: 1/68
G92 E0
G1 Z0.25 F200.0
G1 X30.3 Y52.11 F15000.0
T0
G1 F5612.6
G1 E3.118
G1 F2500.0
G1 F78.0
G1 E0.065
G1 F2500.0
G1 X25.0 Y0.0 E1.633
G1 F5612.6
G1 E-3.118
G1 F2500.0
G1 X30.3 Y52.11 F15000.0
G1 F5612.6
G1 E3.118
G1 F2500.0
G1 F78.0
G1 E0.065
G1 F2500.0
G1 X30.51 Y51.99 E0.008 F2250.0
G1 X31.56 Y50.88 E0.048
G1 X31.65 Y50.52 E0.012
G1 Y49.32 E0.037
G1 X31.56 Y49.05 E0.009
G1 X30.42 Y47.91 E0.05
G1 X30.21 Y47.85 E0.007
G1 X28.74 E0.046
G1 X28.53 Y47.97 E0.008
G1 X27.48 Y49.02 E0.046
G1 X27.39 Y49.38 E0.012
G1 X27.45 Y50.91 E0.048
G1 X28.56 Y52.08 E0.05
G1 X28.77 Y52.14 E0.007
G1 X30.3 Y52.11 E0.048
G1 X30.24 Y51.84 E0.009
G1 X31.32 Y50.73 E0.048
G1 X31.35 Y49.32 E0.044
G1 X30.24 Y48.15 E0.05
G1 X28.77 E0.046
G1 X27.72 Y49.2 E0.046
G1 X27.69 Y50.73 E0.048
G1 X28.74 Y51.84 E0.048
G1 X30.24 E0.047
G1 F5612.6
G1 E-3.118
G1 F2500.0
G1 X30.3 Y52.11
G1 X37.62 Y77.7 F15000.0
G1 F5612.6
G1 E3.118
G1 F2500.0
G1 F78.0
G1 E0.065
G1 F2500.0
G1 X36.63 Y77.19 E0.035 F2250.0
G1 X35.13 Y76.86 E0.048
G1 X33.99 Y76.89 E0.036
G1 X33.18 Y77.04 E0.026
G1 X32.28 Y77.37 E0.03
G1 X31.32 Y77.94 E0.035
G1 X30.42 Y78.75 E0.038
G1 X29.85 Y79.53 E0.03
G1 X29.46 Y80.28 E0.026
G1 X29.1 Y81.42 E0.037
G1 X29.07 Y83.25 E0.057
G1 X29.34 Y84.45 E0.038
G1 X29.79 Y85.35 E0.031
G1 X30.3 Y86.1 E0.028
G1 X31.14 Y86.94 E0.037
G1 X31.74 Y87.36 E0.023
G1 X32.94 Y87.9 E0.041
G1 X34.47 Y88.17 E0.048
G1 X35.55 Y88.08 E0.034
G1 X35.97 Y88.02 E0.013
G1 X36.69 Y87.78 E0.024
G1 X37.5 Y87.36 E0.028
G1 X38.58 Y86.55 E0.042
G1 X39.12 Y85.95 E0.025
G1 X39.63 Y85.17 E0.029
G1 X40.11 Y83.91 E0.042
G1 X40.29 Y82.8 E0.035
G1 X40.23 Y81.6 E0.037
G1 X40.14 Y81.15 E0.014
G1 X39.75 Y80.07 E0.036
G1 X39.12 Y79.08 E0.037
G1 X38.19 Y78.09 E0.042
G1 X37.62 Y77.7 E0.022
G1 X37.47 Y77.94 E0.009
G1 X36.51 Y77.49 E0.033
G1 X35.67 Y77.25 E0.027
G1 X34.56 Y77.13 E0.035
G1 X33.84 Y77.22 E0.023
G1 X33.09 Y77.37 E0.024
G1 X32.37 Y77.67 E0.024
G1 X31.53 Y78.15 E0.03
G1 X30.51 Y79.11 E0.044
G1 X30.03 Y79.83 E0.027
G1 X29.73 Y80.43 E0.021
G1 X29.37 Y81.63 E0.039
G1 Y83.25 E0.051
G1 X29.55 Y84.15 E0.029
G1 X29.91 Y84.96 E0.028
G1 X30.54 Y85.92 E0.036
G1 X31.32 Y86.7 E0.034
G1 X31.98 Y87.15 E0.025
G1 X33.45 Y87.72 E0.049
G1 X34.5 Y87.87 E0.033
G1 X35.79 Y87.75 E0.04
G1 X36.42 Y87.57 E0.02
G1 X37.26 Y87.18 E0.029
G1 X38.49 Y86.22 E0.049
G1 X38.97 Y85.65 E0.023
G1 X39.63 Y84.48 E0.042
G1 X39.93 Y83.28 E0.039
G1 X39.96 Y82.14 E0.036
G1 X39.93 Y81.63 E0.016
G1 X39.48 Y80.19 E0.047
G1 X38.7 Y79.02 E0.044
G1 X38.01 Y78.33 E0.03
G1 X37.47 Y77.94 E0.021
G1 F5612.6
G1 E-3.118
G1 F2500.0
G1 X37.62 Y77.7
G1 X44.16 Y80.43 F15000.0
G1 F5612.6
G1 E3.118
G1 F2500.0
G1 F78.0
G1 E0.065
G1 F2500.0
G1 X43.98 Y80.52 E0.006 F2250.0
G1 X42.99 Y81.51 E0.044
G1 X42.96 Y77.22 E0.134
G1 X44.28 Y77.37 E0.041
G1 X46.2 Y77.31 E0.06
G1 X47.67 Y77.1 E0.046
G1 X49.35 Y76.56 E0.055
G1 X50.61 Y75.96 E0.044
G1 X50.19 Y76.38 E0.019
G1 X49.8 Y77.07 E0.025
G1 X49.56 Y77.91 E0.027
G1 X49.5 Y92.01 E0.44
G1 X42.96 E0.204
G1 Y83.46 E0.267
G1 X44.13 Y84.57 E0.05
G1 X44.31 Y84.63 E0.006
G1 X45.81 Y84.6 E0.047
G1 X45.99 Y84.51 E0.006
G1 X47.07 Y83.4 E0.048
G1 X47.13 Y83.19 E0.007
G1 X47.07 Y81.6 E0.05
G1 X45.9 Y80.43 E0.052
G1 X45.69 Y80.37 E0.007
G1 X44.16 Y80.43 E0.048
G1 X44.22 Y80.7 E0.009
G1 X43.23 Y81.69 E0.044
G1 X43.2 Y83.22 E0.048
G1 X44.28 Y84.33 E0.048
G1 X45.78 Y84.3 E0.047
G1 X46.83 Y83.22 E0.047
G1 X46.8 Y81.78 E0.045
G1 X45.72 Y80.67 E0.048
G1 X44.22 Y80.7 E0.047
G1 F5612.6
G1 E-3.118
G1 F2500.0
G1 X44.16 Y80.43
G1 X52.02 Y75.12 F15000.0
G1 F5612.6
G1 E3.118
G1 F2500.0
G1 F78.0
G1 E0.065
G1 F2500.0
G1 X53.7 Y73.59 E0.071 F2250.0
G1 X54.3 Y72.9 E0.029
G1 X55.11 Y71.7 E0.045
G1 X56.13 Y69.63 E0.072
G1 X56.61 Y67.86 E0.057
G1 X56.85 Y66.24 E0.051
G1 Y64.5 E0.054
G1 X56.52 Y62.67 E0.058
G1 X56.25 Y61.71 E0.031
G1 X55.83 Y60.63 E0.036
G1 X55.17 Y59.37 E0.044
G1 X54.09 Y57.87 E0.058
G1 X53.31 Y57.0 E0.036
G1 X51.99 Y55.89 E0.054
G1 X50.22 Y54.81 E0.065
G1 X49.14 Y54.36 E0.036
G1 X47.16 Y53.82 E0.064
G1 X45.69 Y53.64 E0.046
G1 X43.89 Y53.67 E0.056
G1 X42.81 Y53.82 E0.034
G1 X41.31 Y54.21 E0.048
G1 X40.5 Y54.51 E0.027
G1 X38.82 Y55.35 E0.059
G1 X37.17 Y56.58 E0.064
G1 X35.64 Y58.17 E0.069
G1 X34.89 Y59.25 E0.041
G1 X33.9 Y61.26 E0.07
G1 X33.3 Y63.42 E0.07
G1 X33.15 Y64.74 E0.041
G1 X33.21 Y67.08 E0.073
G1 X33.69 Y69.18 E0.067
G1 X34.26 Y70.53 E0.046
G1 X34.86 Y71.67 E0.04
G1 X35.88 Y73.11 E0.055
G1 X37.44 Y74.67 E0.069
G1 X38.7 Y75.57 E0.048
G1 X39.75 Y76.14 E0.037
G1 X40.98 Y76.68 E0.042
G1 Y92.01 E0.478
G1 X30.36 Y91.95 E0.331
G1 Y87.36 E0.143
G1 X30.27 Y87.09 E0.009
G1 X29.91 Y86.88 E0.013
G1 X25.98 Y86.85 E0.123
G1 X25.92 Y53.28 E1.047
G1 X25.77 Y53.1 E0.007
G1 X25.56 Y53.01 E0.007
G1 X23.22 Y52.98 E0.073
G1 Y46.5 E0.202
G1 X64.02 E1.272
G1 X63.99 Y75.0 E0.889
G1 X52.2 Y75.09 E0.368
G1 X52.02 Y75.12 E0.006
G1 X52.08 Y75.39 E0.009
G1 X51.21 Y75.84 E0.031
G1 X50.43 Y76.56 E0.033
G1 X49.89 Y77.7 E0.039
G1 X49.83 Y78.27 E0.018
G1 X49.8 Y92.31 E0.438
G1 X42.66 E0.223
G1 Y76.83 E0.483
G1 X44.61 Y77.07 E0.061
G1 X46.92 Y76.92 E0.072
G1 X47.52 Y76.83 E0.019
G1 X49.71 Y76.08 E0.072
G1 X50.94 Y75.42 E0.044
G1 X51.9 Y74.79 E0.036
G1 X53.13 Y73.74 E0.05
G1 X54.06 Y72.72 E0.043
G1 X54.87 Y71.52 E0.045
G1 X55.59 Y70.14 E0.049
G1 X56.16 Y68.52 E0.054
G1 X56.49 Y66.75 E0.056
G1 X56.55 Y64.77 E0.062
G1 X56.52 Y64.23 E0.017
G1 X56.37 Y63.21 E0.032
G1 X55.71 Y61.14 E0.068
G1 X55.41 Y60.45 E0.023
G1 X54.48 Y58.86 E0.057
G1 X53.07 Y57.18 E0.068
G1 X51.57 Y55.95 E0.06
G1 X50.13 Y55.11 E0.052
G1 X48.09 Y54.33 E0.068
G1 X46.17 Y53.97 E0.061
G1 X44.55 Y53.91 E0.051
G1 X42.84 Y54.12 E0.054
G1 X40.86 Y54.69 E0.064
G1 X40.32 Y54.9 E0.018
G1 X39.03 Y55.59 E0.046
G1 X37.56 Y56.64 E0.056
G1 X35.94 Y58.26 E0.071
G1 X35.25 Y59.22 E0.037
G1 X34.14 Y61.47 E0.078
G1 X33.6 Y63.45 E0.064
G1 X33.45 Y64.74 E0.04
G1 X33.51 Y66.75 E0.063
G1 X33.69 Y67.98 E0.039
G1 X33.96 Y69.03 E0.034
G1 X34.53 Y70.41 E0.047
G1 X35.16 Y71.58 E0.041
G1 X36.15 Y72.96 E0.053
G1 X37.59 Y74.4 E0.063
G1 X38.91 Y75.33 E0.05
G1 X39.9 Y75.9 E0.036
G1 X41.28 Y76.5 E0.047
G1 Y92.31 E0.493
G1 X30.06 Y92.28 E0.35
G1 X30.03 Y87.33 E0.154
G1 X29.88 Y87.18 E0.007
G1 X25.68 Y87.15 E0.131
G1 Y53.49 E1.05
G1 X25.5 Y53.31 E0.008
G1 X22.92 Y53.28 E0.08
G1 Y46.2 E0.221
G1 X64.32 E1.291
G1 X64.29 Y75.3 E0.907
G1 X52.08 Y75.39 E0.381
G1 F5612.6
G1 E-3.118
G1 F2500.0
G1 X52.02 Y75.12
G1 X61.32 Y52.11 F15000.0
G1 F5612.6
G1 E3.118
G1 F2500.0
G1 F78.0
G1 E0.065
G1 F2500.0
G1 X61.53 Y51.99 E0.008 F2250.0
G1 X62.55 Y50.94 E0.046
G1 X62.61 Y50.76 E0.006
G1 Y49.29 E0.046
G1 X62.52 Y49.02 E0.009
G1 X61.35 Y47.91 E0.05
G1 X61.17 Y47.85 E0.006
G1 X59.73 E0.045
G1 X59.52 Y47.97 E0.008
G1 X58.47 Y49.02 E0.046
G1 X58.38 Y50.76 E0.054
G1 X58.5 Y51.0 E0.008
G1 X59.61 Y52.08 E0.048
G1 X59.79 Y52.14 E0.006
G1 X61.32 Y52.11 E0.048
G1 X61.26 Y51.84 E0.009
G1 X62.31 Y50.79 E0.046
G1 Y49.29 E0.047
G1 X61.2 Y48.15 E0.05
G1 X59.73 Y48.18 E0.046
G1 X58.71 Y49.2 E0.045
G1 X58.65 Y50.67 E0.046
G1 X59.76 Y51.84 E0.05
G1 X61.26 E0.047
G1 F5612.6
G1 E-3.118
G1 F2500.0
G1 X61.32 Y52.11
G1 X60.57 Y49.26 F15000.0
G1 F5612.6
G1 E3.118
G1 F2500.0
G1 F78.0
G1 E0.065
G1 F2500.0
G1 X61.23 Y49.98 E0.03
G1 X61.2 Y50.35 E0.012
G1 Y50.37 E0.001
G1 F5612.6
G1 E-3.118
G1 F2500.0
G1 X60.78 Y50.73
G1 X60.15 Y50.7
G1 X59.76 Y50.25
G1 X59.79 Y49.65
G1 X60.24 Y49.26
G1 X61.44 Y47.85 F15000.0
G1 F5612.6
G1 E3.118
G1 F2500.0
G1 F78.0
G1 E0.065
G1 F2500.0
G1 X62.67 Y46.59 E0.055
G1 X63.03 E0.011
G1 X61.65 Y48.03 E0.062
G1 X61.83 Y48.21 E0.008
G1 X63.51 Y46.59 E0.073
G1 X63.87 E0.011
G1 X62.1 Y48.48 E0.081
G1 X62.25 Y48.63 E0.007
G1 X63.93 Y47.04 E0.072
G1 Y47.37 E0.01
G1 X62.52 Y48.9 E0.065
G1 X62.64 Y49.08 E0.007
G1 X63.93 Y47.88 E0.055
G1 Y48.24 E0.011
G1 X62.7 Y49.53 E0.056
G1 Y49.89 E0.011
G1 X63.93 Y48.72 E0.053
G1 Y49.08 E0.011
G1 X62.7 Y50.37 E0.056
G1 X62.73 Y50.7 E0.01
G1 X63.93 Y49.56 E0.052
G1 F5612.6
G1 E-3.118
G1 F2500.0
G1 X62.22 Y46.59 F15000.0
G1 F5612.6
G1 E3.118
G1 F2500.0
G1 F78.0
G1 E0.065
G1 F2500.0
G1 X60.99 Y47.76 E0.053
G1 X60.66 E0.01
G1 X61.74 Y46.59 E0.05
G1 X61.41 E0.01
G1 X60.15 Y47.76 E0.054
G1 X59.82 E0.01
G1 X60.9 Y46.59 E0.05
G1 X60.54 E0.011
G1 X51.66 Y55.53 E0.393
G1 X51.87 Y55.68 E0.008
G1 X58.29 Y49.35 E0.281
G1 X58.26 Y49.71 E0.011
G1 X52.14 Y55.92 E0.272
G1 X52.35 Y56.04 E0.008
G1 X58.26 Y50.13 E0.261
G1 F5612.6
G1 E-3.118
G1 F2500.0
G1 X58.41 Y46.59 F15000.0
G1 F5612.6
G1 E3.118
G1 F2500.0
G1 F78.0
G1 E0.065
G1 F2500.0
G1 X50.22 Y54.72 E0.36
G1 X49.98 Y54.63 E0.008
G1 X57.93 Y46.59 E0.353
G1 X57.57 E0.011
G1 X49.65 Y54.48 E0.349
G1 X49.38 Y54.36 E0.009
G1 X57.09 Y46.59 E0.341
G1 X56.73 E0.011
G1 X49.05 Y54.24 E0.338
G1 X48.78 Y54.15 E0.009
G1 X56.22 Y46.59 E0.331
G1 X55.89 E0.01
G1 X48.39 Y54.0 E0.329
G1 X48.12 Y53.94 E0.009
G1 X55.38 Y46.59 E0.322
G1 X55.05 E0.01
G1 X47.7 Y53.85 E0.322
G1 X47.43 Y53.79 E0.009
G1 X54.54 Y46.59 E0.316
G1 X54.18 E0.011
G1 X47.07 Y53.7 E0.314
G1 X46.71 Y53.64 E0.011
G1 X53.7 Y46.59 E0.31
G1 X53.31 E0.012
G1 X46.26 Y53.58 E0.31
G1 X45.96 Y53.55 E0.009
G1 X52.83 Y46.59 E0.305
G1 X52.5 E0.01
G1 X45.48 Y53.55 E0.308
G1 X45.15 Y53.52 E0.01
G1 X51.99 Y46.59 E0.304
G1 X51.63 E0.011
G1 X44.64 Y53.52 E0.307
G1 X44.25 Y53.55 E0.012
G1 X51.15 Y46.59 E0.306
G1 X50.79 E0.011
G1 X43.71 Y53.61 E0.311
G1 X43.29 Y53.67 E0.013
G1 X50.28 Y46.59 E0.31
G1 X49.95 E0.01
G1 X42.69 Y53.76 E0.318
G1 X42.24 Y53.88 E0.015
G1 X49.44 Y46.59 E0.319
G1 X49.11 E0.01
G1 X41.64 Y54.03 E0.329
G1 F5612.6
G1 E-3.118
G1 F2500.0
G1 X41.04 Y54.21 F15000.0
G1 F5612.6
G1 E3.118
G1 F2500.0
G1 F78.0
G1 E0.065
G1 F2500.0
G1 X48.6 Y46.59 E0.335
G1 X48.24 E0.011
G1 X40.26 Y54.51 E0.351
G1 X39.54 Y54.87 E0.025
G1 X47.82 Y46.59 E0.365
G1 F5612.6
G1 E-3.118
G1 F2500.0
G1 X50.55 Y54.9 F15000.0
G1 F5612.6
G1 E3.118
G1 F2500.0
G1 F78.0
G1 E0.065
G1 F2500.0
G1 X58.86 Y46.59 E0.366
G1 X59.19 E0.01
G1 X50.82 Y55.05 E0.371
G1 X51.06 Y55.2 E0.009
G1 X59.7 Y46.59 E0.38
G1 X60.06 E0.011
G1 X51.36 Y55.38 E0.386
G1 F5612.6
G1 E-3.118
G1 F2500.0
G1 X52.59 Y56.25 F15000.0
G1 F5612.6
G1 E3.118
G1 F2500.0
G1 F78.0
G1 E0.065
G1 F2500.0
G1 X58.26 Y50.58 E0.25
G1 X58.32 Y50.88 E0.01
G1 X52.83 Y56.46 E0.244
G1 X53.01 Y56.61 E0.007
G1 X58.53 Y51.15 E0.242
G1 X58.71 Y51.33 E0.008
G1 X53.25 Y56.85 E0.242
G1 X53.46 Y57.03 E0.009
G1 X58.98 Y51.6 E0.241
G1 X59.13 Y51.75 E0.007
G1 X53.7 Y57.3 E0.242
G1 X53.85 Y57.48 E0.007
G1 X59.4 Y52.02 E0.243
G1 X59.55 Y52.17 E0.007
G1 X54.09 Y57.72 E0.243
G1 X54.27 Y57.93 E0.009
G1 X60.0 Y52.23 E0.252
G1 X60.36 E0.011
G1 X54.48 Y58.2 E0.261
G1 X54.63 Y58.41 E0.008
G1 X60.84 Y52.23 E0.273
G1 X61.2 E0.011
G1 X54.84 Y58.68 E0.282
G1 X54.99 Y58.89 E0.008
G1 X63.93 Y50.01 E0.393
G1 Y50.34 E0.01
G1 X55.17 Y59.22 E0.389
G1 X55.29 Y59.4 E0.007
G1 X63.93 Y50.85 E0.379
G1 Y51.21 E0.011
G1 X55.47 Y59.73 E0.374
G1 X55.59 Y59.97 E0.008
G1 X63.93 Y51.69 E0.366
G1 Y52.05 E0.011
G1 X55.77 Y60.3 E0.362
G1 X55.89 Y60.54 E0.008
G1 X63.93 Y52.56 E0.353
G1 Y52.89 E0.01
G1 X56.04 Y60.87 E0.35
G1 X56.13 Y61.11 E0.008
G1 X63.93 Y53.4 E0.342
G1 Y53.73 E0.01
G1 X56.28 Y61.47 E0.339
G1 X56.37 Y61.74 E0.009
G1 X63.93 Y54.24 E0.332
G1 Y54.6 E0.011
G1 X56.49 Y62.13 E0.33
G1 X56.55 Y62.4 E0.009
G1 X63.93 Y55.08 E0.324
G1 Y55.44 E0.011
G1 X56.67 Y62.79 E0.322
G1 X56.73 Y63.06 E0.009
G1 X63.93 Y55.95 E0.316
G1 Y56.28 E0.01
G1 X56.79 Y63.51 E0.317
G1 X56.85 Y63.78 E0.009
G1 X63.93 Y56.79 E0.31
G1 Y57.15 E0.011
G1 X56.91 Y64.23 E0.311
G1 X56.94 Y64.56 E0.01
G1 X63.93 Y57.63 E0.307
G1 Y57.99 E0.011
G1 X56.97 Y65.01 E0.308
G1 Y65.37 E0.011
G1 X63.93 Y58.5 E0.305
G1 Y58.83 E0.01
G1 X56.94 Y65.91 E0.31
G1 Y66.24 E0.01
G1 X63.93 Y59.34 E0.306
G1 Y59.67 E0.01
G1 X56.88 Y66.81 E0.313
G1 X56.82 Y67.23 E0.013
G1 X63.93 Y60.18 E0.312
G1 Y60.54 E0.011
G1 X56.73 Y67.8 E0.319
G1 X56.64 Y68.25 E0.014
G1 X63.93 Y61.02 E0.32
G1 Y61.38 E0.011
G1 X56.46 Y68.94 E0.331
G1 X56.28 Y69.45 E0.017
G1 X63.93 Y61.89 E0.335
G1 Y62.22 E0.01
G1 X55.95 Y70.29 E0.354
G1 X55.65 Y70.92 E0.022
G1 X63.93 Y62.7 E0.364
G1 Y63.09 E0.012
G1 X54.87 Y72.21 E0.401
G1 X54.96 Y72.12 E0.004
G1 X54.51 Y72.75 E0.024
G1 X53.55 Y73.86 E0.046
G1 X52.32 Y74.94 E0.051
G1 X52.47 Y74.97 E0.005
G1 X63.93 Y63.57 E0.504
G1 Y63.93 E0.011
G1 X52.95 Y74.97 E0.486
G1 X53.31 E0.011
G1 X63.93 Y64.41 E0.467
G1 Y64.77 E0.011
G1 X53.82 Y74.97 E0.448
G1 X54.15 E0.01
G1 X63.93 Y65.28 E0.429
G1 Y65.61 E0.01
G1 X54.69 Y74.94 E0.409
G1 X55.05 E0.011
G1 X63.93 Y66.12 E0.39
G1 Y66.48 E0.011
G1 X55.53 Y74.94 E0.372
G1 X55.89 E0.011
G1 X63.93 Y66.96 E0.353
G1 Y67.32 E0.011
G1 X56.37 Y74.94 E0.335
G1 X56.73 E0.011
G1 X63.93 Y67.83 E0.316
G1 Y68.16 E0.01
G1 X57.24 Y74.94 E0.297
G1 X57.57 E0.01
G1 X63.93 Y68.67 E0.278
G1 Y69.03 E0.011
G1 X58.08 Y74.94 E0.259
G1 X58.44 E0.011
G1 X63.93 Y69.51 E0.241
G1 Y69.87 E0.011
G1 X58.92 Y74.94 E0.222
G1 X59.28 E0.011
G1 X63.93 Y70.35 E0.204
G1 Y70.71 E0.011
G1 X59.79 Y74.94 E0.185
G1 X60.12 E0.01
G1 X63.93 Y71.22 E0.166
G1 Y71.55 E0.01
G1 X60.66 Y74.91 E0.146
G1 X61.02 E0.011
G1 X63.93 Y72.06 E0.127
G1 Y72.42 E0.011
G1 X61.5 Y74.91 E0.108
G1 X61.86 E0.011
G1 X63.93 Y72.9 E0.09
G1 Y73.26 E0.011
G1 X62.34 Y74.91 E0.071
G1 X62.7 E0.011
G1 X63.93 Y73.77 E0.052
G1 Y74.1 E0.01
G1 X63.21 Y74.91 E0.034
G1 X63.54 E0.01
G1 X63.93 Y74.58 E0.016
G1 F5612.6
G1 E-3.118
G1 F2500.0
G1 X54.87 Y69.0 F15000.0
G1 F5612.6
G1 E3.118
G1 F2500.0
G1 F78.0
G1 E0.065
G1 F2500.0
G1 X41.52 Y55.62 E0.589
G1 X42.69 Y55.29 E0.038
G1 X43.74 Y55.11 E0.033
G1 X55.41 Y66.72 E0.513
G1 X55.47 Y65.67 E0.033
G1 X55.38 Y63.93 E0.054
G1 X46.71 Y55.17 E0.384
G1 X47.67 Y55.38 E0.031
G1 X49.26 Y55.92 E0.052
G1 X49.66 Y56.14 E0.014
G1 X50.64 Y56.67 E0.035
G1 F5612.6
G1 E-3.118
G1 F2500.0
G1 X52.14 Y57.81
G1 X48.51 Y65.49 F15000.0
G1 F5612.6
G1 E3.118
G1 F2500.0
G1 F78.0
G1 E0.065
G1 F2500.0
G1 X53.94 Y70.95 E0.24
G1 X53.01 Y72.24 E0.05
G1 X52.77 Y72.51 E0.011
G1 X47.79 Y67.65 E0.217
G1 X47.01 Y68.4 E0.034
G1 X46.2 Y68.82 E0.028
G1 X51.24 Y73.92 E0.224
G1 X49.83 Y74.79 E0.052
G1 X49.5 Y74.94 E0.011
G1 X44.64 Y70.1 E0.214
G1 X42.51 Y67.98 E0.094
G1 F5612.6
G1 E-3.118
G1 F2500.0
G1 X42.48 Y70.77 F15000.0
G1 F5612.6
G1 E3.118
G1 F2500.0
G1 F78.0
G1 E0.065
G1 F2500.0
G1 X47.37 Y75.72 E0.217
G1 X45.69 Y75.93 E0.053
G1 X44.85 Y75.96 E0.026
G1 X44.6 Y75.71 E0.011
G1 X42.48 Y73.59 E0.093
G1 F5612.6
G1 E-3.118
G1 F2500.0
G1 X43.05 Y77.64 F15000.0
G1 F5612.6
G1 E3.118
G1 F2500.0
G1 F78.0
G1 E0.065
G1 F2500.0
G1 X43.38 Y77.34 E0.014
G1 X43.68 Y77.4 E0.01
G1 X43.05 Y78.09 E0.029
G1 Y78.45 E0.011
G1 X44.13 Y77.43 E0.046
G1 X44.46 Y77.46 E0.01
G1 X43.05 Y78.93 E0.064
G1 Y79.29 E0.011
G1 X44.97 Y77.46 E0.083
G1 X45.3 E0.01
G1 X43.05 Y79.8 E0.101
G1 Y80.13 E0.01
G1 X45.84 Y77.43 E0.121
G1 X46.2 Y77.4 E0.011
G1 X43.05 Y80.64 E0.141
G1 Y81.0 E0.011
G1 X46.77 Y77.34 E0.163
G1 X47.19 Y77.28 E0.013
G1 X44.22 Y80.31 E0.132
G1 X44.58 E0.011
G1 X47.82 Y77.13 E0.142
G1 F5612.6
G1 E-3.118
G1 F2500.0
G1 X48.42 Y76.95 F15000.0
G1 F5612.6
G1 E3.118
G1 F2500.0
G1 F78.0
G1 E0.065
G1 F2500.0
G1 X45.12 Y80.28 E0.146
G1 X45.45 E0.01
G1 X49.05 Y76.74 E0.157
G1 F5612.6
G1 E-3.118
G1 F2500.0
G1 X49.44 Y81.03 F15000.0
G1 F5612.6
G1 E3.118
G1 F2500.0
G1 F78.0
G1 E0.065
G1 F2500.0
G1 X47.22 Y83.19 E0.097
G1 Y82.83 E0.011
G1 X49.44 Y80.55 E0.099
G1 Y80.19 E0.011
G1 X47.22 Y82.32 E0.096
G1 Y81.99 E0.01
G1 X49.44 Y79.68 E0.1
G1 Y79.35 E0.01
G1 X47.16 Y81.57 E0.099
G1 X46.98 Y81.36 E0.009
G1 X49.44 Y78.84 E0.11
G1 Y78.48 E0.011
G1 X46.74 Y81.12 E0.118
G1 X46.56 Y80.94 E0.008
G1 X49.47 Y77.97 E0.13
G1 X49.53 Y77.55 E0.013
G1 X46.32 Y80.7 E0.14
G1 X46.14 Y80.52 E0.008
G1 X49.95 Y76.62 E0.17
G1 X50.07 Y76.35 E0.009
G1 X49.71 Y76.5 E0.012
G1 X45.9 Y80.34 E0.169
G1 F5612.6
G1 E-3.118
G1 F2500.0
G1 X43.23 Y83.85 F15000.0
G1 F5612.6
G1 E3.118
G1 F2500.0
G1 F78.0
G1 E0.065
G1 F2500.0
G1 X43.05 Y84.03 E0.008
G1 Y84.42 E0.012
G1 X43.44 Y84.06 E0.017
G1 X43.62 Y84.24 E0.008
G1 X43.05 Y84.87 E0.026
G1 Y85.23 E0.011
G1 X43.86 Y84.48 E0.034
G1 X44.07 Y84.66 E0.009
G1 X43.05 Y85.74 E0.046
G1 Y86.07 E0.01
G1 X44.49 Y84.72 E0.062
G1 X44.82 E0.01
G1 X43.05 Y86.58 E0.08
G1 Y86.94 E0.011
G1 X45.33 Y84.72 E0.099
G1 X45.69 E0.011
G1 X43.05 Y87.42 E0.118
G1 Y87.78 E0.011
G1 X49.44 Y81.45 E0.28
G1 Y81.81 E0.011
G1 X43.05 Y88.26 E0.283
G1 Y88.62 E0.011
G1 X49.44 Y82.32 E0.28
G1 Y82.65 E0.01
G1 X43.05 Y89.13 E0.284
G1 Y89.46 E0.01
G1 X49.41 Y83.19 E0.278
G1 Y83.55 E0.011
G1 X43.05 Y89.97 E0.282
G1 Y90.33 E0.011
G1 X49.41 Y84.03 E0.279
G1 Y84.39 E0.011
G1 X43.05 Y90.81 E0.282
G1 Y91.17 E0.011
G1 X49.41 Y84.87 E0.279
G1 Y85.23 E0.011
G1 X43.05 Y91.68 E0.282
G1 Y91.89 E0.007
G1 X43.14 Y91.92 E0.003
G1 X49.41 Y85.74 E0.275
G1 Y86.07 E0.01
G1 X43.65 Y91.92 E0.256
G1 X44.01 E0.011
G1 X49.41 Y86.58 E0.237
G1 Y86.94 E0.011
G1 X44.49 Y91.92 E0.218
G1 X44.85 E0.011
G1 X49.41 Y87.42 E0.2
G1 Y87.78 E0.011
G1 X45.33 Y91.92 E0.181
G1 X45.69 E0.011
G1 X49.41 Y88.29 E0.162
G1 Y88.62 E0.01
G1 X46.2 Y91.92 E0.144
G1 X46.53 E0.01
G1 X49.41 Y89.13 E0.125
G1 Y89.49 E0.011
G1 X47.04 Y91.92 E0.106
G1 X47.4 E0.011
G1 X49.41 Y89.97 E0.087
G1 Y90.33 E0.011
G1 X47.88 Y91.92 E0.069
G1 X48.24 E0.011
G1 X49.41 Y90.81 E0.05
G1 Y91.17 E0.011
G1 X48.75 Y91.92 E0.031
G1 X49.08 E0.01
G1 X49.41 Y91.65 E0.013
G1 F5612.6
G1 E-3.118
G1 F2500.0
G1 X40.89 Y91.68 F15000.0
G1 F5612.6
G1 E3.118
G1 F2500.0
G1 F78.0
G1 E0.065
G1 F2500.0
G1 X40.59 Y91.92 E0.012
G1 X40.26 E0.01
G1 X40.89 Y91.2 E0.03
G1 Y90.87 E0.01
G1 X39.75 Y91.92 E0.048
G1 X39.39 E0.011
G1 X40.89 Y90.36 E0.067
G1 Y90.0 E0.011
G1 X38.91 Y91.92 E0.086
G1 X38.55 E0.011
G1 X40.89 Y89.52 E0.105
G1 Y89.16 E0.011
G1 X38.07 Y91.92 E0.123
G1 X37.71 E0.011
G1 X40.89 Y88.65 E0.142
G1 Y88.32 E0.01
G1 X37.2 Y91.92 E0.161
G1 X36.87 E0.01
G1 X40.89 Y87.81 E0.179
G1 Y87.45 E0.011
G1 X36.36 Y91.92 E0.198
G1 X36.0 E0.011
G1 X40.89 Y86.97 E0.217
G1 Y86.61 E0.011
G1 X35.55 Y91.89 E0.234
G1 X35.19 E0.011
G1 X40.89 Y86.13 E0.253
G1 Y85.77 E0.011
G1 X34.68 Y91.89 E0.272
G1 X34.35 E0.01
G1 X40.89 Y85.26 E0.29
G1 Y84.93 E0.01
G1 X33.84 Y91.89 E0.309
G1 X33.51 E0.01
G1 X40.89 Y84.42 E0.327
G1 Y84.06 E0.011
G1 X39.66 Y85.29 E0.054
G1 F5612.6
G1 E-3.118
G1 F2500.0
G1 X40.89 Y83.64 F15000.0
G1 F5612.6
G1 E3.118
G1 F2500.0
G1 F78.0
G1 E0.065
G1 F2500.0
G1 X40.05 Y84.45 E0.036
G1 X40.2 Y83.91 E0.017
G1 X40.89 Y83.16 E0.032
G1 Y82.8 E0.011
G1 X40.32 Y83.31 E0.024
G1 X40.38 Y82.89 E0.013
G1 X40.89 Y82.29 E0.025
G1 Y81.96 E0.01
G1 X40.41 Y82.38 E0.02
G1 X40.35 Y82.08 E0.01
G1 X40.89 Y81.45 E0.026
G1 Y81.09 E0.011
G1 X40.32 Y81.6 E0.024
G1 X40.26 Y81.3 E0.01
G1 X40.89 Y80.61 E0.029
G1 Y80.25 E0.011
G1 X40.14 Y80.94 E0.032
G1 X40.08 Y80.67 E0.009
G1 X40.89 Y79.74 E0.038
G1 Y79.41 E0.01
G1 X39.93 Y80.28 E0.04
G1 X39.84 Y80.04 E0.008
G1 X40.89 Y78.9 E0.048
G1 Y78.57 E0.01
G1 X39.66 Y79.71 E0.052
G1 X39.54 Y79.5 E0.008
G1 X40.89 Y78.06 E0.062
G1 Y77.7 E0.011
G1 X39.36 Y79.2 E0.067
G1 X39.18 Y78.99 E0.009
G1 X40.89 Y77.22 E0.077
G1 Y76.86 E0.011
G1 X38.97 Y78.72 E0.083
G1 X38.79 Y78.54 E0.008
G1 X40.62 Y76.62 E0.083
G1 X40.38 Y76.53 E0.008
G1 X38.55 Y78.3 E0.079
G1 X38.37 Y78.12 E0.008
G1 X40.02 Y76.38 E0.075
G1 X39.78 Y76.26 E0.008
G1 X38.1 Y77.91 E0.073
G1 X37.89 Y77.73 E0.009
G1 X39.45 Y76.11 E0.07
G1 X39.21 Y75.99 E0.008
G1 X37.59 Y77.58 E0.071
G1 X37.35 Y77.46 E0.008
G1 X38.91 Y75.78 E0.071
G1 X38.7 Y75.66 E0.008
G1 X37.02 Y77.28 E0.073
G1 X36.78 Y77.13 E0.009
G1 X38.4 Y75.48 E0.072
G1 X38.16 Y75.33 E0.009
G1 X36.45 Y77.04 E0.075
G1 X36.12 Y76.95 E0.011
G1 X37.89 Y75.12 E0.079
G1 X37.68 Y74.97 E0.008
G1 X35.73 Y76.86 E0.085
G1 X35.4 Y76.83 E0.01
G1 X37.41 Y74.76 E0.09
G1 X37.23 Y74.61 E0.007
G1 X34.95 Y76.77 E0.098
G1 X34.65 Y76.74 E0.009
G1 X36.96 Y74.34 E0.104
G1 X36.78 Y74.19 E0.007
G1 X34.11 Y76.77 E0.116
G1 X33.69 Y76.86 E0.013
G1 X36.54 Y73.95 E0.127
G1 X36.36 Y73.77 E0.008
G1 X33.12 Y76.98 E0.142
G1 F5612.6
G1 E-3.118
G1 F2500.0
G1 X32.46 Y77.22 F15000.0
G1 F5612.6
G1 E3.118
G1 F2500.0
G1 F78.0
G1 E0.065
G1 F2500.0
G1 X36.15 Y73.53 E0.163
G1 F5612.6
G1 E-3.118
G1 F2500.0
G1 X35.16 Y69.09 F15000.0
G1 F5612.6
G1 E3.118
G1 F2500.0
G1 F78.0
G1 E0.065
G1 F2500.0
G1 X41.43 Y75.33 E0.276
G1 X41.46 Y72.63 E0.084
G1 X36.64 Y67.77 E0.213
G1 X34.53 Y65.64 E0.093
G1 F5612.6
G1 E-3.118
G1 F2500.0
G1 X34.8 Y63.09 F15000.0
G1 F5612.6
G1 E3.118
G1 F2500.0
G1 F78.0
G1 E0.065
G1 F2500.0
G1 X41.46 Y69.72 E0.293
G1 Y66.99 E0.085
G1 X37.66 Y63.15 E0.168
G1 X35.55 Y61.02 E0.093
G1 F5612.6
G1 E-3.118
G1 F2500.0
G1 X39.57 Y56.55 F15000.0
G1 F5612.6
G1 E3.118
G1 F2500.0
G1 F78.0
G1 E0.065
G1 F2500.0
G1 X44.94 Y61.98 E0.238
G1 X44.13 Y62.07 E0.025
G1 X43.26 Y62.43 E0.029
G1 X42.9 Y62.67 E0.013
G1 X37.92 Y57.78 E0.218
G1 X36.75 Y59.01 E0.053
G1 X36.63 Y59.22 E0.008
G1 X39.55 Y62.16 E0.129
G1 X41.67 Y64.29 E0.094
G1 F5612.6
G1 E-3.118
G1 F2500.0
G1 X30.33 Y52.2 F15000.0
G1 F5612.6
G1 E3.118
G1 F2500.0
G1 F78.0
G1 E0.065
G1 F2500.0
G1 X26.07 Y56.4 E0.187
G1 Y56.04 E0.011
G1 X29.82 Y52.23 E0.167
G1 X29.46 E0.011
G1 X26.07 Y55.53 E0.148
G1 Y55.2 E0.01
G1 X28.95 Y52.23 E0.129
G1 X28.65 Y52.2 E0.009
G1 X26.07 Y54.69 E0.112
G1 Y54.33 E0.011
G1 X28.35 Y51.99 E0.102
G1 X28.17 Y51.81 E0.008
G1 X26.07 Y53.85 E0.091
G1 Y53.49 E0.011
G1 X27.93 Y51.57 E0.083
G1 X27.75 Y51.39 E0.008
G1 X25.95 Y53.16 E0.079
G1 X25.74 Y52.98 E0.009
G1 X27.51 Y51.15 E0.079
G1 X27.36 Y50.94 E0.008
G1 X25.29 Y52.92 E0.089
G1 X24.96 E0.01
G1 X27.3 Y50.49 E0.105
G1 Y50.13 E0.011
G1 X24.45 Y52.92 E0.124
G1 X24.09 E0.011
G1 X27.3 Y49.65 E0.143
G1 Y49.29 E0.011
G1 X23.61 Y52.92 E0.161
G1 X23.31 Y52.89 E0.009
G1 X29.52 Y46.59 E0.276
G1 X29.16 E0.011
G1 X23.31 Y52.35 E0.256
G1 Y52.02 E0.01
G1 X28.65 Y46.59 E0.237
G1 X28.32 E0.01
G1 X23.31 Y51.51 E0.219
G1 Y51.15 E0.011
G1 X27.81 Y46.59 E0.2
G1 X27.45 E0.011
G1 X23.31 Y50.67 E0.181
G1 Y50.31 E0.011
G1 X26.97 Y46.59 E0.163
G1 X26.61 E0.011
G1 X23.31 Y49.83 E0.144
G1 Y49.47 E0.011
G1 X26.1 Y46.59 E0.125
G1 X25.77 E0.01
G1 X23.31 Y48.96 E0.107
G1 Y48.63 E0.01
G1 X25.26 Y46.59 E0.088
G1 X24.9 E0.011
G1 X23.31 Y48.12 E0.069
G1 Y47.76 E0.011
G1 X24.42 Y46.59 E0.05
G1 X24.06 E0.011
G1 X23.31 Y47.28 E0.032
G1 Y46.92 E0.011
G1 X23.64 Y46.59 E0.015
G1 F5612.6
G1 E-3.118
G1 F2500.0
G1 X20.55 Y46.02 F15000.0
G1 F5612.6
G1 E3.118
G1 F2500.0
G1 F78.0
G1 E0.065
G1 F2500.0
G1 X21.81 Y47.34 E0.057
G1 Y50.07 E0.085
G1 X19.02 Y47.37 E0.121
G1 Y50.13 E0.086
G1 X21.81 Y52.98 E0.124
G1 X21.78 Y53.47 E0.015
G1 Y53.49 E0.001
G1 F5612.6
G1 E-3.118
G1 F2500.0
G1 X19.56
G1 X19.02 Y52.95
G1 X30.0 Y46.59 F15000.0
G1 F5612.6
G1 E3.118
G1 F2500.0
G1 F78.0
G1 E0.065
G1 F2500.0
G1 X28.83 Y47.76 E0.052
G1 X29.19 E0.011
G1 X30.42 Y46.59 E0.053
G1 X30.78 E0.011
G1 X29.67 Y47.76 E0.05
G1 X30.03 E0.011
G1 X31.29 Y46.59 E0.054
G1 X31.62 E0.01
G1 X30.48 Y47.85 E0.053
G1 X30.63 Y48.0 E0.007
G1 X32.13 Y46.59 E0.064
G1 X32.49 E0.011
G1 X30.9 Y48.27 E0.072
G1 X31.08 Y48.45 E0.008
G1 X32.97 Y46.59 E0.083
G1 X33.33 E0.011
G1 X31.32 Y48.69 E0.091
G1 X31.5 Y48.87 E0.008
G1 X33.81 Y46.59 E0.101
G1 X34.17 E0.011
G1 X31.71 Y49.14 E0.11
G1 X31.74 Y49.44 E0.009
G1 X34.68 Y46.59 E0.128
G1 X35.01 E0.01
G1 X31.74 Y49.95 E0.146
G1 Y50.31 E0.011
G1 X35.52 Y46.59 E0.165
G1 F5612.6
G1 E-3.118
G1 F2500.0
G1 X31.71 Y50.82 F15000.0
G1 F5612.6
G1 E3.118
G1 F2500.0
G1 F78.0
G1 E0.065
G1 F2500.0
G1 X35.94 Y46.59 E0.187
G1 X36.3 E0.011
G1 X26.07 Y56.88 E0.452
G1 Y57.24 E0.011
G1 X36.78 Y46.59 E0.471
G1 X37.14 E0.011
G1 X26.07 Y57.75 E0.49
G1 Y58.08 E0.01
G1 X37.65 Y46.59 E0.509
G1 X37.98 E0.01
G1 X26.07 Y58.59 E0.527
G1 Y58.92 E0.01
G1 X38.49 Y46.59 E0.546
G1 X38.85 E0.011
G1 X26.07 Y59.43 E0.565
G1 Y59.79 E0.011
G1 X39.33 Y46.59 E0.583
G1 X39.69 E0.011
G1 X26.07 Y60.27 E0.602
G1 Y60.63 E0.011
G1 X40.2 Y46.59 E0.621
G1 X40.53 E0.01
G1 X26.07 Y61.14 E0.64
G1 Y61.47 E0.01
G1 X41.04 Y46.59 E0.658
G1 X41.37 E0.01
G1 X26.07 Y61.98 E0.677
G1 Y62.34 E0.011
G1 X41.88 Y46.59 E0.696
G1 X42.24 E0.011
G1 X26.07 Y62.82 E0.714
G1 Y63.18 E0.011
G1 X42.72 Y46.59 E0.733
G1 X43.08 E0.011
G1 X26.07 Y63.69 E0.752
G1 Y64.02 E0.01
G1 X43.59 Y46.59 E0.771
G1 X43.92 E0.01
G1 X26.07 Y64.53 E0.789
G1 Y64.86 E0.01
G1 X44.43 Y46.59 E0.808
G1 X44.79 E0.011
G1 X26.07 Y65.37 E0.827
G1 Y65.73 E0.011
G1 X45.27 Y46.59 E0.845
G1 X45.63 E0.011
G1 X26.07 Y66.21 E0.864
G1 Y66.57 E0.011
G1 X46.14 Y46.59 E0.883
G1 X46.47 E0.01
G1 X26.07 Y67.08 E0.902
G1 Y67.41 E0.01
G1 X46.98 Y46.59 E0.92
G1 X47.31 E0.01
G1 X38.52 Y55.44 E0.389
G1 X37.44 Y56.22 E0.042
G1 X36.0 Y57.63 E0.063
G1 X35.04 Y58.86 E0.049
G1 X26.07 Y67.92 E0.398
G1 Y68.28 E0.011
G1 X34.38 Y60.03 E0.365
G1 X34.05 Y60.72 E0.024
G1 X26.07 Y68.76 E0.353
G1 Y69.12 E0.011
G1 X33.72 Y61.53 E0.336
G1 X33.57 Y62.04 E0.017
G1 X26.07 Y69.63 E0.333
G1 Y69.96 E0.01
G1 X33.36 Y62.76 E0.319
G1 X33.27 Y63.18 E0.013
G1 X26.07 Y70.47 E0.319
G1 Y70.8 E0.01
G1 X33.15 Y63.81 E0.31
G1 X33.09 Y64.23 E0.013
G1 X26.07 Y71.31 E0.311
G1 Y71.67 E0.011
G1 X33.06 Y64.74 E0.307
G1 Y65.1 E0.011
G1 X26.07 Y72.15 E0.31
G1 Y72.51 E0.011
G1 X33.06 Y65.61 E0.306
G1 Y65.94 E0.01
G1 X26.07 Y73.02 E0.31
G1 Y73.35 E0.01
G1 X33.09 Y66.42 E0.308
G1 X33.12 Y66.72 E0.009
G1 X26.07 Y73.86 E0.313
G1 Y74.22 E0.011
G1 X33.15 Y67.2 E0.311
G1 X33.21 Y67.5 E0.01
G1 X26.07 Y74.7 E0.316
G1 Y75.06 E0.011
G1 X33.3 Y67.92 E0.317
G1 X33.36 Y68.19 E0.009
G1 X26.07 Y75.57 E0.323
G1 Y75.9 E0.01
G1 X33.45 Y68.61 E0.323
G1 X33.51 Y68.88 E0.009
G1 X26.07 Y76.41 E0.33
G1 Y76.74 E0.01
G1 X33.63 Y69.27 E0.331
G1 X33.75 Y69.54 E0.009
G1 X26.07 Y77.25 E0.339
G1 Y77.61 E0.011
G1 X33.87 Y69.87 E0.343
G1 X33.99 Y70.14 E0.009
G1 X26.07 Y78.09 E0.35
G1 Y78.45 E0.011
G1 X34.14 Y70.47 E0.354
G1 X34.26 Y70.71 E0.008
G1 X26.07 Y78.96 E0.362
G1 Y79.29 E0.01
G1 X34.41 Y71.04 E0.366
G1 X34.53 Y71.25 E0.008
G1 X26.07 Y79.8 E0.375
G1 Y80.16 E0.011
G1 X34.71 Y71.61 E0.379
G1 X34.86 Y71.82 E0.008
G1 X26.07 Y80.64 E0.388
G1 Y81.0 E0.011
G1 X35.04 Y72.09 E0.394
G1 X35.19 Y72.33 E0.009
G1 X26.07 Y81.51 E0.403
G1 Y81.84 E0.01
G1 X35.4 Y72.6 E0.409
G1 X35.55 Y72.81 E0.008
G1 X26.07 Y82.35 E0.419
G1 Y82.68 E0.01
G1 X35.76 Y73.11 E0.425
G1 X35.91 Y73.29 E0.007
G1 X31.5 Y77.7 E0.194
G1 X30.6 Y78.45 E0.037
G1 X29.94 Y79.26 E0.033
G1 X26.07 Y83.19 E0.172
G1 Y83.55 E0.011
G1 X29.34 Y80.34 E0.143
G1 X29.16 Y80.88 E0.018
G1 X26.07 Y84.03 E0.138
G1 Y84.39 E0.011
G1 X29.01 Y81.54 E0.128
G1 X28.95 Y81.93 E0.012
G1 X26.07 Y84.9 E0.129
G1 Y85.23 E0.01
G1 X28.95 Y82.44 E0.125
G1 Y82.77 E0.01
G1 X26.07 Y85.74 E0.129
G1 Y86.1 E0.011
G1 X28.98 Y83.25 E0.127
G1 X29.04 Y83.58 E0.01
G1 X26.07 Y86.58 E0.132
G1 Y86.73 E0.005
G1 X26.25 Y86.76 E0.006
G1 X29.1 Y83.97 E0.124
G1 X29.19 Y84.24 E0.009
G1 X26.76 Y86.76 E0.109
G1 X27.09 E0.01
G1 X29.34 Y84.63 E0.097
G1 X29.43 Y84.84 E0.007
G1 X27.6 Y86.76 E0.083
G1 X27.9 Y86.79 E0.009
G1 X29.61 Y85.2 E0.073
G1 X29.73 Y85.41 E0.008
G1 X28.41 Y86.79 E0.06
G1 X28.77 E0.011
G1 X29.91 Y85.71 E0.049
G1 X30.06 Y85.92 E0.008
G1 X29.25 Y86.79 E0.037
G1 X29.61 E0.011
G1 X30.27 Y86.22 E0.027
G1 X30.45 Y86.4 E0.008
G1 X30.09 Y86.82 E0.017
G1 X30.27 Y86.97 E0.007
G1 X30.69 Y86.64 E0.017
G1 X30.87 Y86.82 E0.008
G1 X30.42 Y87.33 E0.021
G1 X30.45 Y87.66 E0.01
G1 X31.14 Y87.03 E0.029
G1 X31.35 Y87.18 E0.008
G1 X30.45 Y88.14 E0.041
G1 Y88.5 E0.011
G1 X31.62 Y87.39 E0.05
G1 X31.86 Y87.51 E0.008
G1 X30.45 Y89.01 E0.064
G1 Y89.34 E0.01
G1 X32.22 Y87.69 E0.075
G1 X32.43 Y87.78 E0.007
G1 X30.45 Y89.85 E0.089
G1 Y90.18 E0.01
G1 X32.79 Y87.93 E0.101
G1 X33.06 Y88.02 E0.009
G1 X30.45 Y90.69 E0.116
G1 Y91.05 E0.011
G1 X33.45 Y88.11 E0.131
G1 X33.81 Y88.17 E0.011
G1 X30.45 Y91.53 E0.148
G1 X30.48 Y91.89 E0.011
G1 X34.2 Y88.23 E0.163
G1 X34.5 Y88.26 E0.009
G1 X30.96 Y91.89 E0.158
G1 X31.29 E0.01
G1 X35.04 Y88.23 E0.163
G1 X35.4 Y88.2 E0.011
G1 X31.8 Y91.89 E0.161
G1 X32.16 E0.011
G1 X36.03 Y88.08 E0.169
G1 X36.54 Y87.93 E0.017
G1 X32.64 Y91.89 E0.173
G1 X33.0 E0.011
G1 X37.44 Y87.51 E0.194
G1 F5612.6
G1 E-3.118
G1 F2500.0
G1 X37.95 Y40.02 F15000.0
G1 F5612.6
G1 E3.118
G1 F2500.0
G1 F78.0
G1 E0.065
G1 F2500.0
G1 X38.07 Y40.26 E0.008 F2250.0
G1 X39.9 Y41.28 E0.065
G1 X40.08 Y41.31 E0.006
G1 X40.38 Y41.19 E0.01
G1 X41.91 Y40.26 E0.056
G1 X42.03 Y40.11 E0.006
G1 X42.0 Y37.83 E0.071
G1 X41.85 Y37.65 E0.007
G1 X39.99 Y36.66 E0.066
G1 X39.81 Y36.69 E0.006
G1 X38.13 Y37.68 E0.061
G1 X37.92 Y38.1 E0.015
G1 X37.95 Y40.02 E0.06
G1 X38.22 Y39.93 E0.009
G1 X38.34 Y40.11 E0.007
G1 X40.02 Y41.01 E0.059
G1 X41.73 Y40.02 E0.062
G1 X41.76 Y38.04 E0.062
G1 X41.67 Y37.89 E0.005
G1 X40.02 Y36.96 E0.059
G1 X38.31 Y37.92 E0.061
G1 X38.22 Y38.13 E0.007
G1 Y39.93 E0.056
G1 F5612.6
G1 E-3.118
G1 F2500.0
G1 X37.95 Y40.02
G1 X51.39 Y38.91 F15000.0
G1 F5612.6
G1 E3.118
G1 F2500.0
G1 F78.0
G1 E0.065
G1 F2500.0
G1 X51.42 Y39.21 E0.009 F2250.0
G1 X52.14 Y40.89 E0.057
G1 X52.29 Y41.01 E0.006
G1 X53.97 Y41.64 E0.056
G1 X54.33 Y41.58 E0.011
G1 X57.51 Y41.61 E0.099
G1 Y42.51 E0.028
G1 X39.3 Y42.42 E0.568
G1 X38.4 Y42.12 E0.03
G1 X37.86 Y41.79 E0.02
G1 X37.29 Y41.25 E0.024
G1 X36.75 Y40.38 E0.032
G1 X36.51 Y39.51 E0.028
G1 X36.69 Y37.83 E0.053
G1 X37.17 Y36.9 E0.033
G1 X37.95 Y36.15 E0.034
G1 X39.09 Y35.61 E0.039
G1 X39.84 Y35.49 E0.024
G1 X57.51 Y35.52 E0.551
G1 X57.48 Y36.39 E0.027
G1 X53.82 E0.114
G1 X52.2 Y37.05 E0.055
G1 X52.08 Y37.17 E0.005
G1 X51.39 Y38.91 E0.058
G1 X51.66 Y39.03 E0.009
G1 X52.35 Y40.68 E0.056
G1 X54.06 Y41.34 E0.057
G1 X54.27 Y41.28 E0.007
G1 X57.81 E0.11
G1 X57.78 Y42.81 E0.048
G1 X39.39 Y42.75 E0.573
G1 X38.34 Y42.45 E0.034
G1 X37.68 Y42.03 E0.024
G1 X37.23 Y41.64 E0.019
G1 X36.78 Y41.07 E0.023
G1 X36.45 Y40.44 E0.022
G1 X36.21 Y39.6 E0.027
G1 X36.42 Y37.65 E0.061
G1 X36.9 Y36.75 E0.032
G1 X37.26 Y36.33 E0.017
G1 X37.83 Y35.85 E0.023
G1 X39.27 Y35.25 E0.049
G1 X39.93 Y35.19 E0.021
G1 X57.81 E0.558
G1 Y36.69 E0.047
G1 X53.85 E0.123
G1 X52.38 Y37.29 E0.05
G1 X51.66 Y39.03 E0.059
G1 F5612.6
G1 E-3.118
G1 F2500.0
G1 X51.39 Y38.91
G1 X52.47 Y36.84 F15000.0
G1 F5612.6
G1 E3.118
G1 F2500.0
G1 F78.0
G1 E0.065
G1 F2500.0
G1 X53.73 Y35.58 E0.056
G1 X54.09 E0.011
G1 X53.25 Y36.51 E0.039
G1 X53.79 Y36.3 E0.018
G1 X54.6 Y35.58 E0.034
G1 X54.96 E0.011
G1 X54.33 Y36.27 E0.029
G1 X54.66 E0.01
G1 X55.44 Y35.58 E0.032
G1 X55.8 E0.011
G1 X55.17 Y36.27 E0.029
G1 X55.53 E0.011
G1 X56.28 Y35.58 E0.032
G1 X56.64 E0.011
G1 X56.01 Y36.27 E0.029
G1 X56.34 Y36.3 E0.01
G1 X57.15 Y35.58 E0.034
G1 X57.36 E0.007
G1 X57.42 Y35.64 E0.003
G1 X56.85 Y36.3 E0.027
G1 X57.18 E0.01
G1 X57.42 Y36.12 E0.009
G1 F5612.6
G1 E-3.118
G1 F2500.0
G1 Y42.06 F15000.0
G1 F5612.6
G1 E3.118
G1 F2500.0
G1 F78.0
G1 E0.065
G1 F2500.0
G1 X57.0 Y42.42 E0.017
G1 X56.67 E0.01
G1 X57.39 Y41.67 E0.032
G1 X56.97 E0.013
G1 X56.16 Y42.42 E0.034
G1 X55.8 E0.011
G1 X56.49 Y41.67 E0.032
G1 X56.13 E0.011
G1 X55.32 Y42.42 E0.034
G1 X54.96 E0.011
G1 X55.65 Y41.67 E0.032
G1 X55.29 E0.011
G1 X54.45 Y42.42 E0.035
G1 X54.12 E0.01
G1 X54.81 Y41.67 E0.032
G1 X54.45 E0.011
G1 X53.61 Y42.42 E0.035
G1 X53.28 E0.01
G1 X53.94 Y41.73 E0.03
G1 F5612.6
G1 E-3.118
G1 F2500.0
G1 X53.64 Y41.61 F15000.0
G1 F5612.6
G1 E3.118
G1 F2500.0
G1 F78.0
G1 E0.065
G1 F2500.0
G1 X52.77 Y42.42 E0.037
G1 X52.41 E0.011
G1 X53.28 Y41.49 E0.04
G1 X53.04 Y41.4 E0.008
G1 X51.93 Y42.42 E0.047
G1 X51.57 E0.011
G1 X52.65 Y41.25 E0.05
G1 X52.41 Y41.16 E0.008
G1 X51.06 Y42.42 E0.058
G1 X50.73 E0.01
G1 X52.11 Y40.98 E0.062
G1 X51.96 Y40.77 E0.008
G1 X50.22 Y42.42 E0.075
G1 X49.86 E0.011
G1 X51.81 Y40.41 E0.087
G1 X51.69 Y40.17 E0.008
G1 X49.38 Y42.42 E0.101
G1 X49.02 E0.011
G1 X51.57 Y39.81 E0.114
G1 X51.45 Y39.57 E0.008
G1 X48.54 Y42.39 E0.126
G1 X48.21 E0.01
G1 X51.3 Y39.21 E0.138
G1 Y38.88 E0.01
G1 X47.7 Y42.39 E0.157
G1 X47.37 E0.01
G1 X51.63 Y38.04 E0.19
G1 X51.87 Y37.44 E0.02
G1 X46.86 Y42.39 E0.22
G1 X46.5 E0.011
G1 X53.25 Y35.58 E0.299
G1 X52.89 E0.011
G1 X46.02 Y42.39 E0.302
G1 X45.66 E0.011
G1 X52.38 Y35.58 E0.298
G1 X52.05 E0.01
G1 X45.15 Y42.39 E0.302
G1 X44.82 E0.01
G1 X51.54 Y35.58 E0.298
G1 X51.21 E0.01
G1 X44.31 Y42.39 E0.302
G1 X43.95 E0.011
G1 X50.7 Y35.58 E0.299
G1 X50.34 E0.011
G1 X43.47 Y42.39 E0.302
G1 X43.11 E0.011
G1 X49.86 Y35.58 E0.299
G1 X49.5 E0.011
G1 X42.6 Y42.39 E0.302
G1 X42.27 E0.01
G1 X48.99 Y35.58 E0.298
G1 X48.66 E0.01
G1 X41.76 Y42.39 E0.302
G1 X41.43 E0.01
G1 X48.15 Y35.58 E0.298
G1 X47.79 E0.011
G1 X40.92 Y42.39 E0.302
G1 X40.56 E0.011
G1 X47.31 Y35.58 E0.299
G1 X46.95 E0.011
G1 X40.08 Y42.39 E0.302
G1 X39.75 E0.01
G1 X41.37 Y40.71 E0.073
G1 X40.38 Y41.28 E0.036
G1 X39.27 Y42.33 E0.048
G1 X39.03 Y42.27 E0.008
G1 X39.87 Y41.37 E0.038
G1 X39.6 Y41.22 E0.01
G1 X38.64 Y42.15 E0.042
G1 X38.4 Y42.03 E0.008
G1 X39.33 Y41.07 E0.042
G1 F5612.6
G1 E-3.118
G1 F2500.0
G1 X39.03 Y40.95 F15000.0
G1 F5612.6
G1 E3.118
G1 F2500.0
G1 F78.0
G1 E0.065
G1 F2500.0
G1 X38.1 Y41.85 E0.04
G1 X37.89 Y41.7 E0.008
G1 X38.73 Y40.77 E0.039
G1 X38.52 Y40.65 E0.008
G1 X37.62 Y41.46 E0.038
G1 X37.44 Y41.28 E0.008
G1 X38.19 Y40.47 E0.034
G1 X38.01 Y40.32 E0.007
G1 X37.23 Y41.01 E0.032
G1 X37.08 Y40.8 E0.008
G1 X37.86 Y39.96 E0.036
G1 X37.83 Y39.6 E0.011
G1 X36.9 Y40.47 E0.04
G1 X36.81 Y40.23 E0.008
G1 X37.83 Y39.12 E0.047
G1 Y38.76 E0.011
G1 X36.69 Y39.84 E0.049
G1 X36.6 Y39.57 E0.009
G1 X37.83 Y38.28 E0.056
G1 X37.86 Y37.89 E0.012
G1 X36.57 Y39.09 E0.055
G1 X36.6 Y38.73 E0.011
G1 X39.78 Y35.58 E0.14
G1 X40.14 E0.011
G1 X38.19 Y37.53 E0.086
G1 F5612.6
G1 E-3.118
G1 F2500.0
G1 X39.24 Y36.93 F15000.0
G1 F5612.6
G1 E3.118
G1 F2500.0
G1 F78.0
G1 E0.065
G1 F2500.0
G1 X40.59 Y35.58 E0.06
G1 X40.95 E0.011
G1 X40.02 Y36.57 E0.042
G1 X40.29 Y36.66 E0.009
G1 X41.43 Y35.58 E0.049
G1 X41.79 E0.011
G1 X40.59 Y36.84 E0.054
G1 X40.83 Y36.96 E0.008
G1 X42.3 Y35.58 E0.063
G1 X42.63 E0.01
G1 X41.16 Y37.14 E0.067
G1 X41.37 Y37.26 E0.008
G1 X43.14 Y35.58 E0.076
G1 X43.5 E0.011
G1 X41.7 Y37.47 E0.081
G1 X41.91 Y37.59 E0.008
G1 X43.98 Y35.58 E0.09
G1 X44.34 E0.011
G1 X42.12 Y37.86 E0.099
G1 X42.15 Y38.19 E0.01
G1 X44.82 Y35.58 E0.116
G1 X45.18 E0.011
G1 X42.15 Y38.7 E0.136
G1 Y39.03 E0.01
G1 X45.69 Y35.58 E0.154
G1 X46.02 E0.01
G1 X42.15 Y39.54 E0.173
G1 X42.18 Y39.9 E0.011
G1 X46.53 Y35.58 E0.191
G1 F5612.6
G1 E-3.118
G1 F2500.0
G1 X39.21 Y35.67 F15000.0
G1 F5612.6
G1 E3.118
G1 F2500.0
G1 F78.0
G1 E0.065
G1 F2500.0
G1 X36.69 Y38.13 E0.11
G1 X36.9 Y37.56 E0.019
G1 X38.52 Y35.94 E0.071
G1 F5612.6
G1 E-3.118
G1 F2500.0
G1 X64.62 Y35.25 F15000.0
G1 F5612.6
G1 E3.118
G1 F2500.0
G1 F78.0
G1 E0.065
G1 F2500.0
G1 X63.99 Y35.49 E0.021 F2250.0
G1 X63.45 Y35.79 E0.019
G1 X62.7 Y36.57 E0.034
G1 X62.4 Y37.35 E0.026
G1 X62.28 Y39.09 E0.054
G1 X62.43 Y39.51 E0.014
G1 X63.09 Y40.47 E0.036
G1 X63.72 Y40.98 E0.025
G1 X64.71 Y41.37 E0.033
G1 X65.73 Y41.4 E0.032
G1 X66.66 Y41.1 E0.03
G1 X67.23 Y40.74 E0.021
G1 X67.56 Y40.44 E0.014
G1 X67.77 Y39.84 E0.02
G1 X67.71 Y36.45 E0.106
G1 X67.5 Y36.09 E0.013
G1 X66.84 Y35.58 E0.026
G1 X66.18 Y35.31 E0.022
G1 X65.25 Y35.16 E0.029
G1 X64.62 Y35.25 E0.02
G1 X64.68 Y35.52 E0.009
G1 X63.69 Y36.0 E0.034
G1 X63.12 Y36.51 E0.024
G1 X62.91 Y36.84 E0.012
G1 X62.58 Y37.95 E0.036
G1 X62.55 Y38.85 E0.028
G1 X62.67 Y39.33 E0.015
G1 X63.33 Y40.29 E0.036
G1 X63.75 Y40.65 E0.017
G1 X64.77 Y41.07 E0.034
G1 X65.79 Y41.1 E0.032
G1 X66.48 Y40.86 E0.023
G1 X67.2 Y40.38 E0.027
G1 X67.44 Y40.02 E0.013
G1 X67.47 Y36.63 E0.106
G1 X67.26 Y36.27 E0.013
G1 X66.78 Y35.88 E0.019
G1 X65.64 Y35.49 E0.038
G1 X64.98 E0.021
G1 X64.68 Y35.52 E0.009
G1 F5612.6
G1 E-3.118
G1 F2500.0
G1 X64.62 Y35.25
G1 X70.89 Y39.99 F15000.0
G1 F5612.6
G1 E3.118
G1 F2500.0
G1 F78.0
G1 E0.065
G1 F2500.0
G1 X70.38 Y41.16 E0.04 F2250.0
G1 X69.63 Y42.18 E0.039
G1 X68.85 Y42.93 E0.034
G1 X68.4 Y43.23 E0.017
G1 X67.23 Y43.8 E0.041
G1 X66.06 Y44.07 E0.037
G1 X64.56 E0.047
G1 X63.6 Y43.86 E0.031
G1 X63.03 Y43.65 E0.019
G1 X61.71 Y42.87 E0.048
G1 X60.9 Y42.12 E0.034
G1 X60.66 Y41.85 E0.011
G1 X60.12 Y40.95 E0.033
G1 X59.79 Y40.17 E0.026
G1 X59.58 Y39.45 E0.023
G1 X59.49 Y38.67 E0.024
G1 X59.58 Y37.14 E0.048
G1 X59.88 Y36.15 E0.032
G1 X60.69 Y34.74 E0.051
G1 X61.47 Y33.9 E0.036
G1 X62.19 Y33.39 E0.028
G1 X63.06 Y32.94 E0.031
G1 X63.69 Y32.7 E0.021
G1 X65.04 Y32.49 E0.043
G1 X66.66 Y32.64 E0.051
G1 X67.47 Y32.91 E0.027
G1 X68.94 Y33.75 E0.053
G1 X69.87 Y34.65 E0.04
G1 X70.41 Y35.52 E0.032
G1 X70.89 Y36.69 E0.039
G1 X71.1 Y37.8 E0.035
G1 X71.07 Y39.0 E0.037
G1 X70.89 Y39.99 E0.031
G1 X71.16 Y40.11 E0.009
G1 X70.71 Y41.16 E0.036
G1 X69.96 Y42.27 E0.042
G1 X68.88 Y43.29 E0.046
G1 X67.26 Y44.1 E0.056
G1 X65.73 Y44.4 E0.049
G1 X64.62 Y44.37 E0.035
G1 X63.45 Y44.13 E0.037
G1 X62.07 Y43.47 E0.048
G1 X61.26 Y42.9 E0.031
G1 X60.42 Y42.03 E0.038
G1 X59.85 Y41.07 E0.035
G1 X59.28 Y39.51 E0.052
G1 X59.19 Y37.77 E0.054
G1 X59.34 Y36.84 E0.029
G1 X59.64 Y35.97 E0.029
G1 X60.09 Y35.1 E0.031
G1 X60.75 Y34.2 E0.035
G1 X61.29 Y33.66 E0.024
G1 X62.04 Y33.12 E0.029
G1 X63.48 Y32.46 E0.049
G1 X64.92 Y32.19 E0.046
G1 X66.33 Y32.25 E0.044
G1 X67.83 Y32.76 E0.049
G1 X69.03 Y33.45 E0.043
G1 X69.75 Y34.11 E0.03
G1 X70.35 Y34.83 E0.029
G1 X70.86 Y35.73 E0.032
G1 X71.34 Y37.2 E0.048
G1 X71.4 Y38.91 E0.053
G1 X71.16 Y40.11 E0.038
G1 F5612.6
G1 E-3.118
G1 F2500.0
G1 X70.89 Y39.99
G1 X70.95 Y39.15 F15000.0
G1 F5612.6
G1 E3.118
G1 F2500.0
G1 F78.0
G1 E0.065
G1 F2500.0
G1 X66.06 Y43.98 E0.214
G1 X65.67 Y44.01 E0.012
G1 X71.01 Y38.61 E0.237
G1 Y38.25 E0.011
G1 X65.19 Y44.01 E0.255
G1 X64.83 E0.011
G1 X71.01 Y37.74 E0.275
G1 X70.98 Y37.44 E0.009
G1 X64.38 Y43.95 E0.289
G1 X64.11 Y43.89 E0.009
G1 X66.81 Y41.13 E0.12
G1 X66.21 Y41.37 E0.02
G1 X63.72 Y43.8 E0.108
G1 X63.42 Y43.71 E0.01
G1 X65.58 Y41.49 E0.097
G1 X65.19 Y41.52 E0.012
G1 X63.09 Y43.59 E0.092
G1 X62.85 Y43.47 E0.008
G1 X64.77 Y41.46 E0.087
G1 X64.47 Y41.4 E0.01
G1 X62.52 Y43.29 E0.085
G1 X62.31 Y43.17 E0.008
G1 X64.08 Y41.28 E0.081
G1 X63.87 Y41.16 E0.008
G1 X61.98 Y42.96 E0.081
G1 X61.8 Y42.84 E0.007
G1 X63.54 Y40.98 E0.079
G1 X63.36 Y40.83 E0.007
G1 X61.5 Y42.6 E0.08
G1 X61.32 Y42.42 E0.008
G1 X63.09 Y40.59 E0.079
G1 X62.91 Y40.41 E0.008
G1 X61.08 Y42.18 E0.079
G1 X60.93 Y42.0 E0.007
G1 X62.7 Y40.14 E0.08
G1 X62.58 Y39.93 E0.008
G1 X60.69 Y41.73 E0.081
G1 X60.57 Y41.52 E0.008
G1 X62.37 Y39.6 E0.082
G1 X62.28 Y39.36 E0.008
G1 X60.36 Y41.19 E0.083
G1 X60.24 Y40.98 E0.008
G1 X62.16 Y38.97 E0.087
G1 X62.13 Y38.64 E0.01
G1 X60.09 Y40.65 E0.089
G1 X59.97 Y40.38 E0.009
G1 X62.16 Y38.13 E0.098
G1 X62.22 Y37.71 E0.013
G1 X59.85 Y39.99 E0.103
G1 X59.76 Y39.75 E0.008
G1 X62.43 Y36.99 E0.12
G1 X62.73 Y36.39 E0.021
G1 X63.54 Y35.61 E0.035
G1 X64.17 Y35.31 E0.022
G1 X66.66 Y32.76 E0.111
G1 X66.39 Y32.7 E0.009
G1 X59.67 Y39.33 E0.294
G1 X59.61 Y39.06 E0.009
G1 X65.97 Y32.61 E0.282
G1 X65.61 E0.011
G1 X59.58 Y38.58 E0.265
G1 Y38.22 E0.011
G1 X65.16 Y32.58 E0.247
G1 X64.77 Y32.61 E0.012
G1 X59.61 Y37.71 E0.226
G1 X59.67 Y37.29 E0.013
G1 X64.17 Y32.7 E0.2
G1 X63.75 Y32.79 E0.013
G1 X59.82 Y36.63 E0.171
G1 X60.03 Y36.09 E0.018
G1 X62.91 Y33.12 E0.129
G1 X62.22 Y33.48 E0.024
G1 X60.45 Y35.22 E0.077
G1 F5612.6
G1 E-3.118
G1 F2500.0
G1 X67.05 Y32.85 F15000.0
G1 F5612.6
G1 E3.118
G1 F2500.0
G1 F78.0
G1 E0.065
G1 F2500.0
G1 X64.8 Y35.13 E0.1
G1 X65.22 Y35.07 E0.013
G1 X67.38 Y33.0 E0.093
G1 X67.62 Y33.09 E0.008
G1 X65.67 Y35.1 E0.087
G1 X65.97 Y35.16 E0.01
G1 X67.95 Y33.24 E0.086
G1 X68.19 Y33.39 E0.009
G1 X66.36 Y35.28 E0.082
G1 X66.6 Y35.37 E0.008
G1 X68.49 Y33.57 E0.081
G1 X68.7 Y33.69 E0.008
G1 X66.96 Y35.55 E0.079
G1 X67.14 Y35.67 E0.007
G1 X69.0 Y33.93 E0.079
G1 X69.18 Y34.08 E0.007
G1 X67.44 Y35.91 E0.079
G1 X67.62 Y36.09 E0.008
G1 X69.42 Y34.32 E0.079
G1 X69.6 Y34.5 E0.008
G1 X67.8 Y36.39 E0.081
G1 X67.86 Y36.66 E0.009
G1 X69.84 Y34.77 E0.085
G1 X69.99 Y34.98 E0.008
G1 X67.86 Y37.17 E0.095
G1 Y37.5 E0.01
G1 X70.17 Y35.28 E0.1
G1 X70.29 Y35.49 E0.008
G1 X67.86 Y38.01 E0.109
G1 Y38.37 E0.011
G1 X70.47 Y35.82 E0.114
G1 X70.59 Y36.09 E0.009
G1 X67.86 Y38.85 E0.121
G1 Y39.21 E0.011
G1 X70.71 Y36.42 E0.124
G1 X70.8 Y36.72 E0.01
G1 X67.86 Y39.72 E0.131
G1 X67.83 Y40.08 E0.011
G1 X70.89 Y37.08 E0.134
G1 F5612.6
G1 E-3.118
G1 F2500.0
G1 X70.35 Y41.01 F15000.0
G1 F5612.6
G1 E3.118
G1 F2500.0
G1 F78.0
G1 E0.065
G1 F2500.0
G1 X67.92 Y43.38 E0.106
G1 X67.29 Y43.68 E0.022
G1 X70.71 Y40.17 E0.153
G1 X70.86 Y39.69 E0.016
G1 X66.69 Y43.83 E0.183
G1 F5612.6
G1 E-3.118
G1 F2500.0
G1 X73.62 Y49.77 F15000.0
G1 F5612.6
G1 E3.118
G1 F2500.0
G1 F78.0
G1 E0.065
G1 F2500.0
G1 X89.49 Y54.96 E0.521 F2250.0
G1 X89.88 E0.012
G1 X90.27 Y54.63 E0.016
G1 X90.72 Y54.18 E0.02
G1 X91.29 Y53.76 E0.022
G1 X92.31 Y53.22 E0.036
G1 X92.43 Y53.07 E0.006
G1 X92.49 Y52.77 E0.01
G1 X92.46 Y36.03 E0.522
G1 X92.34 Y35.79 E0.008
G1 X92.19 Y35.67 E0.006
G1 X91.92 Y35.61 E0.009
G1 X89.85 Y35.88 E0.065
G1 X87.36 Y36.51 E0.08
G1 X84.84 Y37.47 E0.084
G1 X83.58 Y38.07 E0.044
G1 X82.02 Y38.97 E0.056
G1 X80.22 Y40.23 E0.069
G1 X78.27 Y41.94 E0.081
G1 X76.83 Y43.47 E0.066
G1 X75.66 Y45.0 E0.06
G1 X74.7 Y46.47 E0.055
G1 X73.83 Y48.06 E0.057
G1 X73.35 Y49.23 E0.039
G1 X73.38 Y49.53 E0.009
G1 X73.62 Y49.77 E0.011
G1 X73.77 Y49.53 E0.009
G1 X89.55 Y54.66 E0.517
G1 X89.85 E0.009
G1 X90.57 Y53.91 E0.032
G1 X91.17 Y53.49 E0.023
G1 X92.07 Y53.04 E0.031
G1 X92.19 Y52.74 E0.01
G1 X92.16 Y36.09 E0.519
G1 X92.07 Y35.94 E0.005
G1 X91.65 E0.013
G1 X90.27 Y36.12 E0.043
G1 X87.66 Y36.72 E0.084
G1 X85.92 Y37.35 E0.058
G1 X84.36 Y38.01 E0.053
G1 X82.2 Y39.21 E0.077
G1 X80.1 Y40.71 E0.08
G1 X78.48 Y42.15 E0.068
G1 X76.8 Y44.01 E0.078
G1 X75.9 Y45.18 E0.046
G1 X74.91 Y46.68 E0.056
G1 X73.65 Y49.2 E0.088
G1 X73.77 Y49.53 E0.011
G1 F5612.6
G1 E-3.118
G1 F2500.0
G1 X73.62 Y49.77
G1 X79.47 Y35.82 F15000.0
G1 F5612.6
G1 E3.118
G1 F2500.0
G1 F78.0
G1 E0.065
G1 F2500.0
G1 X82.41 Y34.17 E0.105 F2250.0
G1 X85.53 Y32.88 E0.105
G1 X87.99 Y32.19 E0.08
G1 X90.54 Y31.71 E0.081
G1 X93.54 Y31.5 E0.094
G1 X96.45 Y31.62 E0.091
G1 X98.61 Y31.89 E0.068
G1 X101.31 Y32.52 E0.086
G1 X103.98 Y33.45 E0.088
G1 X105.78 Y34.26 E0.062
G1 X108.42 Y35.76 E0.095
G1 X110.46 Y37.23 E0.078
G1 X112.47 Y38.97 E0.083
G1 X113.91 Y40.5 E0.066
G1 X115.2 Y42.06 E0.063
G1 X116.16 Y43.44 E0.052
G1 X117.03 Y44.85 E0.052
G1 X118.08 Y46.92 E0.072
G1 X119.13 Y49.59 E0.089
G1 X119.55 Y50.91 E0.043
G1 X120.0 Y52.74 E0.059
G1 X120.33 Y54.84 E0.066
G1 X120.51 Y57.6 E0.086
G1 X120.42 Y60.24 E0.082
G1 X120.06 Y62.97 E0.086
G1 X119.46 Y65.4 E0.078
G1 X118.8 Y67.35 E0.064
G1 X117.63 Y70.02 E0.091
G1 X116.97 Y71.25 E0.044
G1 X115.05 Y74.13 E0.108
G1 X112.83 Y76.68 E0.105
G1 X111.78 Y77.67 E0.045
G1 X109.89 Y79.23 E0.076
G1 X108.54 Y80.16 E0.051
G1 X107.16 Y81.0 E0.05
G1 X105.45 Y81.9 E0.06
G1 X103.8 Y82.62 E0.056
G1 X101.55 Y83.4 E0.074
G1 X99.63 Y83.88 E0.062
G1 X96.72 Y84.36 E0.092
G1 X94.65 Y84.51 E0.065
G1 X92.1 Y84.42 E0.08
G1 X90.78 Y84.3 E0.041
G1 X89.19 Y84.06 E0.05
G1 X87.0 Y83.55 E0.07
G1 X85.05 Y82.95 E0.064
G1 X82.08 Y81.66 E0.101
G1 X79.89 Y80.43 E0.078
G1 X78.03 Y79.14 E0.071
G1 X76.47 Y77.88 E0.063
G1 X74.31 Y75.78 E0.094
G1 X73.32 Y74.61 E0.048
G1 X71.67 Y72.3 E0.089
G1 X70.71 Y70.65 E0.06
G1 X69.39 Y67.86 E0.096
G1 X68.31 Y64.59 E0.107
G1 X67.74 Y61.65 E0.093
G1 X67.53 Y59.4 E0.07
G1 X67.8 Y53.85 E0.173
G1 X68.49 Y50.76 E0.099
G1 X69.06 Y48.99 E0.058
G1 X69.81 Y47.16 E0.062
G1 X70.86 Y45.06 E0.073
G1 X71.67 Y43.71 E0.049
G1 X73.44 Y41.25 E0.094
G1 X75.21 Y39.27 E0.083
G1 X77.19 Y37.5 E0.083
G1 X79.47 Y35.82 E0.088
G1 X79.26 Y35.61 E0.009
G1 X81.66 Y34.23 E0.086
G1 X83.49 Y33.33 E0.064
G1 X86.13 Y32.4 E0.087
G1 X88.08 Y31.86 E0.063
G1 X90.57 Y31.41 E0.079
G1 X92.01 Y31.26 E0.045
G1 X94.05 Y31.23 E0.064
G1 X97.44 Y31.41 E0.106
G1 X100.5 Y31.98 E0.097
G1 X102.39 Y32.55 E0.062
G1 X104.04 Y33.15 E0.055
G1 X106.05 Y34.05 E0.069
G1 X108.24 Y35.28 E0.078
G1 X110.64 Y36.99 E0.092
G1 X112.62 Y38.7 E0.082
G1 X114.42 Y40.62 E0.082
G1 X115.17 Y41.52 E0.037
G1 X116.79 Y43.86 E0.089
G1 X117.93 Y45.96 E0.075
G1 X118.62 Y47.4 E0.05
G1 X119.25 Y48.99 E0.053
G1 X119.88 Y51.0 E0.066
G1 X120.3 Y52.71 E0.055
G1 X120.69 Y55.35 E0.083
G1 X120.81 Y57.66 E0.072
G1 X120.72 Y60.27 E0.081
G1 X120.54 Y61.83 E0.049
G1 X120.24 Y63.54 E0.054
G1 X120.0 Y64.59 E0.034
G1 X119.1 Y67.38 E0.091
G1 X118.56 Y68.73 E0.045
G1 X117.3 Y71.25 E0.088
G1 X116.52 Y72.54 E0.047
G1 X115.23 Y74.37 E0.07
G1 X113.1 Y76.83 E0.101
G1 X111.0 Y78.75 E0.089
G1 X109.05 Y80.19 E0.076
G1 X107.16 Y81.36 E0.069
G1 X105.45 Y82.23 E0.06
G1 X103.86 Y82.92 E0.054
G1 X102.21 Y83.52 E0.055
G1 X100.38 Y84.03 E0.059
G1 X97.74 Y84.54 E0.084
G1 X95.28 Y84.78 E0.077
G1 X92.61 E0.083
G1 X90.15 Y84.51 E0.077
G1 X88.11 Y84.15 E0.065
G1 X86.34 Y83.7 E0.057
G1 X84.12 Y82.92 E0.073
G1 X81.9 Y81.93 E0.076
G1 X79.68 Y80.67 E0.08
G1 X77.25 Y78.93 E0.093
G1 X75.24 Y77.16 E0.084
G1 X73.41 Y75.18 E0.084
G1 X71.43 Y72.48 E0.104
G1 X70.26 Y70.47 E0.073
G1 X69.18 Y68.1 E0.081
G1 X68.52 Y66.36 E0.058
G1 X67.71 Y63.3 E0.099
G1 X67.29 Y60.39 E0.092
G1 X67.23 Y59.67 E0.023
G1 X67.44 Y54.21 E0.17
G1 X68.04 Y51.36 E0.091
G1 X68.37 Y50.1 E0.041
G1 X69.36 Y47.49 E0.087
G1 X70.44 Y45.21 E0.079
G1 X72.21 Y42.39 E0.104
G1 X74.16 Y39.96 E0.097
G1 X75.78 Y38.34 E0.071
G1 X77.01 Y37.26 E0.051
G1 X79.26 Y35.61 E0.087
G1 F5612.6
G1 E-3.118
G1 F2500.0
G1 X79.47 Y35.82
G1 X88.71 Y57.87 F15000.0
G1 F5612.6
G1 E3.118
G1 F2500.0
G1 F78.0
G1 E0.065
G1 F2500.0
G1 X72.63 Y52.65 E0.527 F2250.0
G1 X72.27 Y52.77 E0.012
G1 X72.15 Y52.89 E0.005
G1 X71.79 Y54.51 E0.052
G1 X71.55 Y56.91 E0.075
G1 X71.61 Y60.24 E0.104
G1 X71.91 Y62.1 E0.059
G1 X72.33 Y64.02 E0.061
G1 X72.93 Y65.82 E0.059
G1 X73.56 Y67.38 E0.052
G1 X74.43 Y69.06 E0.059
G1 X75.66 Y70.98 E0.071
G1 X77.52 Y73.29 E0.092
G1 X79.11 Y74.82 E0.069
G1 X79.44 Y75.0 E0.012
G1 X79.62 E0.006
G1 X79.95 Y74.76 E0.013
G1 X89.64 Y61.44 E0.514
G1 X89.82 Y61.08 E0.013
G1 X89.79 Y60.81 E0.008
G1 X89.28 Y59.73 E0.037
G1 X89.01 Y58.53 E0.038
G1 Y58.35 E0.006
G1 X88.86 Y57.99 E0.012
G1 X88.71 Y57.87 E0.006
G1 X88.59 Y58.14 E0.009
G1 X72.57 Y52.95 E0.525
G1 X72.45 Y53.01 E0.004
G1 X72.27 Y53.52 E0.017
G1 X71.85 Y56.7 E0.1
G1 X71.94 Y60.27 E0.111
G1 X72.18 Y61.92 E0.052
G1 X72.69 Y64.17 E0.072
G1 X73.23 Y65.82 E0.054
G1 X73.92 Y67.41 E0.054
G1 X74.79 Y69.09 E0.059
G1 X76.17 Y71.16 E0.078
G1 X77.85 Y73.2 E0.082
G1 X78.99 Y74.31 E0.05
G1 X79.5 Y74.7 E0.02
G1 X79.62 Y74.67 E0.004
G1 X89.52 Y61.02 E0.526
G1 X89.07 Y60.0 E0.035
G1 X88.83 Y59.25 E0.025
G1 X88.71 Y58.38 E0.027
G1 X88.59 Y58.14 E0.008
G1 F5612.6
G1 E-3.118
G1 F2500.0
G1 X88.71 Y57.87
G1 X92.46 Y62.88 F15000.0
G1 F5612.6
G1 E3.118
G1 F2500.0
G1 F78.0
G1 E0.065
G1 F2500.0
G1 X92.25 Y63.0 E0.008 F2250.0
G1 X82.32 Y76.68 E0.527
G1 X82.38 Y77.19 E0.016
G1 X82.53 Y77.34 E0.007
G1 X84.21 Y78.24 E0.059
G1 X87.09 Y79.41 E0.097
G1 X89.64 Y80.07 E0.082
G1 X92.01 Y80.4 E0.075
G1 X93.27 Y80.49 E0.039
G1 X96.33 Y80.37 E0.095
G1 X97.83 Y80.16 E0.047
G1 X99.48 Y79.83 E0.052
G1 X101.7 Y79.11 E0.073
G1 X102.84 Y78.66 E0.038
G1 X105.54 Y77.28 E0.095
G1 X105.72 Y76.98 E0.011
G1 Y76.74 E0.007
G1 X95.67 Y62.91 E0.533
G1 X95.37 Y62.82 E0.01
G1 X94.02 Y63.03 E0.043
G1 X93.21 Y62.97 E0.025
G1 X92.76 Y62.85 E0.015
G1 X92.46 Y62.88 E0.009
G1 X92.52 Y63.15 E0.009
G1 X82.62 Y76.8 E0.526
G1 X82.59 Y76.89 E0.003
G1 X82.68 Y77.07 E0.006
G1 X84.06 Y77.82 E0.049
G1 X86.28 Y78.81 E0.076
G1 X87.81 Y79.32 E0.05
G1 X89.88 Y79.8 E0.066
G1 X92.4 Y80.13 E0.079
G1 X94.71 Y80.19 E0.072
G1 X97.35 Y79.95 E0.083
G1 X99.42 Y79.53 E0.066
G1 X102.36 Y78.54 E0.097
G1 X104.07 Y77.76 E0.059
G1 X105.36 Y77.04 E0.046
G1 X105.45 Y76.89 E0.005
G1 X95.55 Y63.21 E0.527
G1 X95.37 Y63.12 E0.006
G1 X93.99 Y63.33 E0.044
G1 X92.94 Y63.21 E0.033
G1 X92.52 Y63.15 E0.013
G1 F5612.6
G1 E-3.118
G1 F2500.0
G1 X92.46 Y62.88
G1 X95.82 Y61.35 F15000.0
G1 F5612.6
G1 E3.118
G1 F2500.0
G1 F78.0
G1 E0.065
G1 F2500.0
G1 X96.03 Y61.23 E0.008 F2250.0
G1 X97.8 Y58.08 E0.113
G1 X97.77 Y57.78 E0.009
G1 X96.03 Y54.78 E0.108
G1 X95.67 Y54.6 E0.013
G1 X92.19 Y54.66 E0.109
G1 X91.86 Y54.93 E0.013
G1 X90.27 Y57.69 E0.099
G1 X90.21 Y57.93 E0.008
G1 X90.36 Y58.44 E0.017
G1 X92.13 Y61.35 E0.106
G1 X92.34 Y61.41 E0.007
G1 X95.82 Y61.35 E0.109
G1 X95.76 Y61.08 E0.009
G1 X97.5 Y58.02 E0.11
G1 X97.47 Y57.84 E0.006
G1 X95.76 Y54.93 E0.105
G1 X92.25 E0.109
G1 X90.51 Y57.93 E0.108
G1 Y58.08 E0.005
G1 X92.25 Y61.05 E0.107
G1 X92.37 Y61.11 E0.004
G1 X95.76 Y61.08 E0.106
G1 F5612.6
G1 E-3.118
G1 F2500.0
G1 X95.82 Y61.35
G1 Y53.31 F15000.0
G1 F5612.6
G1 E3.118
G1 F2500.0
G1 F78.0
G1 E0.065
G1 F2500.0
G1 X97.11 Y54.06 E0.047 F2250.0
G1 X98.07 Y54.93 E0.04
G1 X98.28 Y54.99 E0.007
G1 X114.42 Y49.74 E0.529
G1 X114.57 Y49.62 E0.006
G1 X114.66 Y49.38 E0.008
G1 X114.63 Y49.14 E0.008
G1 X114.18 Y48.09 E0.036
G1 X113.4 Y46.68 E0.05
G1 X112.08 Y44.64 E0.076
G1 X110.67 Y42.93 E0.069
G1 X108.45 Y40.77 E0.097
G1 X106.11 Y39.06 E0.09
G1 X104.97 Y38.37 E0.042
G1 X102.36 Y37.11 E0.09
G1 X100.62 Y36.51 E0.057
G1 X98.7 Y36.0 E0.062
G1 X96.03 Y35.61 E0.084
G1 X95.79 Y35.67 E0.008
G1 X95.64 Y35.82 E0.007
G1 X95.58 Y53.04 E0.537
G1 X95.82 Y53.31 E0.011
G1 X95.94 Y53.04 E0.009
G1 X97.41 Y53.91 E0.053
G1 X98.19 Y54.66 E0.034
G1 X98.31 Y54.69 E0.004
G1 X114.12 Y49.56 E0.518
G1 X114.36 Y49.41 E0.009
G1 X113.97 Y48.33 E0.036
G1 X113.1 Y46.74 E0.057
G1 X112.11 Y45.18 E0.058
G1 X110.43 Y43.11 E0.083
G1 X108.06 Y40.83 E0.103
G1 X105.12 Y38.79 E0.112
G1 X103.62 Y38.01 E0.053
G1 X101.43 Y37.11 E0.074
G1 X99.87 Y36.6 E0.051
G1 X97.29 Y36.06 E0.082
G1 X96.03 Y35.91 E0.04
G1 X95.91 Y35.97 E0.004
G1 X95.85 Y52.89 E0.528
G1 X95.94 Y53.04 E0.005
G1 F5612.6
G1 E-3.118
G1 F2500.0
G1 X95.82 Y53.31
G1 X108.69 Y74.97 F15000.0
G1 F5612.6
G1 E3.118
G1 F2500.0
G1 F78.0
G1 E0.065
G1 F2500.0
G1 X110.16 Y73.62 E0.062 F2250.0
G1 X111.57 Y72.03 E0.066
G1 X112.47 Y70.83 E0.047
G1 X113.43 Y69.33 E0.056
G1 X114.24 Y67.77 E0.055
G1 X115.29 Y65.25 E0.085
G1 X115.89 Y63.15 E0.068
G1 X116.28 Y61.05 E0.067
G1 X116.49 Y58.41 E0.083
G1 X116.46 Y56.67 E0.054
G1 X116.25 Y54.66 E0.063
G1 X115.95 Y53.16 E0.048
G1 X115.77 Y52.8 E0.013
G1 X115.62 Y52.68 E0.006
G1 X115.41 Y52.65 E0.007
G1 X99.39 Y57.84 E0.525
G1 X99.12 Y58.05 E0.011
G1 X98.73 Y59.7 E0.053
G1 X98.19 Y60.87 E0.04
G1 Y61.11 E0.007
G1 X108.12 Y74.85 E0.529
G1 X108.48 Y75.03 E0.013
G1 X108.69 Y74.97 E0.007
G1 X108.57 Y74.7 E0.009
G1 X109.98 Y73.35 E0.061
G1 X110.88 Y72.39 E0.041
G1 X112.29 Y70.56 E0.072
G1 X113.19 Y69.12 E0.053
G1 X113.88 Y67.83 E0.046
G1 X114.96 Y65.25 E0.087
G1 X115.65 Y62.82 E0.079
G1 X115.98 Y61.05 E0.056
G1 X116.19 Y58.41 E0.083
G1 X116.16 Y56.67 E0.054
G1 X115.86 Y54.33 E0.074
G1 X115.59 Y53.04 E0.041
G1 X115.47 Y52.95 E0.005
G1 X99.51 Y58.11 E0.523
G1 X99.33 Y58.26 E0.007
G1 X99.18 Y59.22 E0.03
G1 X99.0 Y59.85 E0.02
G1 X98.49 Y60.87 E0.036
G1 X98.52 Y61.11 E0.008
G1 X108.42 Y74.73 E0.525
G1 X108.57 Y74.7 E0.005
G1 F5612.6
G1 E-3.118
G1 F2500.0
G1 X108.69 Y74.97
G1 X108.36 Y75.12 F15000.0
G1 F5612.6
G1 E3.118
G1 F2500.0
G1 F78.0
G1 E0.065
G1 F2500.0
G1 X99.63 Y83.79 E0.384
G1 X99.21 Y83.88 E0.013
G1 X108.09 Y74.94 E0.393
G1 X107.94 Y74.76 E0.007
G1 X105.81 Y76.77 E0.091
G1 X105.72 Y76.56 E0.007
G1 X107.73 Y74.46 E0.091
G1 X107.58 Y74.25 E0.008
G1 X105.51 Y76.26 E0.09
G1 X105.36 Y76.05 E0.008
G1 X107.37 Y73.95 E0.091
G1 X107.22 Y73.77 E0.007
G1 X105.15 Y75.75 E0.089
G1 X105.0 Y75.57 E0.007
G1 X107.01 Y73.47 E0.091
G1 X106.86 Y73.26 E0.008
G1 X104.79 Y75.27 E0.09
G1 X104.64 Y75.06 E0.008
G1 X106.65 Y72.96 E0.091
G1 X106.5 Y72.78 E0.007
G1 X104.43 Y74.76 E0.089
G1 X104.28 Y74.55 E0.008
G1 X106.29 Y72.48 E0.09
G1 X106.14 Y72.27 E0.008
G1 X104.07 Y74.28 E0.09
G1 X103.92 Y74.07 E0.008
G1 X105.93 Y72.0 E0.09
G1 X105.78 Y71.79 E0.008
G1 X103.71 Y73.77 E0.089
G1 X103.56 Y73.59 E0.007
G1 X105.57 Y71.49 E0.091
G1 X105.45 Y71.31 E0.007
G1 X103.35 Y73.29 E0.09
G1 X103.23 Y73.11 E0.007
G1 X105.21 Y71.01 E0.09
G1 X105.06 Y70.8 E0.008
G1 X102.99 Y72.81 E0.09
G1 X102.84 Y72.6 E0.008
G1 X104.88 Y70.53 E0.091
G1 X104.73 Y70.32 E0.008
G1 X102.66 Y72.33 E0.09
G1 X102.51 Y72.12 E0.008
G1 X104.49 Y70.02 E0.09
G1 X104.37 Y69.84 E0.007
G1 X102.27 Y71.82 E0.09
G1 X102.15 Y71.64 E0.007
G1 X104.16 Y69.54 E0.091
G1 X104.01 Y69.33 E0.008
G1 X101.94 Y71.34 E0.09
G1 X101.79 Y71.13 E0.008
G1 X103.8 Y69.06 E0.09
G1 X103.65 Y68.85 E0.008
G1 X101.58 Y70.83 E0.089
G1 X101.43 Y70.65 E0.007
G1 X103.44 Y68.55 E0.091
G1 X103.29 Y68.34 E0.008
G1 X101.22 Y70.35 E0.09
G1 X101.07 Y70.14 E0.008
G1 X103.08 Y68.07 E0.09
G1 X102.93 Y67.86 E0.008
G1 X100.86 Y69.84 E0.089
G1 X100.71 Y69.66 E0.007
G1 X102.72 Y67.56 E0.091
G1 X102.57 Y67.35 E0.008
G1 X100.5 Y69.36 E0.09
G1 X100.35 Y69.15 E0.008
G1 X102.36 Y67.08 E0.09
G1 X102.21 Y66.87 E0.008
G1 X100.14 Y68.88 E0.09
G1 X99.99 Y68.67 E0.008
G1 X102.0 Y66.57 E0.091
G1 X101.85 Y66.39 E0.007
G1 X99.78 Y68.37 E0.089
G1 X99.66 Y68.19 E0.007
G1 X101.64 Y66.09 E0.09
G1 X101.52 Y65.91 E0.007
G1 X99.42 Y67.89 E0.09
G1 X99.27 Y67.68 E0.008
G1 X101.28 Y65.61 E0.09
G1 X101.13 Y65.4 E0.008
G1 X99.09 Y67.41 E0.089
G1 X98.94 Y67.2 E0.008
G1 X100.95 Y65.13 E0.09
G1 X100.8 Y64.92 E0.008
G1 X98.73 Y66.93 E0.09
G1 X98.58 Y66.72 E0.008
G1 X100.56 Y64.62 E0.09
G1 X100.44 Y64.44 E0.007
G1 X98.37 Y66.42 E0.089
G1 X98.22 Y66.21 E0.008
G1 X100.23 Y64.14 E0.09
G1 X100.08 Y63.93 E0.008
G1 X98.01 Y65.91 E0.089
G1 X97.86 Y65.73 E0.007
G1 X99.87 Y63.66 E0.09
G1 X99.72 Y63.45 E0.008
G1 X97.65 Y65.43 E0.089
G1 X97.5 Y65.22 E0.008
G1 X99.51 Y63.15 E0.09
G1 X99.36 Y62.94 E0.008
G1 X97.29 Y64.92 E0.089
G1 X97.14 Y64.74 E0.007
G1 X99.15 Y62.67 E0.09
G1 X99.0 Y62.46 E0.008
G1 X96.93 Y64.44 E0.089
G1 X96.78 Y64.23 E0.008
G1 X98.79 Y62.16 E0.09
G1 X98.64 Y61.95 E0.008
G1 X96.57 Y63.96 E0.09
G1 X96.42 Y63.75 E0.008
G1 X98.43 Y61.68 E0.09
G1 X98.28 Y61.47 E0.008
G1 X96.24 Y63.48 E0.089
G1 X96.09 Y63.27 E0.008
G1 X98.13 Y61.14 E0.092
G1 X98.1 Y60.81 E0.01
G1 X95.85 Y62.97 E0.097
G1 X95.67 Y62.82 E0.007
G1 X98.58 Y59.82 E0.13
G1 X98.76 Y59.28 E0.018
G1 X95.22 Y62.76 E0.155
G1 X94.77 Y62.85 E0.014
G1 X98.88 Y58.68 E0.183
G1 X98.94 Y58.26 E0.013
G1 X96.42 Y60.78 E0.111
G1 F5612.6
G1 E-3.118
G1 F2500.0
G1 X95.73 Y61.47 F15000.0
G1 F5612.6
G1 E3.118
G1 F2500.0
G1 F78.0
G1 E0.065
G1 F2500.0
G1 X94.23 Y62.91 E0.065
G1 X93.87 E0.011
G1 X95.25 Y61.47 E0.062
G1 X94.89 E0.011
G1 X93.39 Y62.88 E0.064
G1 X93.09 Y62.85 E0.009
G1 X94.38 Y61.47 E0.059
G1 X94.02 Y61.5 E0.011
G1 X92.67 Y62.76 E0.058
G1 X92.31 Y62.82 E0.011
G1 X91.44 Y63.93 E0.044
G1 X91.14 Y64.35 E0.016
G1 X77.13 Y78.33 E0.617
G1 X76.92 Y78.15 E0.009
G1 X93.51 Y61.5 E0.733
G1 X93.15 E0.011
G1 X80.52 Y74.13 E0.557
G1 F5612.6
G1 E-3.118
G1 F2500.0
G1 X79.56 Y75.09 F15000.0
G1 F5612.6
G1 E3.118
G1 F2500.0
G1 F78.0
G1 E0.065
G1 F2500.0
G1 X76.68 Y77.94 E0.126
G1 X76.47 Y77.76 E0.009
G1 X79.2 Y74.97 E0.122
G1 X78.99 Y74.82 E0.008
G1 X76.23 Y77.55 E0.121
G1 X76.02 Y77.37 E0.009
G1 X78.72 Y74.58 E0.121
G1 X78.54 Y74.43 E0.007
G1 X75.78 Y77.13 E0.12
G1 X75.6 Y76.95 E0.008
G1 X78.3 Y74.19 E0.12
G1 X78.12 Y74.01 E0.008
G1 X75.36 Y76.71 E0.12
G1 X75.18 Y76.53 E0.008
G1 X77.88 Y73.77 E0.12
G1 X77.7 Y73.59 E0.008
G1 X74.94 Y76.29 E0.12
G1 X74.76 Y76.11 E0.008
G1 X77.46 Y73.35 E0.12
G1 X77.28 Y73.14 E0.009
G1 X74.49 Y75.84 E0.121
G1 X74.34 Y75.66 E0.007
G1 X77.04 Y72.87 E0.121
G1 X76.89 Y72.72 E0.007
G1 X74.1 Y75.39 E0.12
G1 X73.95 Y75.21 E0.007
G1 X76.65 Y72.42 E0.121
G1 X76.5 Y72.24 E0.007
G1 X73.71 Y74.94 E0.121
G1 X73.56 Y74.76 E0.007
G1 X76.29 Y71.97 E0.122
G1 X76.11 Y71.76 E0.009
G1 X73.35 Y74.49 E0.121
G1 X73.2 Y74.28 E0.008
G1 X75.9 Y71.46 E0.122
G1 X75.78 Y71.28 E0.007
G1 X72.96 Y73.98 E0.122
G1 X72.84 Y73.8 E0.007
G1 X75.57 Y70.98 E0.122
G1 X75.39 Y70.77 E0.009
G1 X72.63 Y73.5 E0.121
G1 X72.48 Y73.29 E0.008
G1 X75.21 Y70.5 E0.122
G1 X75.06 Y70.26 E0.009
G1 X72.27 Y72.99 E0.122
G1 X72.12 Y72.78 E0.008
G1 X74.88 Y69.96 E0.123
G1 X74.73 Y69.75 E0.008
G1 X71.91 Y72.48 E0.122
G1 X71.79 Y72.3 E0.007
G1 X74.55 Y69.42 E0.124
G1 X74.43 Y69.24 E0.007
G1 X71.58 Y71.97 E0.123
G1 X71.46 Y71.76 E0.008
G1 X74.25 Y68.91 E0.124
G1 X74.13 Y68.67 E0.008
G1 X71.28 Y71.46 E0.124
G1 X71.13 Y71.22 E0.009
G1 X73.95 Y68.34 E0.126
G1 X73.83 Y68.1 E0.008
G1 X70.98 Y70.92 E0.125
G1 X70.83 Y70.68 E0.009
G1 X73.68 Y67.77 E0.127
G1 X73.56 Y67.53 E0.008
G1 X70.65 Y70.35 E0.126
G1 X70.53 Y70.14 E0.008
G1 X73.38 Y67.2 E0.128
G1 X73.29 Y66.93 E0.009
G1 X70.38 Y69.78 E0.127
G1 X70.26 Y69.54 E0.008
G1 X73.14 Y66.6 E0.128
G1 X73.05 Y66.36 E0.008
G1 X70.11 Y69.21 E0.128
G1 X69.99 Y68.97 E0.008
G1 X72.9 Y66.0 E0.13
G1 X72.81 Y65.76 E0.008
G1 X69.84 Y68.64 E0.129
G1 X69.72 Y68.4 E0.008
G1 X72.66 Y65.37 E0.132
G1 X72.6 Y65.13 E0.008
G1 X69.57 Y68.04 E0.131
G1 X69.48 Y67.8 E0.008
G1 X72.48 Y64.74 E0.134
G1 X72.39 Y64.47 E0.009
G1 X69.33 Y67.44 E0.133
G1 X69.24 Y67.17 E0.009
G1 X72.27 Y64.08 E0.135
G1 X72.18 Y63.81 E0.009
G1 X69.12 Y66.84 E0.134
G1 X69.0 Y66.57 E0.009
G1 X72.09 Y63.39 E0.138
G1 X72.03 Y63.12 E0.009
G1 X68.88 Y66.18 E0.137
G1 X68.82 Y65.94 E0.008
G1 X71.94 Y62.7 E0.14
G1 X71.88 Y62.4 E0.01
G1 X68.7 Y65.55 E0.14
G1 X68.61 Y65.25 E0.01
G1 X71.79 Y62.01 E0.142
G1 X71.73 Y61.71 E0.01
G1 X68.49 Y64.89 E0.142
G1 X68.4 Y64.62 E0.009
G1 X71.67 Y61.29 E0.146
G1 X71.64 Y60.96 E0.01
G1 X68.34 Y64.2 E0.144
G1 X68.25 Y63.93 E0.009
G1 X71.58 Y60.51 E0.149
G1 X71.52 Y60.24 E0.009
G1 X68.16 Y63.51 E0.146
G1 X68.1 Y63.21 E0.01
G1 X71.52 Y59.73 E0.152
G1 X71.46 Y59.43 E0.01
G1 X68.04 Y62.82 E0.15
G1 X67.98 Y62.49 E0.01
G1 X71.46 Y58.95 E0.155
G1 Y58.59 E0.011
G1 X67.89 Y62.1 E0.156
G1 X67.86 Y61.77 E0.01
G1 X71.46 Y58.08 E0.161
G1 Y57.75 E0.01
G1 X67.8 Y61.32 E0.159
G1 X67.77 Y61.05 E0.008
G1 X71.46 Y57.24 E0.165
G1 Y56.88 E0.011
G1 X67.71 Y60.57 E0.164
G1 X67.68 Y60.24 E0.01
G1 X71.49 Y56.37 E0.169
G1 X71.52 Y55.98 E0.012
G1 X67.65 Y59.79 E0.169
G1 X67.62 Y59.46 E0.01
G1 X71.58 Y55.44 E0.176
G1 X71.64 Y55.02 E0.013
G1 X67.62 Y58.95 E0.175
G1 Y58.62 E0.01
G1 X71.73 Y54.42 E0.183
G1 X71.79 Y54.03 E0.012
G1 X67.62 Y58.11 E0.182
G1 Y57.78 E0.01
G1 X71.91 Y53.4 E0.191
G1 X72.06 Y52.89 E0.017
G1 X67.62 Y57.27 E0.194
G1 Y56.91 E0.011
G1 X74.43 Y50.13 E0.3
G1 X89.58 Y55.05 E0.497
G1 X90.06 Y54.99 E0.015
G1 X91.02 Y54.06 E0.042
G1 X92.19 Y53.4 E0.042
G1 X92.55 Y53.04 E0.016
G1 Y35.94 E0.533
G1 X92.19 Y35.58 E0.016
G1 X91.77 Y35.52 E0.013
G1 X90.03 Y35.76 E0.055
G1 X88.38 Y36.15 E0.053
G1 X92.85 Y31.62 E0.198
G1 X92.46 Y31.65 E0.012
G1 X87.84 Y36.27 E0.204
G1 F5612.6
G1 E-3.118
G1 F2500.0
G1 X87.18 Y36.48 F15000.0
G1 F5612.6
G1 E3.118
G1 F2500.0
G1 F78.0
G1 E0.065
G1 F2500.0
G1 X91.95 Y31.65 E0.212
G1 X91.53 Y31.71 E0.013
G1 X86.43 Y36.75 E0.224
G1 X85.89 Y36.96 E0.018
G1 X90.99 Y31.77 E0.227
G1 X90.63 Y31.8 E0.011
G1 X85.17 Y37.23 E0.24
G1 F5612.6
G1 E-3.118
G1 F2500.0
G1 X88.95 Y36.0 F15000.0
G1 F5612.6
G1 E3.118
G1 F2500.0
G1 F78.0
G1 E0.065
G1 F2500.0
G1 X93.36 Y31.59 E0.194
G1 X93.72 E0.011
G1 X89.49 Y35.88 E0.188
G1 X90.0 Y35.79 E0.016
G1 X94.17 Y31.62 E0.184
G1 X94.53 E0.011
G1 X90.54 Y35.67 E0.177
G1 X91.02 Y35.61 E0.015
G1 X95.01 Y31.62 E0.176
G1 X95.37 Y31.65 E0.011
G1 X91.53 Y35.55 E0.171
G1 X91.98 Y35.52 E0.014
G1 X95.85 Y31.65 E0.171
G1 X96.18 Y31.68 E0.01
G1 X92.31 Y35.61 E0.172
G1 F5612.6
G1 E-3.118
G1 F2500.0
G1 X92.58 Y39.15 F15000.0
G1 F5612.6
G1 E3.118
G1 F2500.0
G1 F78.0
G1 E0.065
G1 F2500.0
G1 X95.43 Y36.3 E0.126
G1 Y36.66 E0.011
G1 X92.58 Y39.57 E0.127
G1 Y39.99 E0.013
G1 X95.43 Y37.14 E0.126
G1 Y37.53 E0.012
G1 X92.58 Y40.44 E0.127
G1 Y40.86 E0.013
G1 X95.43 Y38.01 E0.126
G1 Y38.37 E0.011
G1 X92.58 Y41.28 E0.127
G1 Y41.7 E0.013
G1 X95.43 Y38.85 E0.126
G1 Y39.21 E0.011
G1 X92.58 Y42.12 E0.127
G1 Y42.54 E0.013
G1 X95.43 Y39.69 E0.126
G1 Y40.05 E0.011
G1 X92.58 Y42.96 E0.127
G1 Y43.41 E0.014
G1 X95.43 Y40.56 E0.126
G1 Y40.92 E0.011
G1 X92.58 Y43.83 E0.127
G1 Y44.25 E0.013
G1 X95.43 Y41.4 E0.126
G1 Y41.76 E0.011
G1 X92.58 Y44.67 E0.127
G1 Y45.09 E0.013
G1 X95.43 Y42.24 E0.126
G1 Y42.6 E0.011
G1 X92.58 Y45.51 E0.127
G1 Y45.93 E0.013
G1 X95.43 Y43.08 E0.126
G1 Y43.47 E0.012
G1 X92.58 Y46.38 E0.127
G1 Y46.8 E0.013
G1 X95.43 Y43.95 E0.126
G1 Y44.31 E0.011
G1 X92.58 Y47.22 E0.127
G1 Y47.64 E0.013
G1 X95.43 Y44.79 E0.126
G1 Y45.15 E0.011
G1 X92.58 Y48.06 E0.127
G1 Y48.48 E0.013
G1 X95.43 Y45.63 E0.126
G1 Y45.99 E0.011
G1 X92.58 Y48.9 E0.127
G1 Y49.35 E0.014
G1 X95.43 Y46.5 E0.126
G1 Y46.86 E0.011
G1 X92.58 Y49.77 E0.127
G1 Y50.19 E0.013
G1 X95.43 Y47.34 E0.126
G1 Y47.7 E0.011
G1 X92.58 Y50.61 E0.127
G1 Y51.03 E0.013
G1 X95.43 Y48.18 E0.126
G1 Y48.54 E0.011
G1 X92.58 Y51.45 E0.127
G1 Y51.87 E0.013
G1 X95.43 Y49.02 E0.126
G1 Y49.41 E0.012
G1 X92.58 Y52.32 E0.127
G1 Y52.74 E0.013
G1 X95.43 Y49.89 E0.126
G1 Y50.25 E0.011
G1 X88.17 Y57.57 E0.321
G1 X88.44 Y57.66 E0.009
G1 X95.43 Y50.73 E0.307
G1 Y51.09 E0.011
G1 X88.8 Y57.81 E0.294
G1 X88.98 Y57.99 E0.008
G1 X91.35 Y55.65 E0.104
G1 X91.71 Y55.02 E0.023
G1 X92.04 Y54.6 E0.017
G1 X92.4 Y54.54 E0.011
G1 X95.43 Y51.6 E0.132
G1 Y51.93 E0.01
G1 X92.91 Y54.54 E0.113
G1 X93.27 E0.011
G1 X95.43 Y52.44 E0.094
G1 Y52.8 E0.011
G1 X93.75 Y54.54 E0.075
G1 X94.14 Y54.51 E0.012
G1 X95.55 Y53.19 E0.06
G1 X95.73 Y53.37 E0.008
G1 X94.62 Y54.51 E0.05
G1 X94.98 E0.011
G1 X96.06 Y53.55 E0.045
G1 X96.27 Y53.64 E0.007
G1 X95.49 Y54.51 E0.036
G1 X95.82 Y54.54 E0.01
G1 X96.6 Y53.82 E0.033
G1 X96.84 Y53.97 E0.009
G1 X96.12 Y54.75 E0.033
G1 X96.24 Y54.96 E0.008
G1 X97.11 Y54.18 E0.036
G1 X97.29 Y54.33 E0.007
G1 X96.42 Y55.26 E0.04
G1 X96.57 Y55.5 E0.009
G1 X97.53 Y54.57 E0.042
G1 X97.71 Y54.75 E0.008
G1 X96.75 Y55.8 E0.044
G1 X96.87 Y56.01 E0.008
G1 X97.98 Y54.99 E0.047
G1 X98.22 Y55.08 E0.008
G1 X97.05 Y56.34 E0.054
G1 X97.2 Y56.58 E0.009
G1 X98.91 Y54.9 E0.075
G1 F5612.6
G1 E-3.118
G1 F2500.0
G1 X99.54 Y54.69 F15000.0
G1 F5612.6
G1 E3.118
G1 F2500.0
G1 F78.0
G1 E0.065
G1 F2500.0
G1 X97.38 Y56.88 E0.096
G1 X97.5 Y57.09 E0.008
G1 X100.14 Y54.51 E0.115
G1 X100.68 Y54.33 E0.018
G1 X97.68 Y57.39 E0.134
G1 X97.8 Y57.63 E0.008
G1 X101.4 Y54.09 E0.157
G1 F5612.6
G1 E-3.118
G1 F2500.0
G1 X102.03 Y53.88 F15000.0
G1 F5612.6
G1 E3.118
G1 F2500.0
G1 F78.0
G1 E0.065
G1 F2500.0
G1 X97.89 Y58.05 E0.183
G1 X97.62 Y58.65 E0.021
G1 X102.66 Y53.67 E0.221
G1 F5612.6
G1 E-3.118
G1 F2500.0
G1 X103.32 Y53.46 F15000.0
G1 F5612.6
G1 E3.118
G1 F2500.0
G1 F78.0
G1 E0.065
G1 F2500.0
G1 X97.02 Y59.76 E0.278
G1 F5612.6
G1 E-3.118
G1 F2500.0
G1 X99.51 Y57.69 F15000.0
G1 F5612.6
G1 E3.118
G1 F2500.0
G1 F78.0
G1 E0.065
G1 F2500.0
G1 X103.92 Y53.28 E0.194
G1 X104.46 Y53.1 E0.018
G1 X100.11 Y57.51 E0.193
G1 X100.62 Y57.36 E0.017
G1 X105.18 Y52.86 E0.2
G1 F5612.6
G1 E-3.118
G1 F2500.0
G1 X107.04 Y52.26 F15000.0
G1 F5612.6
G1 E3.118
G1 F2500.0
G1 F78.0
G1 E0.065
G1 F2500.0
G1 X102.48 Y56.76 E0.2
G1 X102.0 Y56.91 E0.016
G1 X106.32 Y52.5 E0.192
G1 X105.84 Y52.65 E0.016
G1 X101.34 Y57.12 E0.198
G1 F5612.6
G1 E-3.118
G1 F2500.0
G1 X103.26 Y56.49 F15000.0
G1 F5612.6
G1 E3.118
G1 F2500.0
G1 F78.0
G1 E0.065
G1 F2500.0
G1 X107.7 Y52.05 E0.196
G1 X108.24 Y51.87 E0.018
G1 X103.86 Y56.31 E0.194
G1 X104.4 Y56.13 E0.018
G1 X108.96 Y51.63 E0.2
G1 F5612.6
G1 E-3.118
G1 F2500.0
G1 X109.59 Y51.42 F15000.0
G1 F5612.6
G1 E3.118
G1 F2500.0
G1 F78.0
G1 E0.065
G1 F2500.0
G1 X105.12 Y55.89 E0.197
G1 F5612.6
G1 E-3.118
G1 F2500.0
G1 X105.75 Y55.68 F15000.0
G1 F5612.6
G1 E3.118
G1 F2500.0
G1 F78.0
G1 E0.065
G1 F2500.0
G1 X110.22 Y51.24 E0.196
G1 X110.73 Y51.06 E0.017
G1 X106.41 Y55.47 E0.192
G1 X106.89 Y55.32 E0.016
G1 X111.48 Y50.82 E0.2
G1 X112.02 Y50.64 E0.018
G1 X107.64 Y55.08 E0.194
G1 X108.18 Y54.9 E0.018
G1 X112.74 Y50.4 E0.2
G1 F5612.6
G1 E-3.118
G1 F2500.0
G1 X114.54 Y52.83 F15000.0
G1 F5612.6
G1 E3.118
G1 F2500.0
G1 F78.0
G1 E0.065
G1 F2500.0
G1 X118.71 Y48.63 E0.185
G1 X118.59 Y48.36 E0.009
G1 X113.82 Y53.07 E0.209
G1 X113.31 Y53.22 E0.017
G1 X118.47 Y48.03 E0.228
G1 X118.35 Y47.76 E0.009
G1 X112.68 Y53.43 E0.25
G1 F5612.6
G1 E-3.118
G1 F2500.0
G1 X112.05 Y53.64 F15000.0
G1 F5612.6
G1 E3.118
G1 F2500.0
G1 F78.0
G1 E0.065
G1 F2500.0
G1 X118.2 Y47.43 E0.273
G1 X118.08 Y47.16 E0.009
G1 X111.39 Y53.85 E0.295
G1 F5612.6
G1 E-3.118
G1 F2500.0
G1 X109.53 Y54.45 F15000.0
G1 F5612.6
G1 E3.118
G1 F2500.0
G1 F78.0
G1 E0.065
G1 F2500.0
G1 X113.88 Y50.04 E0.193
G1 X113.37 Y50.19 E0.017
G1 X108.9 Y54.66 E0.197
G1 F5612.6
G1 E-3.118
G1 F2500.0
G1 X115.17 Y52.62 F15000.0
G1 F5612.6
G1 E3.118
G1 F2500.0
G1 F78.0
G1 E0.065
G1 F2500.0
G1 X118.83 Y48.99 E0.161
G1 X118.92 Y49.23 E0.008
G1 X115.65 Y52.59 E0.146
G1 X115.83 Y52.74 E0.007
G1 X119.07 Y49.62 E0.14
G1 X119.13 Y49.89 E0.009
G1 X116.01 Y53.07 E0.139
G1 X116.1 Y53.37 E0.01
G1 X119.25 Y50.25 E0.138
G1 X119.34 Y50.52 E0.009
G1 X116.16 Y53.76 E0.142
G1 X116.22 Y54.06 E0.01
G1 X119.46 Y50.91 E0.141
G1 X119.52 Y51.18 E0.009
G1 X116.31 Y54.51 E0.144
G1 X116.34 Y54.78 E0.008
G1 X119.64 Y51.6 E0.143
G1 X119.7 Y51.84 E0.008
G1 X116.4 Y55.23 E0.148
G1 X116.43 Y55.56 E0.01
G1 X119.79 Y52.26 E0.147
G1 X119.88 Y52.56 E0.01
G1 X116.49 Y55.98 E0.15
G1 Y56.34 E0.011
G1 X119.94 Y52.95 E0.151
G1 X120.0 Y53.25 E0.01
G1 X116.55 Y56.79 E0.154
G1 Y57.12 E0.01
G1 X120.06 Y53.7 E0.153
G1 X120.12 Y53.97 E0.009
G1 X116.58 Y57.6 E0.158
G1 Y57.93 E0.01
G1 X120.18 Y54.42 E0.157
G1 X120.21 Y54.75 E0.01
G1 X116.55 Y58.47 E0.163
G1 Y58.83 E0.011
G1 X120.27 Y55.17 E0.163
G1 X120.3 Y55.5 E0.01
G1 X116.52 Y59.34 E0.168
G1 X116.49 Y59.73 E0.012
G1 X120.33 Y55.98 E0.167
G1 X120.36 Y56.28 E0.009
G1 X116.46 Y60.27 E0.174
G1 X116.4 Y60.66 E0.012
G1 X120.39 Y56.76 E0.174
G1 Y57.09 E0.01
G1 X116.34 Y61.23 E0.181
G1 X116.28 Y61.65 E0.013
G1 X120.42 Y57.6 E0.181
G1 Y57.93 E0.01
G1 X116.16 Y62.25 E0.189
G1 X116.07 Y62.7 E0.014
G1 X120.39 Y58.44 E0.189
G1 Y58.8 E0.011
G1 X115.92 Y63.36 E0.199
G1 X115.8 Y63.81 E0.015
G1 X120.39 Y59.31 E0.2
G1 X120.36 Y59.67 E0.011
G1 X115.59 Y64.53 E0.212
G1 X115.44 Y65.01 E0.016
G1 X120.33 Y60.21 E0.214
G1 X120.3 Y60.6 E0.012
G1 X115.2 Y65.76 E0.226
G1 X114.96 Y66.36 E0.02
G1 X120.24 Y61.14 E0.232
G1 F5612.6
G1 E-3.118
G1 F2500.0
G1 X119.52 Y64.83 F15000.0
G1 F5612.6
G1 E3.118
G1 F2500.0
G1 F78.0
G1 E0.065
G1 F2500.0
G1 X100.74 Y83.55 E0.827
G1 X100.26 Y83.67 E0.015
G1 X119.7 Y64.17 E0.859
G1 X119.79 Y63.72 E0.014
G1 X112.56 Y70.86 E0.317
G1 X113.16 Y69.93 E0.035
G1 X119.94 Y63.06 E0.301
G1 X120.0 Y62.67 E0.012
G1 X113.88 Y68.7 E0.268
G1 X114.24 Y68.01 E0.024
G1 X120.12 Y62.04 E0.261
G1 X120.18 Y61.62 E0.013
G1 X114.6 Y67.2 E0.246
G1 F5612.6
G1 E-3.118
G1 F2500.0
G1 X118.44 Y68.01 F15000.0
G1 F5612.6
G1 E3.118
G1 F2500.0
G1 F78.0
G1 E0.065
G1 F2500.0
G1 X103.89 Y82.5 E0.64
G1 X103.38 Y82.68 E0.017
G1 X118.77 Y67.2 E0.681
G1 X118.95 Y66.69 E0.017
G1 X102.66 Y82.95 E0.718
G1 F5612.6
G1 E-3.118
G1 F2500.0
G1 X102.03 Y83.16 F15000.0
G1 F5612.6
G1 E3.118
G1 F2500.0
G1 F78.0
G1 E0.065
G1 F2500.0
G1 X119.19 Y65.94 E0.758
G1 X119.34 Y65.43 E0.017
G1 X101.43 Y83.34 E0.79
G1 F5612.6
G1 E-3.118
G1 F2500.0
G1 X104.82 Y82.08 F15000.0
G1 F5612.6
G1 E3.118
G1 F2500.0
G1 F78.0
G1 E0.065
G1 F2500.0
G1 X118.11 Y68.79 E0.586
G1 X117.81 Y69.45 E0.023
G1 X105.57 Y81.75 E0.541
G1 X106.32 Y81.36 E0.026
G1 X117.33 Y70.41 E0.484
G1 X116.88 Y71.22 E0.029
G1 X107.37 Y80.79 E0.421
G1 X108.3 Y80.22 E0.034
G1 X116.1 Y72.48 E0.343
G1 F5612.6
G1 E-3.118
G1 F2500.0
G1 X115.17 Y73.83 F15000.0
G1 F5612.6
G1 E3.118
G1 F2500.0
G1 F78.0
G1 E0.065
G1 F2500.0
G1 X109.95 Y79.05 E0.23
G1 F5612.6
G1 E-3.118
G1 F2500.0
G1 X104.91 Y77.73 F15000.0
G1 F5612.6
G1 E3.118
G1 F2500.0
G1 F78.0
G1 E0.065
G1 F2500.0
G1 X98.58 Y84.0 E0.278
G1 X98.19 Y84.06 E0.012
G1 X103.86 Y78.3 E0.252
G1 X103.2 Y78.6 E0.023
G1 X97.65 Y84.15 E0.245
G1 F5612.6
G1 E-3.118
G1 F2500.0
G1 X96.18 Y84.33 F15000.0
G1 F5612.6
G1 E3.118
G1 F2500.0
G1 F78.0
G1 E0.065
G1 F2500.0
G1 X100.95 Y79.5 E0.212
G1 X100.47 Y79.62 E0.015
G1 X95.73 Y84.36 E0.209
G1 X95.28 Y84.39 E0.014
G1 X99.78 Y79.83 E0.2
G1 X99.3 Y79.95 E0.015
G1 X94.8 Y84.39 E0.197
G1 X94.41 Y84.42 E0.012
G1 X98.67 Y80.1 E0.189
G1 X98.22 Y80.19 E0.014
G1 X93.93 Y84.42 E0.188
G1 X93.6 Y84.39 E0.01
G1 X97.65 Y80.28 E0.18
G1 X97.23 Y80.34 E0.013
G1 X93.09 Y84.39 E0.181
G1 X92.76 E0.01
G1 X96.63 Y80.43 E0.173
G1 X96.24 Y80.49 E0.012
G1 X92.28 Y84.36 E0.173
G1 X91.98 Y84.33 E0.009
G1 X95.7 Y80.52 E0.166
G1 X95.31 Y80.55 E0.012
G1 X91.59 Y84.3 E0.165
G1 F5612.6
G1 E-3.118
G1 F2500.0
G1 X88.98 Y83.91 F15000.0
G1 F5612.6
G1 E3.118
G1 F2500.0
G1 F78.0
G1 E0.065
G1 F2500.0
G1 X92.37 Y80.52 E0.149
G1 X92.7 Y80.55 E0.01
G1 X89.34 Y84.0 E0.15
G1 X89.64 Y84.06 E0.01
G1 X93.21 Y80.55 E0.156
G1 X93.51 Y80.58 E0.009
G1 X90.09 Y84.09 E0.153
G1 X90.36 Y84.15 E0.009
G1 X94.02 Y80.58 E0.159
G1 X94.38 E0.011
G1 X90.81 Y84.21 E0.159
G1 X91.14 Y84.24 E0.01
G1 X94.89 Y80.55 E0.164
G1 F5612.6
G1 E-3.118
G1 F2500.0
G1 X91.98 Y80.49 F15000.0
G1 F5612.6
G1 E3.118
G1 F2500.0
G1 F78.0
G1 E0.065
G1 F2500.0
G1 X88.56 Y83.85 E0.149
G1 X88.26 Y83.79 E0.01
G1 X91.59 Y80.43 E0.148
G1 X91.2 Y80.4 E0.012
G1 X87.84 Y83.7 E0.147
G1 X87.6 Y83.64 E0.008
G1 X90.81 Y80.34 E0.144
G1 F5612.6
G1 E-3.118
G1 F2500.0
G1 X90.45 Y80.31 F15000.0
G1 F5612.6
G1 E3.118
G1 F2500.0
G1 F78.0
G1 E0.065
G1 F2500.0
G1 X87.24 Y83.52 E0.142
G1 X86.91 Y83.43 E0.011
G1 X90.06 Y80.22 E0.14
G1 X89.76 Y80.16 E0.01
G1 X86.58 Y83.34 E0.14
G1 F5612.6
G1 E-3.118
G1 F2500.0
G1 X86.25 Y83.25 F15000.0
G1 F5612.6
G1 E3.118
G1 F2500.0
G1 F78.0
G1 E0.065
G1 F2500.0
G1 X89.34 Y80.1 E0.138
G1 X89.07 Y80.01 E0.009
G1 X85.89 Y83.13 E0.139
G1 X85.62 Y83.04 E0.009
G1 X88.68 Y79.92 E0.136
G1 X88.35 Y79.86 E0.01
G1 X85.26 Y82.92 E0.136
G1 X84.99 Y82.83 E0.009
G1 X88.02 Y79.77 E0.134
G1 X87.69 Y79.68 E0.011
G1 X84.63 Y82.68 E0.134
G1 X84.36 Y82.59 E0.009
G1 X87.36 Y79.59 E0.132
G1 F5612.6
G1 E-3.118
G1 F2500.0
G1 X87.06 Y79.47 F15000.0
G1 F5612.6
G1 E3.118
G1 F2500.0
G1 F78.0
G1 E0.065
G1 F2500.0
G1 X84.03 Y82.44 E0.132
G1 X83.76 Y82.35 E0.009
G1 X86.7 Y79.35 E0.131
G1 X86.43 Y79.26 E0.009
G1 X83.49 Y82.23 E0.13
G1 F5612.6
G1 E-3.118
G1 F2500.0
G1 X86.1 Y79.14 F15000.0
G1 F5612.6
G1 E3.118
G1 F2500.0
G1 F78.0
G1 E0.065
G1 F2500.0
G1 X83.13 Y82.05 E0.13
G1 X82.89 Y81.96 E0.008
G1 X85.77 Y79.02 E0.128
G1 X85.53 Y78.93 E0.008
G1 X82.56 Y81.81 E0.129
G1 X82.29 Y81.69 E0.009
G1 X85.17 Y78.78 E0.128
G1 X84.9 Y78.66 E0.009
G1 X81.99 Y81.51 E0.127
G1 X81.75 Y81.39 E0.008
G1 X84.57 Y78.51 E0.126
G1 X84.33 Y78.39 E0.008
G1 X81.45 Y81.24 E0.126
G1 X81.21 Y81.09 E0.009
G1 X84.0 Y78.21 E0.125
G1 X83.76 Y78.12 E0.008
G1 X80.88 Y80.91 E0.125
G1 X80.67 Y80.79 E0.008
G1 X83.43 Y77.94 E0.124
G1 X83.22 Y77.82 E0.008
G1 X80.37 Y80.61 E0.124
G1 X80.13 Y80.46 E0.009
G1 X82.89 Y77.64 E0.123
G1 X82.65 Y77.52 E0.008
G1 X79.83 Y80.28 E0.123
G1 X79.62 Y80.16 E0.008
G1 X82.38 Y77.31 E0.124
G1 X82.23 Y77.1 E0.008
G1 X79.32 Y79.95 E0.127
G1 X79.11 Y79.77 E0.009
G1 X82.26 Y76.62 E0.139
G1 F5612.6
G1 E-3.118
G1 F2500.0
G1 X83.31 Y75.15 F15000.0
G1 F5612.6
G1 E3.118
G1 F2500.0
G1 F78.0
G1 E0.065
G1 F2500.0
G1 X78.81 Y79.59 E0.197
G1 X78.6 Y79.44 E0.008
G1 X84.6 Y73.38 E0.266
G1 X85.56 Y72.06 E0.051
G1 X78.33 Y79.26 E0.318
G1 X78.12 Y79.08 E0.009
G1 X86.82 Y70.32 E0.385
G1 X87.84 Y68.94 E0.054
G1 X77.85 Y78.9 E0.44
G1 X77.64 Y78.75 E0.008
G1 X89.16 Y67.11 E0.511
G1 X90.12 Y65.79 E0.051
G1 X77.37 Y78.54 E0.562
G1 F5612.6
G1 E-3.118
G1 F2500.0
G1 X81.66 Y72.57 F15000.0
G1 F5612.6
G1 E3.118
G1 F2500.0
G1 F78.0
G1 E0.065
G1 F2500.0
G1 X92.67 Y61.5 E0.487
G1 X92.31 E0.011
G1 X82.77 Y71.04 E0.421
G1 F5612.6
G1 E-3.118
G1 F2500.0
G1 X88.44 Y63.24 F15000.0
G1 F5612.6
G1 E3.118
G1 F2500.0
G1 F78.0
G1 E0.065
G1 F2500.0
G1 X91.35 Y60.33 E0.128
G1 X91.5 Y60.54 E0.008
G1 X87.24 Y64.86 E0.189
G1 X87.33 Y64.77 E0.004
G1 X86.34 Y66.12 E0.052
G1 X91.68 Y60.87 E0.234
G1 X91.8 Y61.08 E0.008
G1 X85.02 Y67.95 E0.301
G1 X84.15 Y69.15 E0.046
G1 X92.01 Y61.35 E0.345
G1 F5612.6
G1 E-3.118
G1 F2500.0
G1 X89.55 Y61.71 F15000.0
G1 F5612.6
G1 E3.118
G1 F2500.0
G1 F78.0
G1 E0.065
G1 F2500.0
G1 X91.2 Y60.03 E0.073
G1 X91.05 Y59.79 E0.009
G1 X89.91 Y60.87 E0.049
G1 X89.82 Y60.63 E0.008
G1 X90.87 Y59.49 E0.048
G1 X90.75 Y59.28 E0.008
G1 X89.64 Y60.27 E0.046
G1 X89.52 Y60.06 E0.008
G1 X90.54 Y58.95 E0.047
G1 X90.42 Y58.71 E0.008
G1 X89.37 Y59.7 E0.045
G1 X89.28 Y59.43 E0.009
G1 X90.24 Y58.41 E0.044
G1 X90.15 Y58.17 E0.008
G1 X89.19 Y59.04 E0.04
G1 X89.13 Y58.74 E0.01
G1 X90.27 Y57.54 E0.052
G1 X90.78 Y56.67 E0.031
G1 X89.1 Y58.32 E0.073
G1 F5612.6
G1 E-3.118
G1 F2500.0
G1 X88.47 Y54.72 F15000.0
G1 F5612.6
G1 E3.118
G1 F2500.0
G1 F78.0
G1 E0.065
G1 F2500.0
G1 X86.25 Y56.97 E0.099
G1 X86.52 Y57.06 E0.009
G1 X88.77 Y54.84 E0.099
G1 X89.1 Y54.93 E0.011
G1 X86.91 Y57.18 E0.098
G1 X87.15 Y57.24 E0.008
G1 X89.43 Y55.02 E0.099
G1 X89.85 Y55.05 E0.013
G1 X87.54 Y57.39 E0.103
G1 X87.81 Y57.48 E0.009
G1 X91.65 Y53.67 E0.169
G1 F5612.6
G1 E-3.118
G1 F2500.0
G1 X88.14 Y54.63 F15000.0
G1 F5612.6
G1 E3.118
G1 F2500.0
G1 F78.0
G1 E0.065
G1 F2500.0
G1 X85.89 Y56.85 E0.099
G1 X85.62 Y56.76 E0.009
G1 X87.84 Y54.51 E0.099
G1 X87.51 Y54.42 E0.011
G1 X85.29 Y56.64 E0.098
G1 F5612.6
G1 E-3.118
G1 F2500.0
G1 X84.96 Y56.55 F15000.0
G1 F5612.6
G1 E3.118
G1 F2500.0
G1 F78.0
G1 E0.065
G1 F2500.0
G1 Y56.52 E0.001
G1 X87.18 Y54.3 E0.098
G1 X86.85 Y54.21 E0.011
G1 X84.57 Y56.43 E0.099
G1 X84.33 Y56.34 E0.008
G1 X86.55 Y54.09 E0.099
G1 F5612.6
G1 E-3.118
G1 F2500.0
G1 X86.22 Y54.0 F15000.0
G1 F5612.6
G1 E3.118
G1 F2500.0
G1 F78.0
G1 E0.065
G1 F2500.0
G1 X83.97 Y56.22 E0.099
G1 X83.67 Y56.13 E0.01
G1 X85.92 Y53.88 E0.099
G1 X85.59 Y53.79 E0.011
G1 X83.31 Y56.04 E0.1
G1 X83.04 Y55.95 E0.009
G1 X85.29 Y53.67 E0.1
G1 F5612.6
G1 E-3.118
G1 F2500.0
G1 X84.93 Y53.58 F15000.0
G1 F5612.6
G1 E3.118
G1 F2500.0
G1 F78.0
G1 E0.065
G1 F2500.0
G1 X82.65 Y55.8 E0.099
G1 X82.41 Y55.74 E0.008
G1 X84.63 Y53.46 E0.099
G1 X84.3 Y53.37 E0.011
G1 X82.02 Y55.59 E0.099
G1 X81.75 Y55.5 E0.009
G1 X84.0 Y53.25 E0.099
G1 X83.67 Y53.16 E0.011
G1 X81.39 Y55.41 E0.1
G1 X81.12 Y55.32 E0.009
G1 X83.34 Y53.07 E0.099
G1 X83.04 Y52.95 E0.01
G1 X80.76 Y55.2 E0.1
G1 X80.49 Y55.11 E0.009
G1 X82.71 Y52.83 E0.099
G1 X82.38 Y52.74 E0.011
G1 X80.1 Y54.96 E0.099
G1 X79.86 Y54.9 E0.008
G1 X82.05 Y52.65 E0.098
G1 X81.75 Y52.53 E0.01
G1 X79.47 Y54.75 E0.099
G1 X79.2 Y54.66 E0.009
G1 X81.42 Y52.44 E0.098
G1 X81.12 Y52.32 E0.01
G1 X78.84 Y54.57 E0.1
G1 X78.57 Y54.48 E0.009
G1 X80.79 Y52.23 E0.099
G1 F5612.6
G1 E-3.118
G1 F2500.0
G1 X80.46 Y52.11 F15000.0
G1 F5612.6
G1 E3.118
G1 F2500.0
G1 F78.0
G1 E0.065
G1 F2500.0
G1 X78.18 Y54.36 E0.1
G1 X77.91 Y54.27 E0.009
G1 X80.13 Y52.02 E0.099
G1 X79.83 Y51.9 E0.01
G1 X77.55 Y54.15 E0.1
G1 X77.28 Y54.06 E0.009
G1 X79.5 Y51.81 E0.099
G1 F5612.6
G1 E-3.118
G1 F2500.0
G1 X78.57 Y51.48 F15000.0
G1 F5612.6
G1 E3.118
G1 F2500.0
G1 F78.0
G1 E0.065
G1 F2500.0
G1 X76.32 Y53.73 E0.099
G1 X76.59 Y53.82 E0.009
G1 X78.87 Y51.6 E0.099
G1 X79.2 Y51.69 E0.011
G1 X76.95 Y53.94 E0.099
G1 F5612.6
G1 E-3.118
G1 F2500.0
G1 X78.21 Y51.39 F15000.0
G1 F5612.6
G1 E3.118
G1 F2500.0
G1 F78.0
G1 E0.065
G1 F2500.0
G1 X75.93 Y53.61 E0.099
G1 X75.69 Y53.55 E0.008
G1 X77.91 Y51.27 E0.099
G1 X77.58 Y51.18 E0.011
G1 X75.3 Y53.4 E0.099
G1 X75.03 Y53.34 E0.009
G1 X77.28 Y51.06 E0.1
G1 X76.95 Y50.97 E0.011
G1 X74.67 Y53.22 E0.1
G1 X74.4 Y53.13 E0.009
G1 X76.62 Y50.88 E0.099
G1 X76.32 Y50.76 E0.01
G1 X74.07 Y53.01 E0.099
G1 F5612.6
G1 E-3.118
G1 F2500.0
G1 X73.74 Y52.92 F15000.0
G1 F5612.6
G1 E3.118
G1 F2500.0
G1 F78.0
G1 E0.065
G1 F2500.0
G1 Y52.89 E0.001
G1 X75.99 Y50.64 E0.099
G1 X75.66 Y50.55 E0.011
G1 X73.38 Y52.8 E0.1
G1 X73.11 Y52.71 E0.009
G1 X75.33 Y50.46 E0.099
G1 F5612.6
G1 E-3.118
G1 F2500.0
G1 X74.07 Y50.04 F15000.0
G1 F5612.6
G1 E3.118
G1 F2500.0
G1 F78.0
G1 E0.065
G1 F2500.0
G1 X67.62 Y56.43 E0.283
G1 X67.68 Y56.01 E0.013
G1 X73.74 Y49.92 E0.268
G1 X73.47 Y49.77 E0.01
G1 X67.71 Y55.47 E0.253
G1 X67.74 Y55.11 E0.011
G1 X73.29 Y49.5 E0.246
G1 X73.26 Y49.17 E0.01
G1 X67.8 Y54.54 E0.239
G1 X67.86 Y54.12 E0.013
G1 X73.62 Y48.3 E0.255
G1 X74.01 Y47.55 E0.026
G1 X67.95 Y53.55 E0.266
G1 X68.04 Y53.1 E0.014
G1 X74.58 Y46.5 E0.29
G1 X75.3 Y45.39 E0.041
G1 X68.16 Y52.47 E0.314
G1 X68.28 Y52.02 E0.015
G1 X76.74 Y43.47 E0.375
G1 X78.69 Y41.4 E0.089
G1 X80.76 Y39.72 E0.083
G1 X81.39 Y39.3 E0.024
G1 X88.44 Y32.19 E0.312
G1 X87.99 Y32.28 E0.014
G1 X79.77 Y40.5 E0.362
G1 F5612.6
G1 E-3.118
G1 F2500.0
G1 X81.48 Y39.24 F15000.0
G1 F5612.6
G1 E3.118
G1 F2500.0
G1 F78.0
G1 E0.065
G1 F2500.0
G1 X82.47 Y38.61 E0.037
G1 X89.07 Y32.07 E0.29
G1 X89.52 Y31.98 E0.014
G1 X83.58 Y37.98 E0.263
G1 X84.27 Y37.65 E0.024
G1 X90.12 Y31.86 E0.257
G1 F5612.6
G1 E-3.118
G1 F2500.0
G1 X87.42 Y32.43 F15000.0
G1 F5612.6
G1 E3.118
G1 F2500.0
G1 F78.0
G1 E0.065
G1 F2500.0
G1 X68.46 Y51.33 E0.835
G1 X68.55 Y50.91 E0.013
G1 X86.76 Y32.61 E0.805
G1 X86.25 Y32.76 E0.017
G1 X68.76 Y50.19 E0.77
G1 X68.94 Y49.65 E0.018
G1 X85.65 Y32.94 E0.737
G1 F5612.6
G1 E-3.118
G1 F2500.0
G1 X76.89 Y37.86 F15000.0
G1 F5612.6
G1 E3.118
G1 F2500.0
G1 F78.0
G1 E0.065
G1 F2500.0
G1 X73.62 Y41.19 E0.146
G1 X72.6 Y42.54 E0.053
G1 X78.84 Y36.36 E0.274
G1 X79.86 Y35.7 E0.038
G1 X71.55 Y44.07 E0.368
G1 F5612.6
G1 E-3.118
G1 F2500.0
G1 X70.98 Y45.06 F15000.0
G1 F5612.6
G1 E3.118
G1 F2500.0
G1 F78.0
G1 E0.065
G1 F2500.0
G1 X81.03 Y35.01 E0.443
G1 X81.81 Y34.59 E0.028
G1 X70.47 Y46.02 E0.502
G1 X70.14 Y46.68 E0.023
G1 X82.83 Y34.08 E0.558
G1 X83.46 Y33.78 E0.022
G1 X69.72 Y47.61 E0.608
G1 X69.51 Y48.15 E0.018
G1 X84.27 Y33.45 E0.65
G1 X84.87 Y33.24 E0.02
G1 X69.15 Y49.02 E0.695
G1 F5612.6
G1 E-3.118
G1 F2500.0
G1 X72.33 Y52.62 F15000.0
G1 F5612.6
G1 E3.118
G1 F2500.0
G1 F78.0
G1 E0.065
G1 F2500.0
G1 X74.7 Y50.25 E0.105
G1 X75.03 Y50.34 E0.011
G1 X72.78 Y52.59 E0.099
G1 F5612.6
G1 E-3.118
G1 F2500.0
G1 X99.81 Y36.18 F15000.0
G1 F5612.6
G1 E3.118
G1 F2500.0
G1 F78.0
G1 E0.065
G1 F2500.0
G1 X102.87 Y33.12 E0.135
G1 X103.14 Y33.21 E0.009
G1 X100.14 Y36.27 E0.134
G1 X100.47 Y36.36 E0.011
G1 X103.47 Y33.36 E0.132
G1 X103.74 Y33.45 E0.009
G1 X100.8 Y36.45 E0.131
G1 F5612.6
G1 E-3.118
G1 F2500.0
G1 X101.58 Y32.7 F15000.0
G1 F5612.6
G1 E3.118
G1 F2500.0
G1 F78.0
G1 E0.065
G1 F2500.0
G1 X98.43 Y35.85 E0.139
G1 X98.73 Y35.94 E0.01
G1 X101.91 Y32.79 E0.14
G1 X102.21 Y32.88 E0.01
G1 X99.15 Y36.03 E0.137
G1 X99.42 Y36.09 E0.009
G1 X102.54 Y33.0 E0.137
G1 F5612.6
G1 E-3.118
G1 F2500.0
G1 X101.25 Y32.61 F15000.0
G1 F5612.6
G1 E3.118
G1 F2500.0
G1 F78.0
G1 E0.065
G1 F2500.0
G1 X98.01 Y35.79 E0.142
G1 X97.71 Y35.73 E0.01
G1 X100.89 Y32.49 E0.142
G1 X100.62 Y32.43 E0.009
G1 X97.29 Y35.67 E0.145
G1 X96.96 Y35.64 E0.01
G1 X100.2 Y32.31 E0.145
G1 X99.93 Y32.28 E0.008
G1 X96.51 Y35.58 E0.148
G1 X96.24 Y35.55 E0.008
G1 X99.51 Y32.16 E0.147
G1 X99.21 Y32.1 E0.01
G1 X92.58 Y38.73 E0.292
G1 Y38.31 E0.013
G1 X98.79 Y32.04 E0.275
G1 X98.49 Y31.98 E0.01
G1 X92.58 Y37.89 E0.261
G1 Y37.47 E0.013
G1 X98.07 Y31.92 E0.243
G1 X97.74 Y31.86 E0.01
G1 X92.58 Y37.02 E0.228
G1 Y36.6 E0.013
G1 X97.32 Y31.8 E0.21
G1 X96.99 Y31.77 E0.01
G1 X92.58 Y36.18 E0.194
G1 X92.49 Y35.85 E0.011
G1 X96.6 Y31.74 E0.181
G1 F5612.6
G1 E-3.118
G1 F2500.0
G1 X104.07 Y33.57 F15000.0
G1 F5612.6
G1 E3.118
G1 F2500.0
G1 F78.0
G1 E0.065
G1 F2500.0
G1 X101.13 Y36.57 E0.131
G1 X101.37 Y36.66 E0.008
G1 X104.37 Y33.72 E0.131
G1 X104.64 Y33.84 E0.009
G1 X101.73 Y36.78 E0.129
G1 X102.03 Y36.9 E0.01
G1 X104.97 Y33.99 E0.129
G1 X105.24 Y34.11 E0.009
G1 X102.36 Y37.02 E0.128
G1 X102.63 Y37.14 E0.009
G1 X105.54 Y34.26 E0.128
G1 X105.84 Y34.38 E0.01
G1 X102.96 Y37.29 E0.128
G1 X103.2 Y37.41 E0.008
G1 X106.14 Y34.56 E0.128
G1 X106.35 Y34.68 E0.008
G1 X103.53 Y37.56 E0.126
G1 X103.77 Y37.65 E0.008
G1 X106.65 Y34.83 E0.126
G1 X106.95 Y34.98 E0.01
G1 X104.13 Y37.8 E0.124
G1 X104.37 Y37.95 E0.009
G1 X107.22 Y35.13 E0.125
G1 X107.46 Y35.28 E0.009
G1 X104.67 Y38.13 E0.124
G1 X104.91 Y38.25 E0.008
G1 X107.76 Y35.46 E0.124
G1 X107.97 Y35.58 E0.008
G1 X105.24 Y38.43 E0.123
G1 X105.45 Y38.55 E0.008
G1 X108.27 Y35.76 E0.124
G1 F5612.6
G1 E-3.118
G1 F2500.0
G1 X105.75 Y38.73 F15000.0
G1 F5612.6
G1 E3.118
G1 F2500.0
G1 F78.0
G1 E0.065
G1 F2500.0
G1 X108.54 Y35.94 E0.123
G1 X108.75 Y36.09 E0.008
G1 X106.02 Y38.91 E0.122
G1 X106.23 Y39.03 E0.008
G1 X109.05 Y36.3 E0.122
G1 X109.26 Y36.42 E0.008
G1 X106.53 Y39.24 E0.122
G1 X106.74 Y39.39 E0.008
G1 X109.53 Y36.63 E0.122
G1 X109.74 Y36.78 E0.008
G1 X107.04 Y39.6 E0.122
G1 X107.22 Y39.72 E0.007
G1 X110.04 Y37.02 E0.122
G1 X110.22 Y37.14 E0.007
G1 X107.52 Y39.93 E0.121
G1 X107.73 Y40.11 E0.009
G1 X110.49 Y37.38 E0.121
G1 X110.7 Y37.53 E0.008
G1 X108.0 Y40.32 E0.121
G1 X108.21 Y40.47 E0.008
G1 X110.97 Y37.74 E0.121
G1 X111.15 Y37.92 E0.008
G1 X108.48 Y40.68 E0.12
G1 X108.66 Y40.83 E0.007
G1 X111.45 Y38.16 E0.12
G1 X111.6 Y38.31 E0.007
G1 X108.93 Y41.07 E0.12
G1 X109.11 Y41.25 E0.008
G1 X111.9 Y38.55 E0.121
G1 X112.08 Y38.73 E0.008
G1 X109.38 Y41.49 E0.12
G1 X109.56 Y41.67 E0.008
G1 X112.32 Y38.94 E0.121
G1 X112.5 Y39.12 E0.008
G1 X109.8 Y41.91 E0.121
G1 X109.98 Y42.09 E0.008
G1 X112.74 Y39.36 E0.121
G1 X112.92 Y39.54 E0.008
G1 X110.22 Y42.33 E0.121
G1 X110.4 Y42.51 E0.008
G1 X113.16 Y39.81 E0.12
G1 X113.34 Y39.99 E0.008
G1 X110.64 Y42.78 E0.121
G1 X110.82 Y42.96 E0.008
G1 X113.58 Y40.23 E0.121
G1 X113.73 Y40.44 E0.008
G1 X111.03 Y43.2 E0.12
G1 X111.21 Y43.41 E0.009
G1 X113.97 Y40.71 E0.12
G1 X114.12 Y40.89 E0.007
G1 X111.42 Y43.65 E0.12
G1 X111.57 Y43.86 E0.008
G1 X114.36 Y41.16 E0.121
G1 X114.51 Y41.34 E0.007
G1 X111.81 Y44.13 E0.121
G1 X111.96 Y44.34 E0.008
G1 X114.75 Y41.64 E0.121
G1 X114.9 Y41.82 E0.007
G1 X112.17 Y44.61 E0.122
G1 X112.32 Y44.82 E0.008
G1 X115.11 Y42.09 E0.122
G1 X115.26 Y42.3 E0.008
G1 X112.53 Y45.12 E0.122
G1 X112.65 Y45.33 E0.008
G1 X115.47 Y42.6 E0.122
G1 X115.59 Y42.81 E0.008
G1 X112.86 Y45.63 E0.122
G1 X113.01 Y45.84 E0.008
G1 X115.83 Y43.11 E0.122
G1 X115.95 Y43.29 E0.007
G1 X113.19 Y46.14 E0.124
G1 X113.34 Y46.38 E0.009
G1 X116.16 Y43.59 E0.124
G1 X116.31 Y43.83 E0.009
G1 X113.52 Y46.68 E0.124
G1 X113.64 Y46.89 E0.008
G1 X116.49 Y44.13 E0.124
G1 X116.61 Y44.34 E0.008
G1 X113.82 Y47.22 E0.125
G1 X113.94 Y47.43 E0.008
G1 X116.82 Y44.67 E0.124
G1 X116.94 Y44.88 E0.008
G1 X114.12 Y47.79 E0.126
G1 X114.24 Y48.0 E0.008
G1 X117.12 Y45.21 E0.125
G1 X117.24 Y45.42 E0.008
G1 X114.39 Y48.33 E0.127
G1 X114.51 Y48.57 E0.008
G1 X117.39 Y45.75 E0.126
G1 X117.54 Y45.99 E0.009
G1 X114.66 Y48.93 E0.128
G1 X114.75 Y49.17 E0.008
G1 X117.69 Y46.32 E0.128
G1 X117.81 Y46.56 E0.008
G1 X110.19 Y54.24 E0.337
G1 X110.67 Y54.09 E0.016
G1 X117.93 Y46.89 E0.319
G1 F5612.6
G1 E-3.118
G1 F2500.0
G1 X102.48 Y78.9 F15000.0
G1 F5612.6
G1 E3.118
G1 F2500.0
G1 F78.0
G1 E0.065
G1 F2500.0
G1 X97.11 Y84.21 E0.235
G1 X96.69 Y84.27 E0.013
G1 X101.79 Y79.17 E0.225
G1 F5612.6
G1 E-3.118
G1 F2500.0
G1 X96.84 Y94.59 F15000.0
G1 F5612.6
G1 E3.118
G1 F2500.0
G1 F78.0
G1 E0.065
G1 F2500.0
G1 X96.57 Y94.5 E0.009 F2250.0
G1 X92.79 Y94.53 E0.118
G1 X92.52 Y94.71 E0.01
G1 X92.4 Y101.97 E0.226
G1 X92.64 Y102.39 E0.015
G1 X92.94 Y102.48 E0.01
G1 X96.72 Y102.45 E0.118
G1 X97.02 Y102.24 E0.011
G1 X97.11 Y101.97 E0.009
G1 X97.08 Y94.92 E0.22
G1 X96.84 Y94.59 E0.013
G1 X96.69 Y94.83 E0.009
G1 X92.82 E0.121
G1 X92.7 Y101.97 E0.223
G1 X92.82 Y102.15 E0.007
G1 X96.69 E0.121
G1 X96.78 Y102.06 E0.004
G1 X96.81 Y95.01 E0.22
G1 X96.69 Y94.83 E0.007
G1 F5612.6
G1 E-3.118
G1 F2500.0
G1 X96.84 Y94.59
G1 X108.9 Y99.15 F15000.0
G1 F5612.6
G1 E3.118
G1 F2500.0
G1 F78.0
G1 E0.065
G1 F2500.0
G1 X108.69 Y99.27 E0.008 F2250.0
G1 X108.51 Y99.78 E0.017
G1 Y105.0 E0.163
G1 X89.49 E0.593
G1 Y90.39 E0.456
G1 X98.31 Y90.36 E0.275
G1 X98.55 Y90.21 E0.009
G1 X98.79 Y89.49 E0.024
G1 X99.84 Y87.45 E0.072
G1 X101.46 Y85.86 E0.071
G1 X103.53 Y84.84 E0.072
G1 X105.96 Y84.48 E0.077
G1 X120.72 Y84.51 E0.46
G1 Y87.54 E0.094
G1 X108.21 Y87.51 E0.39
G1 X106.5 Y86.88 E0.057
G1 X104.79 E0.053
G1 X103.17 Y87.51 E0.054
G1 X101.88 Y88.65 E0.054
G1 X100.98 Y90.21 E0.056
G1 X100.74 Y91.71 E0.047
G1 X101.01 Y93.42 E0.054
G1 X101.88 Y94.98 E0.056
G1 X103.29 Y96.18 E0.058
G1 X104.94 Y96.72 E0.054
G1 X106.62 E0.052
G1 X108.33 Y96.06 E0.057
G1 X120.72 Y96.12 E0.386
G1 X120.69 Y99.12 E0.094
G1 X108.9 Y99.15 E0.368
G1 X108.96 Y99.42 E0.009
G1 X108.84 Y99.57 E0.006
G1 X108.78 Y105.3 E0.179
G1 X89.19 E0.611
G1 Y90.09 E0.474
G1 X98.28 Y90.06 E0.283
G1 X98.37 Y89.94 E0.005
G1 X98.46 Y89.46 E0.015
G1 X99.69 Y87.18 E0.081
G1 X101.31 Y85.62 E0.07
G1 X103.5 Y84.54 E0.076
G1 X105.78 Y84.18 E0.072
G1 X121.02 Y84.21 E0.475
G1 Y87.84 E0.113
G1 X108.12 Y87.81 E0.402
G1 X107.94 Y87.69 E0.007
G1 X106.44 Y87.18 E0.049
G1 X104.79 Y87.21 E0.051
G1 X103.32 Y87.78 E0.049
G1 X102.18 Y88.74 E0.046
G1 X101.28 Y90.27 E0.055
G1 X101.04 Y91.65 E0.044
G1 X101.22 Y92.85 E0.038
G1 X101.37 Y93.51 E0.021
G1 X102.15 Y94.83 E0.048
G1 X103.41 Y95.91 E0.052
G1 X105.0 Y96.42 E0.052
G1 X106.59 E0.05
G1 X108.18 Y95.76 E0.054
G1 X121.02 Y95.82 E0.4
G1 Y99.42 E0.112
G1 X108.96 E0.376
G1 F5612.6
G1 E-3.118
G1 F2500.0
G1 X108.9 Y99.15
G1 X107.31 Y96.54 F15000.0
G1 F5612.6
G1 E3.118
G1 F2500.0
G1 F78.0
G1 E0.065
G1 F2500.0
G1 X98.97 Y104.91 E0.368
G1 X99.3 E0.01
G1 X108.0 Y96.3 E0.382
G1 X108.27 Y96.18 E0.009
G1 X108.51 Y96.15 E0.008
G1 X99.81 Y104.91 E0.385
G1 X100.17 E0.011
G1 X108.99 Y96.15 E0.388
G1 X109.35 E0.011
G1 X100.65 Y104.91 E0.385
G1 X101.01 E0.011
G1 X109.86 Y96.15 E0.388
G1 X110.19 E0.01
G1 X101.52 Y104.91 E0.384
G1 X101.85 E0.01
G1 X110.7 Y96.15 E0.388
G1 X111.03 E0.01
G1 X102.36 Y104.91 E0.384
G1 X102.72 E0.011
G1 X111.54 Y96.15 E0.388
G1 X111.9 E0.011
G1 X109.08 Y99.03 E0.126
G1 X109.44 E0.011
G1 X112.38 Y96.15 E0.128
G1 X112.74 E0.011
G1 X109.95 Y99.03 E0.125
G1 X110.28 E0.01
G1 X113.25 Y96.15 E0.129
G1 X113.58 E0.01
G1 X110.79 Y99.03 E0.125
G1 X111.12 E0.01
G1 X114.09 Y96.15 E0.129
G1 X114.45 E0.011
G1 X111.63 Y99.03 E0.126
G1 X111.99 E0.011
G1 X114.9 Y96.18 E0.127
G1 X115.26 E0.011
G1 X112.47 Y99.03 E0.124
G1 X112.83 E0.011
G1 X115.74 Y96.18 E0.127
G1 X116.1 E0.011
G1 X113.34 Y99.03 E0.124
G1 X113.67 E0.01
G1 X116.61 Y96.18 E0.128
G1 X116.94 E0.01
G1 X114.18 Y99.03 E0.124
G1 X114.54 E0.011
G1 X117.45 Y96.18 E0.127
G1 X117.81 E0.011
G1 X115.02 Y99.03 E0.124
G1 X115.38 E0.011
G1 X118.29 Y96.18 E0.127
G1 X118.65 E0.011
G1 X115.86 Y99.03 E0.124
G1 X116.22 E0.011
G1 X119.16 Y96.18 E0.128
G1 X119.49 E0.01
G1 X116.73 Y99.03 E0.124
G1 X117.06 E0.01
G1 X120.0 Y96.18 E0.128
G1 X120.36 E0.011
G1 X117.57 Y99.03 E0.124
G1 X117.93 E0.011
G1 X120.63 Y96.39 E0.118
G1 Y96.75 E0.011
G1 X118.41 Y99.03 E0.099
G1 X118.77 E0.011
G1 X120.63 Y97.23 E0.081
G1 Y97.59 E0.011
G1 X119.28 Y99.03 E0.062
G1 X119.61 E0.01
G1 X120.63 Y98.1 E0.043
G1 Y98.43 E0.01
G1 X120.12 Y99.03 E0.025
G1 X120.45 E0.01
G1 X120.63 Y98.94 E0.006
G1 F5612.6
G1 E-3.118
G1 F2500.0
G1 Y87.06 F15000.0
G1 F5612.6
G1 E3.118
G1 F2500.0
G1 F78.0
G1 E0.065
G1 F2500.0
G1 X120.18 Y87.45 E0.019
G1 X119.82 E0.011
G1 X120.63 Y86.55 E0.038
G1 Y86.22 E0.01
G1 X119.31 Y87.45 E0.056
G1 X118.98 E0.01
G1 X120.63 Y85.71 E0.075
G1 Y85.38 E0.01
G1 X118.47 Y87.45 E0.093
G1 X118.11 E0.011
G1 X120.63 Y84.87 E0.112
G1 X120.6 Y84.6 E0.008
G1 X117.63 Y87.45 E0.128
G1 X117.27 E0.011
G1 X120.06 Y84.6 E0.124
G1 X119.7 E0.011
G1 X116.76 Y87.45 E0.128
G1 X116.43 E0.01
G1 X119.19 Y84.6 E0.124
G1 X118.86 E0.01
G1 X115.92 Y87.45 E0.128
G1 X115.59 E0.01
G1 X118.35 Y84.6 E0.124
G1 X117.99 E0.011
G1 X115.08 Y87.45 E0.127
G1 X114.72 E0.011
G1 X117.51 Y84.6 E0.124
G1 X117.15 E0.011
G1 X114.27 Y87.42 E0.126
G1 X113.91 E0.011
G1 X116.64 Y84.6 E0.122
G1 X116.31 E0.01
G1 X113.4 Y87.42 E0.126
G1 X113.07 E0.01
G1 X115.8 Y84.6 E0.122
G1 X115.47 E0.01
G1 X112.56 Y87.42 E0.126
G1 X112.2 E0.011
G1 X114.96 Y84.6 E0.123
G1 X114.6 E0.011
G1 X111.72 Y87.42 E0.126
G1 X111.36 E0.011
G1 X114.12 Y84.6 E0.123
G1 X113.76 E0.011
G1 X110.85 Y87.42 E0.126
G1 X110.52 E0.01
G1 X113.28 Y84.57 E0.124
G1 X112.95 E0.01
G1 X110.01 Y87.42 E0.128
G1 X109.68 E0.01
G1 X112.44 Y84.57 E0.124
G1 X112.08 E0.011
G1 X109.17 Y87.42 E0.127
G1 X108.81 E0.011
G1 X111.6 Y84.57 E0.124
G1 X111.24 E0.011
G1 X108.33 Y87.42 E0.127
G1 X108.06 Y87.33 E0.009
G1 X110.73 Y84.57 E0.12
G1 X110.4 E0.01
G1 X107.7 Y87.18 E0.117
G1 X107.46 Y87.12 E0.008
G1 X109.89 Y84.57 E0.11
G1 X109.56 E0.01
G1 X107.13 Y87.0 E0.107
G1 F5612.6
G1 E-3.118
G1 F2500.0
G1 X106.14 Y84.57 F15000.0
G1 F5612.6
G1 E3.118
G1 F2500.0
G1 F78.0
G1 E0.065
G1 F2500.0
G1 X103.38 Y87.33 E0.122
G1 X103.95 Y87.12 E0.019
G1 X106.59 Y84.57 E0.114
G1 X106.92 E0.01
G1 X104.79 Y86.79 E0.096
G1 X105.12 E0.01
G1 X107.43 Y84.57 E0.1
G1 X107.76 E0.01
G1 X105.63 Y86.79 E0.096
G1 X105.99 E0.011
G1 X108.27 Y84.57 E0.099
G1 X108.63 E0.011
G1 X106.47 Y86.79 E0.097
G1 X106.77 Y86.85 E0.01
G1 X109.11 Y84.57 E0.102
G1 F5612.6
G1 E-3.118
G1 F2500.0
G1 X104.67 Y84.75 F15000.0
G1 F5612.6
G1 E3.118
G1 F2500.0
G1 F78.0
G1 E0.065
G1 F2500.0
G1 X95.04 Y94.41 E0.425
G1 X95.4 E0.011
G1 X105.18 Y84.69 E0.43
G1 X105.63 Y84.6 E0.014
G1 X95.88 Y94.41 E0.431
G1 X96.24 E0.011
G1 X101.34 Y89.37 E0.224
G1 X100.89 Y90.18 E0.029
G1 X96.72 Y94.44 E0.186
G1 X96.96 Y94.56 E0.008
G1 X100.8 Y90.78 E0.168
G1 X100.74 Y91.17 E0.012
G1 X97.17 Y94.83 E0.159
G1 X97.2 Y95.13 E0.009
G1 X100.65 Y91.77 E0.15
G1 X100.68 Y92.1 E0.01
G1 X97.2 Y95.64 E0.155
G1 Y96.0 E0.011
G1 X100.77 Y92.52 E0.155
G1 X100.83 Y92.82 E0.01
G1 X97.2 Y96.48 E0.161
G1 Y96.84 E0.011
G1 X100.89 Y93.24 E0.161
G1 X100.95 Y93.51 E0.009
G1 X97.2 Y97.35 E0.167
G1 Y97.68 E0.01
G1 X101.13 Y93.87 E0.171
G1 X101.25 Y94.08 E0.008
G1 X97.2 Y98.19 E0.18
G1 Y98.55 E0.011
G1 X101.43 Y94.38 E0.185
G1 X101.55 Y94.62 E0.008
G1 X97.2 Y99.03 E0.193
G1 Y99.39 E0.011
G1 X101.73 Y94.92 E0.198
G1 X101.91 Y95.13 E0.009
G1 X97.2 Y99.9 E0.209
G1 Y100.23 E0.01
G1 X102.15 Y95.37 E0.216
G1 X102.33 Y95.52 E0.007
G1 X97.2 Y100.74 E0.228
G1 Y101.07 E0.01
G1 X102.63 Y95.76 E0.237
G1 X102.81 Y95.91 E0.007
G1 X97.2 Y101.58 E0.249
G1 Y101.94 E0.011
G1 X103.05 Y96.15 E0.257
G1 F5612.6
G1 E-3.118
G1 F2500.0
G1 X103.32 Y96.27 F15000.0
G1 F5612.6
G1 E3.118
G1 F2500.0
G1 F78.0
G1 E0.065
G1 F2500.0
G1 X94.71 Y104.91 E0.38
G1 X95.07 E0.011
G1 X103.65 Y96.39 E0.377
G1 X103.95 Y96.48 E0.01
G1 X95.58 Y104.91 E0.37
G1 X95.91 E0.01
G1 X104.31 Y96.63 E0.368
G1 X104.55 Y96.69 E0.008
G1 X96.42 Y104.91 E0.36
G1 X96.78 E0.011
G1 X104.94 Y96.81 E0.359
G1 X105.3 E0.011
G1 X97.26 Y104.91 E0.356
G1 X97.62 E0.011
G1 X105.78 Y96.81 E0.359
G1 X106.14 E0.011
G1 X98.13 Y104.91 E0.355
G1 X98.46 E0.01
G1 X106.62 Y96.81 E0.359
G1 F5612.6
G1 E-3.118
G1 F2500.0
G1 X108.42 Y104.76 F15000.0
G1 F5612.6
G1 E3.118
G1 F2500.0
G1 F78.0
G1 E0.065
G1 F2500.0
G1 X108.21 Y104.91 E0.008
G1 X107.88 E0.01
G1 X108.42 Y104.28 E0.026
G1 Y103.95 E0.01
G1 X107.37 Y104.91 E0.044
G1 X107.01 E0.011
G1 X108.42 Y103.44 E0.064
G1 Y103.08 E0.011
G1 X106.53 Y104.91 E0.082
G1 X106.17 E0.011
G1 X108.42 Y102.6 E0.101
G1 Y102.24 E0.011
G1 X105.69 Y104.91 E0.119
G1 X105.33 E0.011
G1 X108.42 Y101.73 E0.138
G1 Y101.4 E0.01
G1 X104.82 Y104.91 E0.157
G1 X104.49 E0.01
G1 X108.42 Y100.89 E0.175
G1 Y100.56 E0.01
G1 X103.98 Y104.91 E0.194
G1 X103.62 E0.011
G1 X108.42 Y100.05 E0.213
G1 X108.45 Y99.66 E0.012
G1 X103.2 Y104.91 E0.232
G1 F5612.6
G1 E-3.118
G1 F2500.0
G1 X96.66 Y102.54 F15000.0
G1 F5612.6
G1 E3.118
G1 F2500.0
G1 F78.0
G1 E0.065
G1 F2500.0
G1 X94.23 Y104.91 E0.106
G1 X93.87 E0.011
G1 X96.18 Y102.54 E0.103
G1 X95.82 E0.011
G1 X93.36 Y104.91 E0.107
G1 X93.03 E0.01
G1 X95.31 Y102.54 E0.103
G1 X94.98 E0.01
G1 X92.52 Y104.91 E0.107
G1 X92.19 E0.01
G1 X94.44 Y102.57 E0.101
G1 X94.08 E0.011
G1 X91.68 Y104.91 E0.105
G1 X91.32 E0.011
G1 X93.6 Y102.57 E0.102
G1 X93.24 E0.011
G1 X90.84 Y104.91 E0.105
G1 X90.48 E0.011
G1 X92.76 Y102.54 E0.103
G1 X92.55 Y102.42 E0.008
G1 X89.97 Y104.91 E0.112
G1 X89.64 E0.01
G1 X92.34 Y102.12 E0.121
G1 X92.31 Y101.82 E0.009
G1 X89.58 Y104.46 E0.118
G1 Y104.1 E0.011
G1 X92.31 Y101.31 E0.122
G1 Y100.95 E0.011
G1 X89.58 Y103.62 E0.119
G1 Y103.26 E0.011
G1 X92.31 Y100.47 E0.122
G1 Y100.11 E0.011
G1 X89.58 Y102.75 E0.118
G1 Y102.42 E0.01
G1 X92.31 Y99.6 E0.122
G1 Y99.27 E0.01
G1 X89.58 Y101.91 E0.118
G1 Y101.58 E0.01
G1 X92.31 Y98.76 E0.122
G1 Y98.4 E0.011
G1 X89.58 Y101.07 E0.119
G1 Y100.71 E0.011
G1 X92.31 Y97.92 E0.122
G1 Y97.56 E0.011
G1 X89.58 Y100.23 E0.119
G1 Y99.87 E0.011
G1 X92.31 Y97.05 E0.122
G1 Y96.72 E0.01
G1 X89.58 Y99.36 E0.118
G1 Y99.03 E0.01
G1 X92.31 Y96.21 E0.122
G1 Y95.88 E0.01
G1 X89.58 Y98.52 E0.118
G1 Y98.16 E0.011
G1 X92.31 Y95.37 E0.122
G1 X92.34 Y94.98 E0.012
G1 X89.58 Y97.68 E0.12
G1 Y97.32 E0.011
G1 X96.39 Y90.45 E0.302
G1 X96.03 E0.011
G1 X89.58 Y96.81 E0.282
G1 Y96.48 E0.01
G1 X95.52 Y90.45 E0.264
G1 X95.19 E0.01
G1 X89.58 Y95.97 E0.245
G1 Y95.64 E0.01
G1 X94.68 Y90.45 E0.227
G1 X94.32 E0.011
G1 X89.58 Y95.13 E0.208
G1 Y94.77 E0.011
G1 X93.84 Y90.45 E0.189
G1 X93.45 Y90.48 E0.012
G1 X89.58 Y94.29 E0.169
G1 Y93.93 E0.011
G1 X92.94 Y90.48 E0.15
G1 X92.61 E0.01
G1 X89.58 Y93.42 E0.132
G1 Y93.09 E0.01
G1 X92.1 Y90.48 E0.113
G1 X91.77 E0.01
G1 X89.58 Y92.58 E0.095
G1 Y92.22 E0.011
G1 X91.26 Y90.48 E0.075
G1 X90.9 E0.011
G1 X89.58 Y91.74 E0.057
G1 Y91.38 E0.011
G1 X90.42 Y90.48 E0.038
G1 X90.06 E0.011
G1 X89.58 Y90.9 E0.02
G1 X89.61 Y90.48 E0.013
G1 F5612.6
G1 E-3.118
G1 F2500.0
G1 X92.91 Y94.41 F15000.0
G1 F5612.6
G1 E3.118
G1 F2500.0
G1 F78.0
G1 E0.065
G1 F2500.0
G1 X96.93 Y90.45 E0.176
G1 X97.29 E0.011
G1 X93.39 Y94.41 E0.173
G1 X93.75 E0.011
G1 X97.8 Y90.45 E0.177
G1 X98.13 E0.01
G1 X94.26 Y94.41 E0.173
G1 X94.59 E0.01
G1 X104.1 Y84.84 E0.421
G1 X103.68 Y84.9 E0.013
G1 X98.82 Y89.7 E0.213
G1 X99.12 Y89.07 E0.022
G1 X102.81 Y85.29 E0.165
G1 X102.09 Y85.65 E0.025
G1 X99.57 Y88.17 E0.111
G1 F5612.6
G1 E-3.118
G1 F2500.0
G1 X72.21 Y90.66 F15000.0
G1 F5612.6
G1 E3.118
G1 F2500.0
G1 F78.0
G1 E0.065
G1 F2500.0
G1 X72.87 Y92.46 E0.06 F2250.0
G1 X72.84 Y104.79 E0.384
G1 X69.81 Y104.73 E0.094
G1 X70.14 Y87.54 E0.536
G1 X71.25 Y85.44 E0.074
G1 X72.84 Y83.88 E0.069
G1 X74.94 Y82.83 E0.073
G1 X77.13 Y82.5 E0.069
G1 X79.38 Y82.86 E0.071
G1 X81.48 Y83.97 E0.074
G1 X83.04 Y85.53 E0.069
G1 X84.06 Y87.63 E0.073
G1 X84.42 Y89.91 E0.072
G1 X84.39 Y104.79 E0.464
G1 X81.36 Y104.76 E0.094
G1 X81.39 Y92.31 E0.388
G1 X81.99 Y90.69 E0.054
G1 X81.96 Y88.74 E0.061
G1 X81.39 Y87.3 E0.048
G1 X80.19 Y85.92 E0.057
G1 X78.66 Y85.05 E0.055
G1 X77.07 Y84.81 E0.05
G1 X75.45 Y85.08 E0.051
G1 X73.92 Y85.98 E0.055
G1 X72.9 Y87.15 E0.048
G1 X72.69 Y87.48 E0.012
G1 X72.18 Y89.19 E0.056
G1 X72.21 Y90.66 E0.046
G1 X72.48 Y90.63 E0.008
G1 X73.05 Y92.16 E0.051
G1 X73.17 Y92.28 E0.005
G1 Y105.09 E0.399
G1 X69.51 Y105.06 E0.114
G1 X69.87 Y87.39 E0.551
G1 X71.01 Y85.26 E0.075
G1 X72.66 Y83.64 E0.072
G1 X74.85 Y82.53 E0.077
G1 X77.13 Y82.2 E0.072
G1 X79.53 Y82.59 E0.076
G1 X81.63 Y83.7 E0.074
G1 X83.31 Y85.38 E0.074
G1 X84.36 Y87.6 E0.077
G1 X84.72 Y89.91 E0.073
G1 X84.69 Y105.09 E0.473
G1 X81.06 Y105.03 E0.113
G1 Y92.25 E0.398
G1 X81.21 Y92.04 E0.008
G1 X81.72 Y90.51 E0.05
G1 Y88.98 E0.048
G1 X81.15 Y87.45 E0.051
G1 X80.01 Y86.16 E0.054
G1 X78.6 Y85.35 E0.051
G1 X76.95 Y85.14 E0.052
G1 X75.48 Y85.38 E0.046
G1 X74.1 Y86.22 E0.05
G1 X73.02 Y87.48 E0.052
G1 X72.48 Y89.1 E0.053
G1 Y90.63 E0.048
G1 F5612.6
G1 E-3.118
G1 F2500.0
G1 X72.21 Y90.66
G1 X74.85 Y85.32 F15000.0
G1 F5612.6
G1 E3.118
G1 F2500.0
G1 F78.0
G1 E0.065
G1 F2500.0
G1 X77.52 Y82.65 E0.118
G1 X77.82 Y82.71 E0.01
G1 X75.63 Y84.96 E0.098
G1 X76.05 Y84.9 E0.013
G1 X78.24 Y82.77 E0.095
G1 X78.54 Y82.83 E0.01
G1 X76.68 Y84.78 E0.084
G1 X77.07 Y84.72 E0.012
G1 X78.99 Y82.89 E0.083
G1 X79.26 Y82.95 E0.009
G1 X77.52 Y84.78 E0.079
G1 X77.82 Y84.84 E0.01
G1 X79.62 Y83.1 E0.078
G1 F5612.6
G1 E-3.118
G1 F2500.0
G1 X78.24 Y84.9 F15000.0
G1 F5612.6
G1 E3.118
G1 F2500.0
G1 F78.0
G1 E0.065
G1 F2500.0
G1 X79.92 Y83.25 E0.073
G1 X80.16 Y83.37 E0.008
G1 X78.6 Y84.96 E0.069
G1 X78.87 Y85.05 E0.009
G1 X80.46 Y83.52 E0.069
G1 X80.7 Y83.64 E0.008
G1 X79.2 Y85.23 E0.068
G1 X79.41 Y85.35 E0.008
G1 X81.03 Y83.82 E0.069
G1 X81.27 Y83.94 E0.008
G1 X79.74 Y85.53 E0.069
G1 X79.98 Y85.68 E0.009
G1 X81.54 Y84.15 E0.068
G1 X81.72 Y84.33 E0.008
G1 X80.28 Y85.86 E0.066
G1 X80.46 Y86.04 E0.008
G1 X81.96 Y84.57 E0.065
G1 X82.14 Y84.75 E0.008
G1 X80.67 Y86.28 E0.066
G1 X80.85 Y86.49 E0.009
G1 X82.41 Y85.02 E0.067
G1 X82.56 Y85.17 E0.007
G1 X81.09 Y86.76 E0.068
G1 X81.24 Y86.94 E0.007
G1 X82.83 Y85.44 E0.068
G1 X82.98 Y85.59 E0.007
G1 X81.45 Y87.21 E0.069
G1 X81.57 Y87.45 E0.008
G1 X83.16 Y85.95 E0.068
G1 X83.25 Y86.19 E0.008
G1 X81.69 Y87.81 E0.07
G1 X81.81 Y88.08 E0.009
G1 X83.43 Y86.52 E0.07
G1 X83.55 Y86.76 E0.008
G1 X81.93 Y88.44 E0.073
G1 X82.02 Y88.68 E0.008
G1 X83.7 Y87.09 E0.072
G1 X83.82 Y87.3 E0.008
G1 X82.11 Y89.1 E0.077
G1 Y89.43 E0.01
G1 X83.97 Y87.66 E0.08
G1 X84.03 Y87.96 E0.01
G1 X82.11 Y89.94 E0.086
G1 Y90.3 E0.011
G1 X84.09 Y88.38 E0.086
G1 X84.15 Y88.68 E0.01
G1 X82.05 Y90.84 E0.094
G1 X81.84 Y91.41 E0.019
G1 X84.21 Y89.13 E0.103
G1 X84.27 Y89.43 E0.01
G1 X81.48 Y92.34 E0.126
G1 X81.45 Y92.64 E0.009
G1 X84.33 Y89.85 E0.125
G1 Y90.18 E0.01
G1 X81.45 Y93.15 E0.129
G1 Y93.51 E0.011
G1 X84.33 Y90.69 E0.126
G1 Y91.05 E0.011
G1 X81.45 Y93.99 E0.128
G1 Y94.35 E0.011
G1 X84.33 Y91.53 E0.126
G1 Y91.89 E0.011
G1 X81.45 Y94.86 E0.129
G1 Y95.19 E0.01
G1 X84.33 Y92.4 E0.125
G1 Y92.73 E0.01
G1 X81.45 Y95.7 E0.129
G1 Y96.03 E0.01
G1 X84.33 Y93.24 E0.125
G1 Y93.6 E0.011
G1 X81.45 Y96.54 E0.128
G1 Y96.9 E0.011
G1 X84.33 Y94.08 E0.126
G1 Y94.44 E0.011
G1 X81.45 Y97.38 E0.128
G1 Y97.74 E0.011
G1 X84.33 Y94.95 E0.125
G1 Y95.28 E0.01
G1 X81.45 Y98.25 E0.129
G1 Y98.58 E0.01
G1 X84.33 Y95.79 E0.125
G1 Y96.12 E0.01
G1 X81.45 Y99.09 E0.129
G1 Y99.45 E0.011
G1 X84.33 Y96.63 E0.126
G1 Y96.99 E0.011
G1 X81.45 Y99.93 E0.128
G1 Y100.29 E0.011
G1 X84.33 Y97.47 E0.126
G1 Y97.83 E0.011
G1 X81.45 Y100.8 E0.129
G1 Y101.13 E0.01
G1 X84.33 Y98.34 E0.125
G1 Y98.67 E0.01
G1 X81.45 Y101.64 E0.129
G1 Y101.97 E0.01
G1 X84.33 Y99.18 E0.125
G1 Y99.54 E0.011
G1 X81.45 Y102.48 E0.128
G1 Y102.84 E0.011
G1 X84.33 Y100.02 E0.126
G1 Y100.38 E0.011
G1 X81.45 Y103.32 E0.128
G1 Y103.68 E0.011
G1 X84.33 Y100.89 E0.125
G1 Y101.22 E0.01
G1 X81.45 Y104.19 E0.129
G1 Y104.52 E0.01
G1 X84.33 Y101.73 E0.125
G1 Y102.06 E0.01
G1 X81.81 Y104.67 E0.113
G1 X82.17 E0.011
G1 X84.33 Y102.57 E0.094
G1 Y102.93 E0.011
G1 X82.65 Y104.67 E0.075
G1 X82.98 Y104.7 E0.01
G1 X84.33 Y103.41 E0.058
G1 Y103.77 E0.011
G1 X83.49 Y104.7 E0.039
G1 X83.82 E0.01
G1 X84.33 Y104.28 E0.021
G1 Y104.67 E0.012
G1 F5612.6
G1 E-3.118
G1 F2500.0
G1 X72.78 Y104.34 F15000.0
G1 F5612.6
G1 E3.118
G1 F2500.0
G1 F78.0
G1 E0.065
G1 F2500.0
G1 X72.36 Y104.7 E0.017
G1 X72.03 E0.01
G1 X72.78 Y103.86 E0.035
G1 Y103.53 E0.01
G1 X71.52 Y104.7 E0.054
G1 X71.19 Y104.67 E0.01
G1 X72.78 Y103.02 E0.071
G1 Y102.66 E0.011
G1 X70.71 Y104.67 E0.09
G1 X70.35 E0.011
G1 X72.78 Y102.18 E0.108
G1 Y101.82 E0.011
G1 X69.9 Y104.61 E0.125
G1 Y104.28 E0.01
G1 X72.78 Y101.31 E0.129
G1 Y100.98 E0.01
G1 X69.9 Y103.77 E0.125
G1 Y103.44 E0.01
G1 X72.78 Y100.47 E0.129
G1 Y100.11 E0.011
G1 X69.9 Y102.93 E0.126
G1 Y102.57 E0.011
G1 X72.78 Y99.63 E0.128
G1 Y99.27 E0.011
G1 X69.9 Y102.09 E0.126
G1 Y101.73 E0.011
G1 X72.78 Y98.76 E0.129
G1 Y98.43 E0.01
G1 X69.9 Y101.22 E0.125
G1 Y100.89 E0.01
G1 X72.78 Y97.92 E0.129
G1 Y97.59 E0.01
G1 X69.9 Y100.38 E0.125
G1 Y100.02 E0.011
G1 X72.78 Y97.08 E0.128
G1 Y96.72 E0.011
G1 X69.9 Y99.54 E0.126
G1 Y99.18 E0.011
G1 X72.78 Y96.24 E0.128
G1 Y95.88 E0.011
G1 X69.9 Y98.67 E0.125
G1 Y98.34 E0.01
G1 X72.78 Y95.37 E0.129
G1 Y95.04 E0.01
G1 X69.9 Y97.83 E0.125
G1 Y97.5 E0.01
G1 X72.78 Y94.53 E0.129
G1 Y94.17 E0.011
G1 X69.9 Y96.99 E0.126
G1 Y96.63 E0.011
G1 X72.78 Y93.69 E0.128
G1 Y93.33 E0.011
G1 X69.9 Y96.15 E0.126
G1 Y95.79 E0.011
G1 X72.78 Y92.85 E0.128
G1 Y92.49 E0.011
G1 X69.9 Y95.28 E0.125
G1 Y94.95 E0.01
G1 X72.63 Y92.13 E0.122
G1 X72.54 Y91.89 E0.008
G1 X69.9 Y94.44 E0.114
G1 Y94.08 E0.011
G1 X72.39 Y91.53 E0.111
G1 X72.3 Y91.26 E0.009
G1 X69.9 Y93.6 E0.105
G1 Y93.24 E0.011
G1 X72.18 Y90.93 E0.101
G1 X72.09 Y90.63 E0.01
G1 X69.9 Y92.76 E0.095
G1 Y92.4 E0.011
G1 X72.09 Y90.12 E0.099
G1 Y89.79 E0.01
G1 X69.9 Y91.89 E0.095
G1 Y91.56 E0.01
G1 X72.09 Y89.28 E0.099
G1 X72.12 Y88.89 E0.012
G1 X69.9 Y91.05 E0.097
G1 Y90.69 E0.011
G1 X72.39 Y88.14 E0.111
G1 X72.57 Y87.6 E0.018
G1 X69.9 Y90.21 E0.116
G1 Y89.85 E0.011
G1 X77.1 Y82.59 E0.319
G1 X76.65 Y82.68 E0.014
G1 X69.96 Y89.28 E0.293
G1 X70.02 Y88.89 E0.012
G1 X76.05 Y82.77 E0.268
G1 X75.66 Y82.83 E0.012
G1 X70.11 Y88.29 E0.243
G1 X70.17 Y87.87 E0.013
G1 X75.09 Y82.89 E0.218
G1 X74.46 Y83.16 E0.021
G1 X70.5 Y87.06 E0.173
G1 X70.86 Y86.34 E0.025
G1 X73.62 Y83.58 E0.122
G1 F5612.6
G1 E-3.118
G1 F2500.0
G1 X54.9 Y84.9 F15000.0
G1 F5612.6
G1 E3.118
G1 F2500.0
G1 F78.0
G1 E0.065
G1 F2500.0
G1 Y86.64 E0.054 F2250.0
G1 X55.56 Y88.47 E0.061
G1 X55.53 Y100.8 E0.384
G1 X52.5 Y100.74 E0.094
G1 X52.86 Y83.61 E0.534
G1 X53.94 Y81.45 E0.075
G1 X55.53 Y79.86 E0.07
G1 X57.72 Y78.84 E0.075
G1 X59.85 Y78.51 E0.067
G1 X62.13 Y78.87 E0.072
G1 X64.23 Y80.01 E0.075
G1 X65.73 Y81.54 E0.067
G1 X66.78 Y83.73 E0.076
G1 X67.11 Y85.86 E0.067
G1 Y100.8 E0.466
G1 X64.05 Y100.74 E0.095
G1 X64.08 Y88.35 E0.386
G1 X64.74 Y86.4 E0.064
G1 X64.68 Y84.78 E0.051
G1 X64.05 Y83.25 E0.052
G1 X63.0 Y81.99 E0.051
G1 X61.29 Y81.06 E0.061
G1 X59.55 Y80.82 E0.055
G1 X58.05 Y81.12 E0.048
G1 X56.61 Y81.99 E0.052
