; GCode generated by RepRap Java Host Software
; Created: 2013-02-11:22-46-04
;#!RECTANGLE: <BOX x:[l:74.0, h:122.0], y:[l:58.445220947265625, h:121.44521999359131]>, height: 5.0
M110
G21
G10 P0 X0 Y0 Z0 S205.0 R140.0
G10 P1 X-33.7 Y3.2 Z0 S205.0 R140.0
G10 P2 X-12.6 Y49.4 Z0 S205.0 R140.0
M83
G92 E0
G91
G1 Z5 F200
G90
G28 X0
G28 Y0
G1 X100.0 Y100.0 F15000.0
G28 Z0

;#!LAYER: 1/20
G92 E0
G1 Z0.24 F200.0
G1 X82.95 Y67.17 F15000.0
G1 X85.5 Y72.95
T0
G1 F1995.6
G1 E10.394
G1 F2000.0
G1 F99.8
G1 E0.104
G1 F2000.0
G1 X110.5 Y72.95 E1.247
G1 Y72.45 E0.025
G1 X85.5 Y72.45 E1.247
G1 Y71.95 E0.025
G1 X110.5 Y71.95 E1.247
G1 F1995.6
G1 E-10.394
G1 F2000.0
G1 X82.95 Y67.17 F15000.0
G1 F1995.6
G1 E10.394
G1 F2000.0
G1 F99.8
G1 E0.104
G1 F2000.0
G1 X82.77 Y67.32 E0.012 F1800.0
G1 Y75.57 E0.412
G1 X83.13 Y75.72 E0.019
G1 X113.07 Y75.69 E1.494
G1 X113.22 Y75.57 E0.01
G1 X113.28 Y75.21 E0.018
G1 X113.25 Y67.35 E0.392
G1 X112.89 Y67.17 E0.02
G1 X82.95 E1.494
G1 X82.86 Y66.69 E0.024
G1 X82.5 Y66.87 E0.02
G1 X82.35 Y67.02 E0.011
G1 X82.23 Y75.54 E0.425
G1 X82.38 Y75.9 E0.019
G1 X82.56 Y76.08 E0.013
G1 X83.1 Y76.23 E0.028
G1 X113.1 E1.497
G1 X113.46 Y76.05 E0.02
G1 X113.64 Y75.84 E0.014
G1 X113.76 Y75.54 E0.016
G1 Y67.35 E0.409
G1 X113.7 Y67.11 E0.012
G1 X113.43 Y66.81 E0.02
G1 X112.95 Y66.66 E0.025
G1 X82.86 Y66.69 E1.501
G1 F1995.6
G1 E-10.394
G1 F2000.0
G1 X82.95 Y67.17
G1 X115.68 Y78.15 F15000.0
G1 F1995.6
G1 E10.394
G1 F2000.0
G1 F99.8
G1 E0.104
G1 F2000.0
G1 X80.28 E1.766 F1800.0
G1 Y64.74 E0.669
G1 X115.71 E1.768
G1 X115.68 Y78.15 E0.669
G1 X115.2 Y77.64 E0.035
G1 X80.79 E1.717
G1 Y65.25 E0.618
G1 X115.2 E1.717
G1 Y77.64 E0.618
G1 F1995.6
G1 E-10.394
G1 F2000.0
G1 X115.68 Y78.15
G1 X114.9 Y77.07 F15000.0
G1 F1995.6
G1 E10.394
G1 F2000.0
G1 F99.8
G1 E0.104
G1 F2000.0
G1 X114.57 Y77.34 E0.021
G1 X113.94 E0.031
G1 X114.9 Y76.32 E0.07
G1 Y75.69 E0.031
G1 X113.16 Y77.34 E0.12
G1 X112.53 E0.031
G1 X113.4 Y76.44 E0.062
G1 X112.86 Y76.53 E0.027
G1 X112.62 E0.012
G1 X111.75 Y77.34 E0.059
G1 X111.12 E0.031
G1 X111.84 Y76.53 E0.054
G1 X111.21 E0.031
G1 X110.34 Y77.34 E0.059
G1 X109.71 E0.031
G1 X110.43 Y76.53 E0.054
G1 X109.8 E0.031
G1 X108.93 Y77.34 E0.059
G1 X108.3 E0.031
G1 X109.02 Y76.53 E0.054
G1 X108.39 E0.031
G1 X107.52 Y77.34 E0.059
G1 X106.89 E0.031
G1 X107.61 Y76.53 E0.054
G1 X106.98 E0.031
G1 X106.08 Y77.34 E0.06
G1 X105.45 E0.031
G1 X106.2 Y76.53 E0.055
G1 X105.57 E0.031
G1 X104.67 Y77.34 E0.06
G1 X104.04 E0.031
G1 X104.79 Y76.53 E0.055
G1 X104.16 E0.031
G1 X103.26 Y77.34 E0.06
G1 X102.63 E0.031
G1 X103.38 Y76.53 E0.055
G1 X102.75 E0.031
G1 X101.85 Y77.34 E0.06
G1 X101.22 E0.031
G1 X101.94 Y76.53 E0.054
G1 X101.31 E0.031
G1 X100.44 Y77.34 E0.059
G1 X99.81 E0.031
G1 X100.53 Y76.53 E0.054
G1 X99.9 E0.031
G1 X99.03 Y77.34 E0.059
G1 X98.4 E0.031
G1 X99.12 Y76.53 E0.054
G1 X98.49 E0.031
G1 X97.62 Y77.34 E0.059
G1 X96.99 E0.031
G1 X97.71 Y76.53 E0.054
G1 X97.08 E0.031
G1 X96.18 Y77.34 E0.06
G1 X95.55 E0.031
G1 X96.3 Y76.53 E0.055
G1 X95.67 E0.031
G1 X94.77 Y77.34 E0.06
G1 X94.14 E0.031
G1 X94.89 Y76.53 E0.055
G1 X94.26 E0.031
G1 X93.36 Y77.34 E0.06
G1 X92.73 E0.031
G1 X93.48 Y76.53 E0.055
G1 X92.85 E0.031
G1 X91.95 Y77.34 E0.06
G1 X91.32 E0.031
G1 X92.04 Y76.53 E0.054
G1 X91.41 E0.031
G1 X90.54 Y77.34 E0.059
G1 X89.91 E0.031
G1 X90.63 Y76.53 E0.054
G1 X90.0 E0.031
G1 X89.13 Y77.34 E0.059
G1 X88.5 E0.031
G1 X89.22 Y76.53 E0.054
G1 X88.59 E0.031
G1 X87.72 Y77.34 E0.059
G1 X87.09 E0.031
G1 X87.81 Y76.53 E0.054
G1 X87.18 E0.031
G1 X86.31 Y77.34 E0.059
G1 X85.65 E0.033
G1 X86.4 Y76.53 E0.055
G1 X85.77 E0.031
G1 X84.87 Y77.34 E0.06
G1 X84.24 E0.031
G1 X84.99 Y76.53 E0.055
G1 X84.36 E0.031
G1 X83.46 Y77.34 E0.06
G1 X82.83 E0.031
G1 X83.58 Y76.53 E0.055
G1 X82.95 E0.031
G1 X82.05 Y77.34 E0.06
G1 X81.42 E0.031
G1 X82.38 Y76.32 E0.07
G1 X82.08 Y75.99 E0.022
G1 X81.09 Y76.89 E0.067
G1 Y76.26 E0.031
G1 X81.9 Y75.36 E0.06
G1 Y74.73 E0.031
G1 X81.09 Y75.48 E0.055
G1 Y74.85 E0.031
G1 X81.9 Y73.95 E0.06
G1 Y73.32 E0.031
G1 X81.09 Y74.07 E0.055
G1 Y73.44 E0.031
G1 X81.9 Y72.54 E0.06
G1 Y71.91 E0.031
G1 X81.09 Y72.66 E0.055
G1 Y72.0 E0.033
G1 X81.9 Y71.13 E0.059
G1 Y70.5 E0.031
G1 X81.09 Y71.22 E0.054
G1 Y70.59 E0.031
G1 X81.9 Y69.72 E0.059
G1 Y69.09 E0.031
G1 X81.09 Y69.81 E0.054
G1 Y69.18 E0.031
G1 X81.9 Y68.37 E0.057
G1 F1995.6
G1 E-10.394
G1 F2000.0
G1 X81.09 Y65.64 F15000.0
G1 F1995.6
G1 E10.394
G1 F2000.0
G1 F99.8
G1 E0.104
G1 F2000.0
G1 X81.18 Y65.55 E0.006
G1 X81.81 E0.031
G1 X81.09 Y66.36 E0.054
G1 Y66.99 E0.031
G1 X82.59 Y65.55 E0.104
G1 X83.25 E0.033
G1 X81.09 Y67.77 E0.155
G1 Y68.4 E0.031
G1 X81.9 Y67.65 E0.055
G1 X81.99 Y67.14 E0.026
G1 X82.23 Y66.72 E0.024
G1 X82.65 Y66.42 E0.026
G1 X83.13 Y66.36 E0.024
G1 X84.03 Y65.55 E0.06
G1 X84.66 E0.031
G1 X83.91 Y66.36 E0.055
G1 X84.54 E0.031
G1 X85.44 Y65.55 E0.06
G1 X86.07 E0.031
G1 X85.32 Y66.36 E0.055
G1 X85.95 E0.031
G1 X86.85 Y65.55 E0.06
G1 X87.48 E0.031
G1 X86.73 Y66.36 E0.055
G1 X87.39 E0.033
G1 X88.26 Y65.55 E0.059
G1 X88.89 E0.031
G1 X88.17 Y66.36 E0.054
G1 X88.8 E0.031
G1 X89.67 Y65.55 E0.059
G1 X90.3 E0.031
G1 X89.58 Y66.36 E0.054
G1 X90.21 E0.031
G1 X91.08 Y65.55 E0.059
G1 X91.71 E0.031
G1 X90.99 Y66.36 E0.054
G1 X91.62 E0.031
G1 X92.49 Y65.55 E0.059
G1 X93.15 E0.033
G1 X92.4 Y66.36 E0.055
G1 X93.03 E0.031
G1 X93.93 Y65.55 E0.06
G1 X94.56 E0.031
G1 X93.81 Y66.36 E0.055
G1 X94.44 E0.031
G1 X95.34 Y65.55 E0.06
G1 X95.97 E0.031
G1 X95.22 Y66.36 E0.055
G1 X95.85 E0.031
G1 X96.75 Y65.55 E0.06
G1 X97.38 E0.031
G1 X96.63 Y66.36 E0.055
G1 X97.29 E0.033
G1 X98.16 Y65.55 E0.059
G1 X98.79 E0.031
G1 X98.07 Y66.36 E0.054
G1 X98.7 E0.031
G1 X99.57 Y65.55 E0.059
G1 X100.2 E0.031
G1 X99.48 Y66.36 E0.054
G1 X100.11 E0.031
G1 X100.98 Y65.55 E0.059
G1 X101.61 E0.031
G1 X100.89 Y66.36 E0.054
G1 X101.52 E0.031
G1 X102.39 Y65.55 E0.059
G1 X103.02 E0.031
G1 X102.3 Y66.36 E0.054
G1 X102.93 E0.031
G1 X103.83 Y65.55 E0.06
G1 X104.46 E0.031
G1 X103.71 Y66.36 E0.055
G1 X104.34 E0.031
G1 X105.24 Y65.55 E0.06
G1 X105.87 E0.031
G1 X105.12 Y66.36 E0.055
G1 X105.75 E0.031
G1 X106.65 Y65.55 E0.06
G1 X107.28 E0.031
G1 X106.53 Y66.36 E0.055
G1 X107.16 E0.031
G1 X108.06 Y65.55 E0.06
G1 X108.69 E0.031
G1 X107.97 Y66.36 E0.054
G1 X108.6 E0.031
G1 X109.47 Y65.55 E0.059
G1 X110.1 E0.031
G1 X109.38 Y66.36 E0.054
G1 X110.01 E0.031
G1 X110.88 Y65.55 E0.059
G1 X111.51 E0.031
G1 X110.79 Y66.36 E0.054
G1 X111.42 E0.031
G1 X112.29 Y65.55 E0.059
G1 X112.92 E0.031
G1 X112.2 Y66.36 E0.054
G1 X112.83 E0.031
G1 X113.73 Y65.55 E0.06
G1 X114.36 E0.031
G1 X113.49 Y66.51 E0.065
G1 X113.82 Y66.78 E0.021
G1 X114.9 Y65.79 E0.073
G1 Y66.42 E0.031
G1 X114.06 Y67.32 E0.061
G1 X114.09 Y67.92 E0.03
G1 X114.9 Y67.2 E0.054
G1 Y67.83 E0.031
G1 X114.09 Y68.7 E0.059
G1 Y69.33 E0.031
G1 X114.9 Y68.61 E0.054
G1 Y69.24 E0.031
G1 X114.09 Y70.14 E0.06
G1 Y70.77 E0.031
G1 X114.9 Y70.02 E0.055
G1 Y70.65 E0.031
G1 X114.09 Y71.55 E0.06
G1 Y72.18 E0.031
G1 X114.9 Y71.43 E0.055
G1 Y72.06 E0.031
G1 X114.09 Y72.96 E0.06
G1 Y73.59 E0.031
G1 X114.9 Y72.84 E0.055
G1 Y73.47 E0.031
G1 X114.09 Y74.37 E0.06
G1 Y75.0 E0.031
G1 X114.9 Y74.25 E0.055
G1 Y74.91 E0.033
G1 X113.94 Y75.93 E0.07
G1 F1995.6
G1 E-10.394
G1 F2000.0
G1 X89.07 Y101.7 F15000.0
G1 F1995.6
G1 E10.394
G1 F2000.0
G1 F99.8
G1 E0.104
G1 F2000.0
G1 X88.44 Y99.63 E0.108 F1800.0
G1 X88.29 Y97.71 E0.096
G1 X88.47 Y95.91 E0.09
G1 X89.07 Y94.08 E0.096
G1 X90.18 Y92.16 E0.111
G1 X91.62 Y90.63 E0.105
G1 X93.09 Y89.55 E0.091
G1 X95.19 Y88.65 E0.114
G1 X97.05 Y88.29 E0.095
G1 X99.12 E0.103
G1 X100.95 Y88.68 E0.093
G1 X102.96 Y89.61 E0.11
G1 X104.58 Y90.81 E0.101
G1 X105.69 Y92.01 E0.082
G1 X106.95 Y94.17 E0.125
G1 X107.55 Y96.12 E0.102
G1 X107.7 Y97.83 E0.086
G1 X107.46 Y100.14 E0.116
G1 X106.8 Y102.06 E0.101
G1 X105.75 Y103.8 E0.101
G1 X104.4 Y105.24 E0.098
G1 X102.96 Y106.29 E0.089
G1 X100.86 Y107.22 E0.115
G1 X98.94 Y107.61 E0.098
G1 X96.93 E0.1
G1 X95.01 Y107.19 E0.098
G1 X93.06 Y106.32 E0.107
G1 X91.5 Y105.18 E0.096
G1 X90.18 Y103.74 E0.097
G1 X89.31 Y102.24 E0.087
G1 X89.07 Y101.7 E0.029
G1 X89.55 Y101.55 E0.025
G1 X88.98 Y99.72 E0.096
G1 X88.8 Y97.74 E0.099
G1 X88.98 Y96.0 E0.087
G1 X89.55 Y94.26 E0.091
G1 X90.6 Y92.46 E0.104
G1 X91.95 Y91.02 E0.098
G1 X93.42 Y89.97 E0.09
G1 X95.28 Y89.16 E0.101
G1 X97.08 Y88.8 E0.092
G1 X99.09 Y88.83 E0.1
G1 X100.92 Y89.22 E0.093
G1 X102.78 Y90.12 E0.103
G1 X104.25 Y91.2 E0.091
G1 X105.48 Y92.61 E0.093
G1 X106.47 Y94.35 E0.1
G1 X107.04 Y96.21 E0.097
G1 X107.19 Y97.74 E0.077
G1 X107.01 Y99.87 E0.107
G1 X106.35 Y101.82 E0.103
G1 X105.18 Y103.68 E0.11
G1 X104.16 Y104.79 E0.075
G1 X102.51 Y105.96 E0.101
G1 X100.77 Y106.71 E0.095
G1 X98.94 Y107.1 E0.093
G1 X96.99 E0.097
G1 X95.25 Y106.71 E0.089
G1 X93.27 Y105.84 E0.108
G1 X91.59 Y104.52 E0.107
G1 X90.6 Y103.41 E0.074
G1 X89.55 Y101.55 E0.107
G1 F1995.6
G1 E-10.394
G1 F2000.0
G1 X89.07 Y101.7
G1 X93.96 Y105.84 F15000.0
G1 F1995.6
G1 E10.394
G1 F2000.0
G1 F99.8
G1 E0.104
G1 F2000.0
G1 X105.9 Y93.9 E0.842
G1 X106.11 Y94.29 E0.022
G1 X94.44 Y106.05 E0.827
G1 X94.89 Y106.23 E0.024
G1 X106.32 Y94.86 E0.804
G1 F1995.6
G1 E-10.394
G1 F2000.0
G1 X105.6 Y93.45 F15000.0
G1 F1995.6
G1 E10.394
G1 F2000.0
G1 F99.8
G1 E0.104
G1 F2000.0
G1 X93.42 Y105.57 E0.857
G1 X93.06 Y105.3 E0.022
G1 X105.33 Y92.94 E0.869
G1 X105.09 Y92.58 E0.022
G1 X92.61 Y105.0 E0.878
G1 X92.25 Y104.73 E0.022
G1 X104.73 Y92.16 E0.884
G1 X104.43 Y91.83 E0.022
G1 X91.83 Y104.34 E0.886
G1 X91.56 Y104.01 E0.021
G1 X104.04 Y91.41 E0.885
G1 X103.68 Y91.14 E0.022
G1 X91.17 Y103.62 E0.882
G1 X90.87 Y103.29 E0.022
G1 X103.23 Y90.81 E0.876
G1 X102.87 Y90.54 E0.022
G1 X90.54 Y102.78 E0.867
G1 X90.33 Y102.36 E0.023
G1 X102.39 Y90.24 E0.853
G1 X101.97 Y90.03 E0.023
G1 X90.06 Y101.88 E0.838
G1 X89.82 Y101.46 E0.024
G1 X101.43 Y89.79 E0.821
G1 X101.01 Y89.58 E0.023
G1 X89.64 Y100.86 E0.799
G1 X89.49 Y100.38 E0.025
G1 X100.41 Y89.4 E0.773
G1 X99.9 Y89.28 E0.026
G1 X89.31 Y99.81 E0.745
G1 X89.22 Y99.24 E0.029
G1 X99.27 Y89.16 E0.71
G1 X98.64 Y89.1 E0.032
G1 X89.16 Y98.52 E0.667
G1 X89.1 Y97.95 E0.029
G1 X97.86 Y89.1 E0.621
G1 X97.23 E0.031
G1 X89.19 Y97.08 E0.565
G1 X89.25 Y96.39 E0.035
G1 X96.3 Y89.25 E0.501
G1 X95.49 Y89.43 E0.041
G1 X89.52 Y95.34 E0.419
G1 X89.85 Y94.38 E0.051
G1 X94.17 Y89.97 E0.308
G1 X93.42 Y90.33 E0.042
G1 X92.55 Y90.96 E0.054
G1 X90.81 Y92.67 E0.122
G1 F1995.6
G1 E-10.394
G1 F2000.0
G1 X95.43 Y106.44 F15000.0
G1 F1995.6
G1 E10.394
G1 F2000.0
G1 F99.8
G1 E0.104
G1 F2000.0
G1 X106.47 Y95.4 E0.779
G1 X106.65 Y95.91 E0.027
G1 X96.03 Y106.59 E0.751
G1 X96.6 Y106.68 E0.029
G1 X106.77 Y96.54 E0.716
G1 X106.83 Y97.11 E0.029
G1 X97.23 Y106.8 E0.681
G1 X97.86 E0.031
G1 X106.89 Y97.83 E0.635
G1 X106.83 Y98.52 E0.035
G1 X98.64 Y106.8 E0.581
G1 X99.36 Y106.71 E0.036
G1 X106.74 Y99.42 E0.518
G1 X106.62 Y100.14 E0.036
G1 X100.38 Y106.47 E0.443
G1 X100.53 Y106.44 E0.008
G1 X101.34 Y106.14 E0.043
G1 X106.23 Y101.31 E0.343
G1 X106.14 Y101.52 E0.011
G1 X105.51 Y102.66 E0.065
G1 X102.9 Y105.33 E0.186
G1 F1995.6
G1 E-10.394
G1 F2000.0
G1 X85.5 Y71.45 F15000.0
T1
G1 F1995.6
G1 E10.394
G1 F2000.0
G1 F99.8
G1 E0.104
G1 F2000.0
G1 X110.5 Y71.45 E1.247
G1 Y70.95 E0.025
G1 X85.5 Y70.95 E1.247
G1 Y70.45 E0.025
G1 X110.5 Y70.45 E1.247
G1 F1995.6
G1 E-10.394
G1 F2000.0
G1 X104.85 Y105.6 F15000.0
G1 F1995.6
G1 E10.394
G1 F2000.0
G1 X106.2 Y104.13 E0.1 F1800.0
G1 X107.22 Y102.42 E0.099
G1 X107.85 Y100.74 E0.09
G1 X112.71 E0.242
G1 X112.68 Y112.65 E0.594
G1 X100.77 E0.594
G1 Y107.82 E0.241
G1 X101.1 Y107.76 E0.017
G1 X103.2 Y106.8 E0.115
G1 X104.85 Y105.6 E0.102
G1 X105.24 Y105.93 E0.025
G1 X106.74 Y104.25 E0.112
G1 X107.7 Y102.6 E0.095
G1 X108.21 Y101.25 E0.072
G1 X112.2 Y101.28 E0.199
G1 Y112.14 E0.542
G1 X101.28 Y112.11 E0.545
G1 Y108.24 E0.193
G1 X103.5 Y107.22 E0.122
G1 X105.24 Y105.93 E0.108
G1 F1995.6
G1 E-10.394
G1 F2000.0
G1 X104.85 Y105.6
G1 X91.23 Y105.66 F15000.0
G1 F1995.6
G1 E10.394
G1 F2000.0
G1 X92.67 Y106.71 E0.089 F1800.0
G1 X94.89 Y107.73 E0.122
G1 X95.22 Y107.82 E0.017
G1 Y112.65 E0.241
G1 X83.28 E0.596
G1 Y100.74 E0.594
G1 X88.17 E0.244
G1 X88.68 Y102.24 E0.079
G1 X90.0 Y104.34 E0.124
G1 X91.23 Y105.66 E0.09
G1 X90.9 Y106.05 E0.025
G1 X92.58 Y107.25 E0.103
G1 X94.71 Y108.24 E0.117
G1 X94.68 Y112.14 E0.195
G1 X83.79 Y112.11 E0.543
G1 Y101.25 E0.542
G1 X87.81 E0.201
G1 X88.2 Y102.45 E0.063
G1 X89.25 Y104.25 E0.104
G1 X90.9 Y106.05 E0.122
G1 F1995.6
G1 E-10.394
G1 F2000.0
G1 X91.23 Y105.66
G1 X92.73 Y89.13 F15000.0
G1 F1995.6
G1 E10.394
G1 F2000.0
G1 X91.02 Y90.42 E0.107 F1800.0
G1 X89.67 Y91.95 E0.102
G1 X88.59 Y93.87 E0.11
G1 X88.17 Y95.16 E0.068
G1 X83.28 E0.244
G1 Y83.22 E0.596
G1 X95.22 E0.596
G1 X95.19 Y88.08 E0.242
G1 X94.62 Y88.26 E0.03
G1 X92.73 Y89.13 E0.104
G1 X92.4 Y88.74 E0.025
G1 X90.69 Y90.03 E0.107
G1 X89.16 Y91.77 E0.116
G1 X88.08 Y93.78 E0.114
G1 X87.78 Y94.65 E0.046
G1 X83.79 E0.199
G1 Y83.73 E0.545
G1 X94.71 Y83.76 E0.545
G1 Y87.69 E0.196
G1 X92.4 Y88.74 E0.127
G1 F1995.6
G1 E-10.394
G1 F2000.0
G1 X92.73 Y89.13
G1 X103.14 Y89.07 F15000.0
G1 F1995.6
G1 E10.394
G1 F2000.0
G1 X101.07 Y88.14 E0.113 F1800.0
G1 X100.77 Y88.08 E0.015
G1 Y83.22 E0.242
G1 X112.71 E0.596
G1 X112.68 Y95.16 E0.596
G1 X107.82 Y95.13 E0.242
G1 X107.4 Y93.81 E0.069
G1 X106.26 Y91.86 E0.113
G1 X104.76 Y90.21 E0.111
G1 X103.14 Y89.07 E0.099
G1 X103.38 Y88.62 E0.025
G1 X101.28 Y87.66 E0.115
G1 Y83.73 E0.196
G1 X112.2 E0.545
G1 Y94.65 E0.545
G1 X108.18 Y94.59 E0.201
G1 X107.85 Y93.57 E0.053
G1 X106.65 Y91.53 E0.118
G1 X105.09 Y89.82 E0.115
G1 X103.38 Y88.62 E0.104
G1 F1995.6
G1 E-10.394
G1 F2000.0
G1 X103.14 Y89.07
G1 X101.58 Y84.03 F15000.0
G1 F1995.6
G1 E10.394
G1 F2000.0
G1 Y84.69 E0.033
G1 X102.3 Y84.03 E0.049
G1 X102.93 E0.031
G1 X101.58 Y85.47 E0.098
G1 Y86.1 E0.031
G1 X103.71 Y84.03 E0.148
G1 X104.34 E0.031
G1 X101.58 Y86.88 E0.198
G1 X101.61 Y87.48 E0.03
G1 X105.15 Y84.03 E0.247
G1 X105.78 E0.031
G1 X102.15 Y87.72 E0.258
G1 X102.6 Y87.93 E0.025
G1 X106.56 Y84.03 E0.277
G1 X107.19 E0.031
G1 X103.14 Y88.17 E0.289
G1 X103.56 Y88.38 E0.023
G1 X107.97 Y84.03 E0.309
G1 X108.6 E0.031
G1 X104.01 Y88.68 E0.326
G1 X104.37 Y88.95 E0.022
G1 X109.38 Y84.03 E0.35
G1 X110.01 E0.031
G1 X104.85 Y89.28 E0.367
G1 X105.21 Y89.55 E0.022
G1 X110.79 Y84.03 E0.392
G1 X111.42 E0.031
G1 X105.63 Y89.94 E0.413
G1 X105.93 Y90.27 E0.022
G1 X111.9 Y84.33 E0.42
G1 Y84.96 E0.031
G1 X106.29 Y90.66 E0.399
G1 X106.59 Y91.02 E0.023
G1 X111.9 Y85.74 E0.374
G1 Y86.37 E0.031
G1 X106.95 Y91.41 E0.352
G1 X107.19 Y91.8 E0.023
G1 X111.9 Y87.18 E0.329
G1 Y87.81 E0.031
G1 X107.46 Y92.31 E0.315
G1 X107.7 Y92.7 E0.023
G1 X111.9 Y88.59 E0.293
G1 Y89.22 E0.031
G1 X107.97 Y93.21 E0.279
G1 X108.21 Y93.63 E0.024
G1 X111.9 Y90.0 E0.258
G1 Y90.63 E0.031
G1 X108.39 Y94.2 E0.25
G1 X108.42 Y94.29 E0.005
G1 X108.9 Y94.32 E0.024
G1 X111.9 Y91.41 E0.209
G1 Y92.04 E0.031
G1 X109.71 Y94.32 E0.158
G1 X110.34 Y94.35 E0.031
G1 X111.9 Y92.82 E0.109
G1 Y93.45 E0.031
G1 X111.09 Y94.35 E0.06
G1 X111.69 E0.03
G1 X111.9 Y94.23 E0.012
G1 F1995.6
G1 E-10.394
G1 F2000.0
G1 X109.53 Y101.55 F15000.0
G1 F1995.6
G1 E10.394
G1 F2000.0
G1 X107.43 Y103.65 E0.148
G1 X107.46 Y103.62 E0.002
G1 F1995.6
G1 E-10.394
G1 F2000.0
G1 X103.5 Y107.58 F15000.0
G1 F1995.6
G1 E10.394
G1 F2000.0
G1 X101.58 Y109.5 E0.135
G1 Y110.13 E0.031
G1 X110.25 Y101.55 E0.609
G1 X110.88 E0.031
G1 X101.58 Y110.91 E0.658
G1 Y111.54 E0.031
G1 X111.66 Y101.55 E0.708
G1 X111.87 E0.01
G1 X111.9 Y101.94 E0.02
G1 X102.06 Y111.84 E0.696
G1 X102.72 E0.033
G1 X111.9 Y102.72 E0.646
G1 Y103.35 E0.031
G1 X103.5 Y111.84 E0.596
G1 X104.13 E0.031
G1 X111.9 Y104.13 E0.546
G1 Y104.76 E0.031
G1 X104.91 Y111.84 E0.496
G1 X105.54 E0.031
G1 X111.9 Y105.54 E0.447
G1 Y106.17 E0.031
G1 X106.32 Y111.84 E0.397
G1 X106.95 E0.031
G1 X111.9 Y106.95 E0.347
G1 Y107.61 E0.033
G1 X107.73 Y111.84 E0.296
G1 X108.36 E0.031
G1 X111.9 Y108.39 E0.247
G1 Y109.02 E0.031
G1 X109.14 Y111.84 E0.197
G1 X109.77 E0.031
G1 X111.9 Y109.8 E0.147
G1 Y110.43 E0.031
G1 X110.55 Y111.84 E0.097
G1 X111.18 E0.031
G1 X111.9 Y111.18 E0.049
G1 F1995.6
G1 E-10.394
G1 F2000.0
G1 X94.41 Y111.72 F15000.0
G1 F1995.6
G1 E10.394
G1 F2000.0
G1 X94.2 Y111.84 E0.012
G1 X93.6 E0.03
G1 X94.41 Y110.94 E0.06
G1 Y110.31 E0.031
G1 X92.82 Y111.84 E0.11
G1 X92.19 E0.031
G1 X94.41 Y109.53 E0.16
G1 Y108.9 E0.031
G1 X91.38 Y111.84 E0.211
G1 X90.75 E0.031
G1 X94.2 Y108.33 E0.246
G1 X93.78 Y108.12 E0.023
G1 X89.97 Y111.84 E0.266
G1 X89.34 E0.031
G1 X93.24 Y107.88 E0.277
G1 X92.79 Y107.7 E0.024
G1 X88.56 Y111.84 E0.295
G1 X87.93 E0.031
G1 X92.28 Y107.43 E0.309
G1 X91.92 Y107.16 E0.022
G1 X87.15 Y111.84 E0.333
G1 X86.52 E0.031
G1 X91.47 Y106.83 E0.351
G1 X91.11 Y106.56 E0.022
G1 X85.74 Y111.84 E0.376
G1 X85.11 E0.031
G1 X90.66 Y106.23 E0.394
G1 X90.33 Y105.9 E0.023
G1 X84.33 Y111.84 E0.421
G1 X84.09 Y111.81 E0.012
G1 Y111.45 E0.018
G1 X89.97 Y105.51 E0.417
G1 X89.67 Y105.18 E0.022
G1 X84.09 Y110.67 E0.391
G1 Y110.04 E0.031
G1 X89.31 Y104.76 E0.37
G1 X89.01 Y104.4 E0.023
G1 X84.09 Y109.23 E0.344
G1 Y108.6 E0.031
G1 X88.71 Y103.92 E0.328
G1 X88.5 Y103.53 E0.022
G1 X84.09 Y107.82 E0.307
G1 Y107.19 E0.031
G1 X88.2 Y103.02 E0.292
G1 X87.96 Y102.63 E0.023
G1 X84.09 Y106.41 E0.27
G1 Y105.78 E0.031
G1 X87.75 Y102.06 E0.26
G1 X87.6 Y101.58 E0.025
G1 X84.09 Y105.0 E0.244
G1 Y104.37 E0.031
G1 X86.82 Y101.55 E0.196
G1 X86.19 E0.031
G1 X84.09 Y103.59 E0.146
G1 Y102.96 E0.031
G1 X85.41 Y101.55 E0.096
G1 X84.78 E0.031
G1 X84.09 Y102.24 E0.049
G1 F1995.6
G1 E-10.394
G1 F2000.0
G1 X87.84 Y93.54 F15000.0
G1 F1995.6
G1 E10.394
G1 F2000.0
G1 X86.97 Y94.35 E0.059
G1 X86.34 E0.031
G1 X88.74 Y91.92 E0.17
G1 F1995.6
G1 E-10.394
G1 F2000.0
G1 X92.04 Y88.65 F15000.0
G1 F1995.6
G1 E10.394
G1 F2000.0
G1 X92.58 Y88.29 E0.032
G1 X93.48 Y87.9 E0.049
G1 X94.41 Y86.91 E0.068
G1 Y86.25 E0.033
G1 Y85.56 E0.034
G1 X85.56 Y94.35 E0.622
G1 X84.93 E0.031
G1 X94.41 Y84.78 E0.672
G1 Y84.15 E0.031
G1 X84.12 Y94.35 E0.723
G1 X84.09 Y93.75 E0.03
G1 X93.75 Y84.03 E0.684
G1 X93.12 E0.031
G1 X84.09 Y92.97 E0.634
G1 Y92.34 E0.031
G1 X92.34 Y84.03 E0.584
G1 X91.71 E0.031
G1 X84.09 Y91.56 E0.534
G1 Y90.93 E0.031
G1 X90.93 Y84.03 E0.485
G1 X90.3 E0.031
G1 X84.09 Y90.15 E0.435
G1 Y89.52 E0.031
G1 X89.49 Y84.03 E0.384
G1 X88.86 E0.031
G1 X84.09 Y88.74 E0.334
G1 Y88.11 E0.031
G1 X88.08 Y84.03 E0.285
G1 X87.45 E0.031
G1 X84.09 Y87.33 E0.235
G1 Y86.7 E0.031
G1 X86.67 Y84.03 E0.185
G1 X86.04 E0.031
G1 X84.09 Y85.92 E0.135
G1 Y85.29 E0.031
G1 X85.26 Y84.03 E0.086
G1 X84.63 E0.031
G1 X84.09 Y84.54 E0.037
G1 F1995.6
G1 E-10.394
G1 F2000.0
G1 X85.5 Y69.95 F15000.0
T2
G1 F1995.6
G1 E10.394
G1 F2000.0
G1 F99.8
G1 E0.104
G1 F2000.0
G1 X110.5 Y69.95 E1.247
G1 Y69.45 E0.025
G1 X85.5 Y69.45 E1.247
G1 Y68.95 E0.025
G1 X110.5 Y68.95 E1.247
G1 F1995.6
G1 E-10.394
G1 F2000.0
G1 X87.75 Y97.8 F15000.0
G1 F1995.6
G1 E10.394
G1 F2000.0
G1 X87.96 Y100.17 E0.119 F1800.0
G1 X80.79 E0.358
G1 Y95.73 E0.222
G1 X87.96 Y95.76 E0.358
G1 X87.75 Y97.8 E0.102
G1 X87.24 Y97.74 E0.026
G1 X87.39 Y99.66 E0.096
G1 X81.3 Y99.63 E0.304
G1 Y96.24 E0.169
G1 X87.39 Y96.27 E0.304
G1 X87.24 Y97.74 E0.074
G1 F1995.6
G1 E-10.394
G1 F2000.0
G1 X87.75 Y97.8
G1 X97.02 Y108.18 F15000.0
G1 F1995.6
G1 E10.394
G1 F2000.0
G1 X99.39 Y108.09 E0.118 F1800.0
G1 X100.23 Y107.97 E0.042
G1 X100.2 Y115.17 E0.359
G1 X95.79 E0.22
G1 Y107.94 E0.361
G1 X97.02 Y108.18 E0.063
G1 X96.96 Y108.69 E0.026
G1 X99.27 Y108.63 E0.115
G1 X99.72 Y108.6 E0.023
G1 Y114.66 E0.302
G1 X96.3 Y114.63 E0.171
G1 Y108.57 E0.302
G1 X96.96 Y108.69 E0.033
G1 F1995.6
G1 E-10.394
G1 F2000.0
G1 X97.02 Y108.18
G1 X108.24 Y98.31 F15000.0
G1 F1995.6
G1 E10.394
G1 F2000.0
G1 X108.03 Y95.73 E0.129 F1800.0
G1 X115.23 Y95.76 E0.359
G1 Y100.17 E0.22
G1 X108.03 Y100.14 E0.359
G1 X108.24 Y98.31 E0.092
G1 X108.75 Y98.37 E0.026
G1 X108.6 Y96.24 E0.107
G1 X114.72 Y96.3 E0.305
G1 X114.69 Y99.66 E0.168
G1 X108.6 Y99.63 E0.304
G1 X108.75 Y98.37 E0.063
G1 F1995.6
G1 E-10.394
G1 F2000.0
G1 X108.24 Y98.31
G1 X98.97 Y87.72 F15000.0
G1 F1995.6
G1 E10.394
G1 F2000.0
G1 X96.63 Y87.78 E0.117 F1800.0
G1 X95.79 Y87.9 E0.042
G1 Y80.73 E0.358
G1 X100.23 E0.222
G1 Y87.96 E0.361
G1 X98.97 Y87.72 E0.064
G1 X99.03 Y87.21 E0.026
G1 X96.78 Y87.24 E0.112
G1 X96.3 Y87.3 E0.024
G1 Y81.24 E0.302
G1 X99.72 Y81.27 E0.171
G1 Y87.33 E0.302
G1 X99.03 Y87.21 E0.035
G1 F1995.6
G1 E-10.394
G1 F2000.0
G1 X98.97 Y87.72
G1 X99.42 Y86.91 F15000.0
G1 F1995.6
G1 E10.394
G1 F2000.0
G1 X99.3 Y86.94 E0.006
G1 X98.73 Y86.91 E0.028
G1 X99.42 Y86.13 E0.052
G1 Y85.5 E0.031
G1 X97.92 Y86.94 E0.104
G1 X97.29 E0.031
G1 X99.42 Y84.72 E0.153
G1 Y84.09 E0.031
G1 X96.6 Y86.82 E0.196
G1 Y86.19 E0.031
G1 X99.42 Y83.31 E0.201
G1 Y82.68 E0.031
G1 X96.6 Y85.41 E0.196
G1 Y84.78 E0.031
G1 X99.42 Y81.9 E0.201
G1 X99.39 Y81.54 E0.018
G1 X99.15 E0.012
G1 X96.6 Y84.0 E0.177
G1 Y83.37 E0.031
G1 X98.37 Y81.54 E0.127
G1 X97.74 E0.031
G1 X96.6 Y82.59 E0.077
G1 Y81.96 E0.031
G1 X96.99 Y81.54 E0.029
G1 F1995.6
G1 E-10.394
G1 F2000.0
G1 X108.99 Y97.14 F15000.0
G1 F1995.6
G1 E10.394
G1 F2000.0
G1 X109.59 Y96.54 E0.042
G1 X110.22 E0.031
G1 X109.05 Y97.8 E0.086
G1 Y98.43 E0.031
G1 X111.0 Y96.54 E0.135
G1 X111.6 Y96.57 E0.03
G1 X108.93 Y99.33 E0.192
G1 X109.56 E0.031
G1 X112.41 Y96.57 E0.198
G1 X113.04 E0.031
G1 X110.34 Y99.33 E0.193
G1 X110.97 E0.031
G1 X113.82 Y96.57 E0.198
G1 X114.42 Y96.6 E0.03
G1 X111.72 Y99.36 E0.193
G1 X112.35 E0.031
G1 X114.42 Y97.38 E0.143
G1 Y98.01 E0.031
G1 X113.13 Y99.36 E0.093
G1 X113.76 E0.031
G1 X114.42 Y98.76 E0.045
G1 F1995.6
G1 E-10.394
G1 F2000.0
G1 X96.6 Y109.53 F15000.0
G1 F1995.6
G1 E10.394
G1 F2000.0
G1 X97.14 Y108.99 E0.038
G1 X97.77 E0.031
G1 X96.6 Y110.25 E0.086
G1 Y110.88 E0.031
G1 X98.58 Y108.96 E0.138
G1 X99.3 Y108.93 E0.036
G1 X96.6 Y111.66 E0.192
G1 Y112.29 E0.031
G1 X99.42 Y109.56 E0.196
G1 Y110.19 E0.031
G1 X96.6 Y113.07 E0.201
G1 Y113.7 E0.031
G1 X99.42 Y110.97 E0.196
G1 Y111.6 E0.031
G1 X96.72 Y114.36 E0.193
G1 X97.35 E0.031
G1 X99.42 Y112.38 E0.143
G1 Y113.01 E0.031
G1 X98.13 Y114.36 E0.093
G1 X98.76 E0.031
G1 X99.42 Y113.76 E0.045
G1 F1995.6
G1 E-10.394
G1 F2000.0
G1 X87.06 Y99.27 F15000.0
G1 F1995.6
G1 E10.394
G1 F2000.0
G1 X86.88 Y99.36 E0.01
G1 X86.28 E0.03
G1 X86.97 Y98.58 E0.052
G1 X86.94 Y97.98 E0.03
G1 X85.5 Y99.36 E0.1
G1 X84.87 E0.031
G1 X87.0 Y97.14 E0.153
G1 X87.03 Y96.57 E0.028
G1 X86.94 E0.004
G1 X84.06 Y99.36 E0.2
G1 X83.43 E0.031
G1 X86.16 Y96.57 E0.195
G1 X85.53 E0.031
G1 X82.65 Y99.36 E0.2
G1 X82.02 E0.031
G1 X84.75 Y96.57 E0.195
G1 X84.15 Y96.54 E0.03
G1 X81.6 Y99.0 E0.177
G1 Y98.37 E0.031
G1 X83.37 Y96.54 E0.127
G1 X82.74 E0.031
G1 X81.6 Y97.59 E0.077
G1 Y96.96 E0.031
G1 X81.99 Y96.54 E0.029
G1 F1995.6
G1 E-10.394
G1 F2000.0
;#!LAYER: 2/20
G92 E0
G1 Z0.48 F200.0
G1 X82.95 Y67.17 F15000.0
G1 X85.5 Y72.95
T0
G1 F1995.6
G1 E10.394
G1 F2000.0
G1 F99.8
G1 E0.104
G1 F2000.0
G1 X110.5 Y72.95 E1.247
G1 Y72.45 E0.025
G1 X85.5 Y72.45 E1.247
G1 Y71.95 E0.025
G1 X110.5 Y71.95 E1.247
G1 F1995.6
G1 E-10.394
G1 F2000.0
G1 X82.95 Y67.17 F15000.0
G1 F1995.6
G1 E10.394
G1 F2000.0
G1 F99.8
G1 E0.104
G1 F2000.0
G1 X82.77 Y67.32 E0.012 F1800.0
G1 Y75.57 E0.412
G1 X83.13 Y75.72 E0.019
G1 X113.07 Y75.69 E1.494
G1 X113.22 Y75.57 E0.01
G1 X113.28 Y75.21 E0.018
G1 X113.25 Y67.35 E0.392
G1 X112.89 Y67.17 E0.02
G1 X82.95 E1.494
G1 X82.86 Y66.69 E0.024
G1 X82.5 Y66.87 E0.02
G1 X82.35 Y67.02 E0.011
G1 X82.23 Y75.54 E0.425
G1 X82.38 Y75.9 E0.019
G1 X82.56 Y76.08 E0.013
G1 X83.1 Y76.23 E0.028
G1 X113.1 E1.497
G1 X113.46 Y76.05 E0.02
G1 X113.64 Y75.84 E0.014
G1 X113.76 Y75.54 E0.016
G1 Y67.35 E0.409
G1 X113.7 Y67.11 E0.012
G1 X113.43 Y66.81 E0.02
G1 X112.95 Y66.66 E0.025
G1 X82.86 Y66.69 E1.501
G1 F1995.6
G1 E-10.394
G1 F2000.0
G1 X82.95 Y67.17
G1 X115.68 Y78.15 F15000.0
G1 F1995.6
G1 E10.394
G1 F2000.0
G1 F99.8
G1 E0.104
G1 F2000.0
G1 X80.28 E1.766 F1800.0
G1 Y64.74 E0.669
G1 X115.71 E1.768
G1 X115.68 Y78.15 E0.669
G1 X115.2 Y77.64 E0.035
G1 X80.79 E1.717
G1 Y65.25 E0.618
G1 X115.2 E1.717
G1 Y77.64 E0.618
G1 F1995.6
G1 E-10.394
G1 F2000.0
G1 X115.68 Y78.15
G1 X114.33 Y65.55 F15000.0
G1 F1995.6
G1 E10.394
G1 F2000.0
G1 F99.8
G1 E0.104
G1 F2000.0
G1 X114.9 Y66.18 E0.042
G1 Y66.81 E0.031
G1 X113.58 Y65.55 E0.091
G1 X112.95 E0.031
G1 X114.9 Y67.59 E0.141
G1 Y68.22 E0.031
G1 X114.06 Y67.44 E0.057
G1 X114.09 Y68.1 E0.033
G1 X114.9 Y69.0 E0.06
G1 Y69.63 E0.031
G1 X114.09 Y68.91 E0.054
G1 Y69.54 E0.031
G1 X114.9 Y70.41 E0.059
G1 Y71.04 E0.031
G1 X114.09 Y70.32 E0.054
G1 Y70.95 E0.031
G1 X114.9 Y71.82 E0.059
G1 Y72.45 E0.031
G1 X114.09 Y71.73 E0.054
G1 Y72.36 E0.031
G1 X114.9 Y73.23 E0.059
G1 Y73.86 E0.031
G1 X114.09 Y73.14 E0.054
G1 Y73.77 E0.031
G1 X114.9 Y74.64 E0.059
G1 Y75.3 E0.033
G1 X114.09 Y74.55 E0.055
G1 Y75.18 E0.031
G1 X114.9 Y76.08 E0.06
G1 Y76.71 E0.031
G1 X113.97 Y75.84 E0.064
G1 X113.73 Y76.2 E0.022
G1 X114.75 Y77.34 E0.076
G1 X114.12 E0.031
G1 X113.28 Y76.5 E0.059
G1 X112.59 Y76.53 E0.034
G1 X113.34 Y77.34 E0.055
G1 X112.71 E0.031
G1 X111.84 Y76.53 E0.059
G1 X111.18 E0.033
G1 X111.93 Y77.34 E0.055
G1 X111.3 E0.031
G1 X110.4 Y76.53 E0.06
G1 X109.77 E0.031
G1 X110.52 Y77.34 E0.055
G1 X109.89 E0.031
G1 X108.99 Y76.53 E0.06
G1 X108.36 E0.031
G1 X109.11 Y77.34 E0.055
G1 X108.48 E0.031
G1 X107.58 Y76.53 E0.06
G1 X106.95 E0.031
G1 X107.7 Y77.34 E0.055
G1 X107.04 E0.033
G1 X106.17 Y76.53 E0.059
G1 X105.54 E0.031
G1 X106.26 Y77.34 E0.054
G1 X105.63 E0.031
G1 X104.76 Y76.53 E0.059
G1 X104.13 E0.031
G1 X104.85 Y77.34 E0.054
G1 X104.22 E0.031
G1 X103.35 Y76.53 E0.059
G1 X102.72 E0.031
G1 X103.44 Y77.34 E0.054
G1 X102.81 E0.031
G1 X101.94 Y76.53 E0.059
G1 X101.28 E0.033
G1 X102.03 Y77.34 E0.055
G1 X101.4 E0.031
G1 X100.5 Y76.53 E0.06
G1 X99.87 E0.031
G1 X100.62 Y77.34 E0.055
G1 X99.99 E0.031
G1 X99.09 Y76.53 E0.06
G1 X98.46 E0.031
G1 X99.21 Y77.34 E0.055
G1 X98.58 E0.031
G1 X97.68 Y76.53 E0.06
G1 X97.05 E0.031
G1 X97.8 Y77.34 E0.055
G1 X97.14 E0.033
G1 X96.27 Y76.53 E0.059
G1 X95.64 E0.031
G1 X96.36 Y77.34 E0.054
G1 X95.73 E0.031
G1 X94.86 Y76.53 E0.059
G1 X94.23 E0.031
G1 X94.95 Y77.34 E0.054
G1 X94.32 E0.031
G1 X93.45 Y76.53 E0.059
G1 X92.82 E0.031
G1 X93.54 Y77.34 E0.054
G1 X92.91 E0.031
G1 X92.04 Y76.53 E0.059
G1 X91.38 E0.033
G1 X92.13 Y77.34 E0.055
G1 X91.5 E0.031
G1 X90.6 Y76.53 E0.06
G1 X89.97 E0.031
G1 X90.72 Y77.34 E0.055
G1 X90.09 E0.031
G1 X89.19 Y76.53 E0.06
G1 X88.56 E0.031
G1 X89.31 Y77.34 E0.055
G1 X88.68 E0.031
G1 X87.78 Y76.53 E0.06
G1 X87.15 E0.031
G1 X87.9 Y77.34 E0.055
G1 X87.24 E0.033
G1 X86.37 Y76.53 E0.059
G1 X85.74 E0.031
G1 X86.46 Y77.34 E0.054
G1 X85.83 E0.031
G1 X84.96 Y76.53 E0.059
G1 X84.33 E0.031
G1 X85.05 Y77.34 E0.054
G1 X84.42 E0.031
G1 X83.55 Y76.53 E0.059
G1 X82.89 Y76.5 E0.033
G1 X83.7 Y77.34 E0.058
G1 F1995.6
G1 E-10.394
G1 F2000.0
G1 X81.57 F15000.0
G1 F1995.6
G1 E10.394
G1 F2000.0
G1 F99.8
G1 E0.104
G1 F2000.0
G1 X81.09 Y76.83 E0.035
G1 Y76.2 E0.031
G1 X82.29 Y77.34 E0.083
G1 X82.95 E0.033
G1 X81.09 Y75.42 E0.133
G1 Y74.79 E0.031
G1 X81.93 Y75.54 E0.056
G1 X81.9 Y74.88 E0.033
G1 X81.09 Y74.01 E0.059
G1 Y73.38 E0.031
G1 X81.9 Y74.1 E0.054
G1 Y73.47 E0.031
G1 X81.09 Y72.6 E0.059
G1 Y71.97 E0.031
G1 X81.9 Y72.69 E0.054
G1 Y72.06 E0.031
G1 X81.09 Y71.19 E0.059
G1 Y70.53 E0.033
G1 X81.9 Y71.28 E0.055
G1 Y70.65 E0.031
G1 X81.09 Y69.75 E0.06
G1 Y69.12 E0.031
G1 X81.9 Y69.87 E0.055
G1 Y69.24 E0.031
G1 X81.09 Y68.34 E0.06
G1 Y67.71 E0.031
G1 X81.9 Y68.46 E0.055
G1 Y67.83 E0.031
G1 X81.09 Y66.93 E0.06
G1 Y66.3 E0.031
G1 X81.99 Y67.14 E0.061
G1 X82.23 Y66.72 E0.024
G1 X81.12 Y65.55 E0.08
G1 X81.75 E0.031
G1 X82.71 Y66.39 E0.064
G1 X83.28 Y66.36 E0.028
G1 X82.53 Y65.55 E0.055
G1 X83.16 E0.031
G1 X84.06 Y66.36 E0.06
G1 X84.69 E0.031
G1 X83.94 Y65.55 E0.055
G1 X84.57 E0.031
G1 X85.47 Y66.36 E0.06
G1 X86.1 E0.031
G1 X85.35 Y65.55 E0.055
G1 X86.01 E0.033
G1 X86.88 Y66.36 E0.059
G1 X87.51 E0.031
G1 X86.79 Y65.55 E0.054
G1 X87.42 E0.031
G1 X88.29 Y66.36 E0.059
G1 X88.92 E0.031
G1 X88.2 Y65.55 E0.054
G1 X88.83 E0.031
G1 X89.7 Y66.36 E0.059
G1 X90.33 E0.031
G1 X89.61 Y65.55 E0.054
G1 X90.24 E0.031
G1 X91.11 Y66.36 E0.059
G1 X91.77 E0.033
G1 X91.02 Y65.55 E0.055
G1 X91.65 E0.031
G1 X92.55 Y66.36 E0.06
G1 X93.18 E0.031
G1 X92.43 Y65.55 E0.055
G1 X93.06 E0.031
G1 X93.96 Y66.36 E0.06
G1 X94.59 E0.031
G1 X93.84 Y65.55 E0.055
G1 X94.47 E0.031
G1 X95.37 Y66.36 E0.06
G1 X96.0 E0.031
G1 X95.25 Y65.55 E0.055
G1 X95.91 E0.033
G1 X96.78 Y66.36 E0.059
G1 X97.41 E0.031
G1 X96.69 Y65.55 E0.054
G1 X97.32 E0.031
G1 X98.19 Y66.36 E0.059
G1 X98.82 E0.031
G1 X98.1 Y65.55 E0.054
G1 X98.73 E0.031
G1 X99.6 Y66.36 E0.059
G1 X100.23 E0.031
G1 X99.51 Y65.55 E0.054
G1 X100.14 E0.031
G1 X101.01 Y66.36 E0.059
G1 X101.67 E0.033
G1 X100.92 Y65.55 E0.055
G1 X101.55 E0.031
G1 X102.45 Y66.36 E0.06
G1 X103.08 E0.031
G1 X102.33 Y65.55 E0.055
G1 X102.96 E0.031
G1 X103.86 Y66.36 E0.06
G1 X104.49 E0.031
G1 X103.74 Y65.55 E0.055
G1 X104.37 E0.031
G1 X105.27 Y66.36 E0.06
G1 X105.9 E0.031
G1 X105.15 Y65.55 E0.055
G1 X105.81 E0.033
G1 X106.68 Y66.36 E0.059
G1 X107.31 E0.031
G1 X106.59 Y65.55 E0.054
G1 X107.22 E0.031
G1 X108.09 Y66.36 E0.059
G1 X108.72 E0.031
G1 X108.0 Y65.55 E0.054
G1 X108.63 E0.031
G1 X109.5 Y66.36 E0.059
G1 X110.13 E0.031
G1 X109.41 Y65.55 E0.054
G1 X110.04 E0.031
G1 X110.91 Y66.36 E0.059
G1 X111.54 E0.031
G1 X110.82 Y65.55 E0.054
G1 X111.45 E0.031
G1 X112.35 Y66.36 E0.06
G1 X112.98 E0.031
G1 X112.23 Y65.55 E0.055
G1 F1995.6
G1 E-10.394
G1 F2000.0
G1 X89.07 Y101.7 F15000.0
G1 F1995.6
G1 E10.394
G1 F2000.0
G1 F99.8
G1 E0.104
G1 F2000.0
G1 X88.44 Y99.63 E0.108 F1800.0
G1 X88.29 Y97.71 E0.096
G1 X88.47 Y95.91 E0.09
G1 X89.07 Y94.08 E0.096
G1 X90.18 Y92.16 E0.111
G1 X91.62 Y90.63 E0.105
G1 X93.09 Y89.55 E0.091
G1 X95.19 Y88.65 E0.114
G1 X97.05 Y88.29 E0.095
G1 X99.12 E0.103
G1 X100.95 Y88.68 E0.093
G1 X102.96 Y89.61 E0.11
G1 X104.58 Y90.81 E0.101
G1 X105.69 Y92.01 E0.082
G1 X106.95 Y94.17 E0.125
G1 X107.55 Y96.12 E0.102
G1 X107.7 Y97.83 E0.086
G1 X107.46 Y100.14 E0.116
G1 X106.8 Y102.06 E0.101
G1 X105.75 Y103.8 E0.101
G1 X104.4 Y105.24 E0.098
G1 X102.96 Y106.29 E0.089
G1 X100.86 Y107.22 E0.115
G1 X98.94 Y107.61 E0.098
G1 X96.93 E0.1
G1 X95.01 Y107.19 E0.098
G1 X93.06 Y106.32 E0.107
G1 X91.5 Y105.18 E0.096
G1 X90.18 Y103.74 E0.097
G1 X89.31 Y102.24 E0.087
G1 X89.07 Y101.7 E0.029
G1 X89.55 Y101.55 E0.025
G1 X88.98 Y99.72 E0.096
G1 X88.8 Y97.74 E0.099
G1 X88.98 Y96.0 E0.087
G1 X89.55 Y94.26 E0.091
G1 X90.6 Y92.46 E0.104
G1 X91.95 Y91.02 E0.098
G1 X93.42 Y89.97 E0.09
G1 X95.28 Y89.16 E0.101
G1 X97.08 Y88.8 E0.092
G1 X99.09 Y88.83 E0.1
G1 X100.92 Y89.22 E0.093
G1 X102.78 Y90.12 E0.103
G1 X104.25 Y91.2 E0.091
G1 X105.48 Y92.61 E0.093
G1 X106.47 Y94.35 E0.1
G1 X107.04 Y96.21 E0.097
G1 X107.19 Y97.74 E0.077
G1 X107.01 Y99.87 E0.107
G1 X106.35 Y101.82 E0.103
G1 X105.18 Y103.68 E0.11
G1 X104.16 Y104.79 E0.075
G1 X102.51 Y105.96 E0.101
G1 X100.77 Y106.71 E0.095
G1 X98.94 Y107.1 E0.093
G1 X96.99 E0.097
G1 X95.25 Y106.71 E0.089
G1 X93.27 Y105.84 E0.108
G1 X91.59 Y104.52 E0.107
G1 X90.6 Y103.41 E0.074
G1 X89.55 Y101.55 E0.107
G1 F1995.6
G1 E-10.394
G1 F2000.0
G1 X89.07 Y101.7
G1 X89.67 Y100.98 F15000.0
G1 F1995.6
G1 E10.394
G1 F2000.0
G1 F99.8
G1 E0.104
G1 F2000.0
G1 X94.95 Y106.26 E0.373
G1 X95.19 Y106.38 E0.013
G1 X95.85 Y106.53 E0.034
G1 X89.34 Y99.93 E0.463
G1 X89.22 Y99.18 E0.038
G1 X96.87 Y106.74 E0.537
G1 X97.56 Y106.8 E0.035
G1 X89.13 Y98.31 E0.597
G1 Y97.68 E0.031
G1 X98.34 Y106.8 E0.647
G1 X98.94 Y106.77 E0.03
G1 X89.19 Y96.96 E0.69
G1 X89.28 Y96.36 E0.03
G1 X99.57 Y106.65 E0.726
G1 F1995.6
G1 E-10.394
G1 F2000.0
G1 X100.17 Y106.53 F15000.0
G1 F1995.6
G1 E10.394
G1 F2000.0
G1 F99.8
G1 E0.104
G1 F2000.0
G1 X89.4 Y95.73 E0.761
G1 X89.55 Y95.28 E0.024
G1 X100.77 Y106.38 E0.787
G1 X101.19 Y106.2 E0.023
G1 X89.73 Y94.68 E0.811
G1 X89.94 Y94.2 E0.026
G1 X101.73 Y105.96 E0.831
G1 X102.18 Y105.78 E0.024
G1 X90.21 Y93.75 E0.847
G1 F1995.6
G1 E-10.394
G1 F2000.0
G1 X96.33 Y89.25 F15000.0
G1 F1995.6
G1 E10.394
G1 F2000.0
G1 F99.8
G1 E0.104
G1 F2000.0
G1 X106.71 Y99.63 E0.732
G1 X106.59 Y100.23 E0.031
G1 X95.67 Y89.37 E0.768
G1 X95.19 Y89.52 E0.025
G1 X106.41 Y100.77 E0.793
G1 X106.23 Y101.28 E0.027
G1 X94.65 Y89.76 E0.815
G1 X94.2 Y89.94 E0.024
G1 X106.02 Y101.79 E0.835
G1 F1995.6
G1 E-10.394
G1 F2000.0
G1 X105.78 Y102.21 F15000.0
G1 F1995.6
G1 E10.394
G1 F2000.0
G1 F99.8
G1 E0.104
G1 F2000.0
G1 X93.69 Y90.18 E0.851
G1 X93.27 Y90.45 E0.025
G1 X105.48 Y102.69 E0.863
G1 X105.24 Y103.11 E0.024
G1 X92.82 Y90.75 E0.874
G1 X92.46 Y91.05 E0.023
G1 X104.91 Y103.53 E0.879
G1 X104.58 Y103.86 E0.023
G1 X92.01 Y91.35 E0.885
G1 X91.71 Y91.71 E0.023
G1 X104.22 Y104.28 E0.885
G1 X103.92 Y104.61 E0.022
G1 X91.35 Y92.07 E0.886
G1 X91.02 Y92.43 E0.024
G1 X103.47 Y104.91 E0.879
G1 X103.11 Y105.18 E0.022
G1 X90.69 Y92.88 E0.872
G1 X90.48 Y93.27 E0.022
G1 X102.66 Y105.51 E0.861
G1 F1995.6
G1 E-10.394
G1 F2000.0
G1 X106.8 Y99.03 F15000.0
G1 F1995.6
G1 E10.394
G1 F2000.0
G1 F99.8
G1 E0.104
G1 F2000.0
G1 X96.93 Y89.13 E0.697
G1 X97.53 Y89.1 E0.03
G1 X106.86 Y98.37 E0.656
G1 X106.89 Y97.77 E0.03
G1 X98.28 Y89.1 E0.61
G1 X99.0 E0.036
G1 X106.8 Y96.9 E0.55
G1 X106.71 Y96.15 E0.038
G1 X99.9 Y89.28 E0.483
G1 F1995.6
G1 E-10.394
G1 F2000.0
G1 X102.15 Y90.12 F15000.0
G1 F1995.6
G1 E10.394
G1 F2000.0
G1 F99.8
G1 E0.104
G1 F2000.0
G1 X102.87 Y90.54 E0.042
G1 X104.19 Y91.56 E0.083
G1 X105.27 Y92.82 E0.083
G1 X105.87 Y93.84 E0.059
G1 X102.03 Y90.06 E0.269
G1 X100.8 Y89.49 E0.068
G1 X106.38 Y95.07 E0.394
G1 F1995.6
G1 E-10.394
G1 F2000.0
G1 X93.69 Y105.72 F15000.0
G1 F1995.6
G1 E10.394
G1 F2000.0
G1 F99.8
G1 E0.104
G1 F2000.0
G1 X90.27 Y102.3 E0.241
G1 F1995.6
G1 E-10.394
G1 F2000.0
G1 X85.5 Y71.45 F15000.0
T1
G1 F1995.6
G1 E10.394
G1 F2000.0
G1 F99.8
G1 E0.104
G1 F2000.0
G1 X110.5 Y71.45 E1.247
G1 Y70.95 E0.025
G1 X85.5 Y70.95 E1.247
G1 Y70.45 E0.025
G1 X110.5 Y70.45 E1.247
G1 F1995.6
G1 E-10.394
G1 F2000.0
G1 X91.23 Y105.66 F15000.0
G1 F1995.6
G1 E10.394
G1 F2000.0
G1 X92.67 Y106.71 E0.089 F1800.0
G1 X94.89 Y107.73 E0.122
G1 X95.22 Y107.82 E0.017
G1 Y112.65 E0.241
G1 X83.28 E0.596
G1 Y100.74 E0.594
G1 X88.17 E0.244
G1 X88.68 Y102.24 E0.079
G1 X90.0 Y104.34 E0.124
G1 X91.23 Y105.66 E0.09
G1 X90.9 Y106.05 E0.025
G1 X92.58 Y107.25 E0.103
G1 X94.71 Y108.24 E0.117
G1 X94.68 Y112.14 E0.195
G1 X83.79 Y112.11 E0.543
G1 Y101.25 E0.542
G1 X87.81 E0.201
G1 X88.2 Y102.45 E0.063
G1 X89.25 Y104.25 E0.104
G1 X90.9 Y106.05 E0.122
G1 F1995.6
G1 E-10.394
G1 F2000.0
G1 X91.23 Y105.66
G1 X104.85 Y105.6 F15000.0
G1 F1995.6
G1 E10.394
G1 F2000.0
G1 X106.2 Y104.13 E0.1 F1800.0
G1 X107.22 Y102.42 E0.099
G1 X107.85 Y100.74 E0.09
G1 X112.71 E0.242
G1 X112.68 Y112.65 E0.594
G1 X100.77 E0.594
G1 Y107.82 E0.241
G1 X101.1 Y107.76 E0.017
G1 X103.2 Y106.8 E0.115
G1 X104.85 Y105.6 E0.102
G1 X105.24 Y105.93 E0.025
G1 X106.74 Y104.25 E0.112
G1 X107.7 Y102.6 E0.095
G1 X108.21 Y101.25 E0.072
G1 X112.2 Y101.28 E0.199
G1 Y112.14 E0.542
G1 X101.28 Y112.11 E0.545
G1 Y108.24 E0.193
G1 X103.5 Y107.22 E0.122
G1 X105.24 Y105.93 E0.108
G1 F1995.6
G1 E-10.394
G1 F2000.0
G1 X104.85 Y105.6
G1 X103.14 Y89.07 F15000.0
G1 F1995.6
G1 E10.394
G1 F2000.0
G1 X101.07 Y88.14 E0.113 F1800.0
G1 X100.77 Y88.08 E0.015
G1 Y83.22 E0.242
G1 X112.71 E0.596
G1 X112.68 Y95.16 E0.596
G1 X107.82 Y95.13 E0.242
G1 X107.4 Y93.81 E0.069
G1 X106.26 Y91.86 E0.113
G1 X104.76 Y90.21 E0.111
G1 X103.14 Y89.07 E0.099
G1 X103.38 Y88.62 E0.025
G1 X101.28 Y87.66 E0.115
G1 Y83.73 E0.196
G1 X112.2 E0.545
G1 Y94.65 E0.545
G1 X108.18 Y94.59 E0.201
G1 X107.85 Y93.57 E0.053
G1 X106.65 Y91.53 E0.118
G1 X105.09 Y89.82 E0.115
G1 X103.38 Y88.62 E0.104
G1 F1995.6
G1 E-10.394
G1 F2000.0
G1 X103.14 Y89.07
G1 X92.73 Y89.13 F15000.0
G1 F1995.6
G1 E10.394
G1 F2000.0
G1 X91.02 Y90.42 E0.107 F1800.0
G1 X89.67 Y91.95 E0.102
G1 X88.59 Y93.87 E0.11
G1 X88.17 Y95.16 E0.068
G1 X83.28 E0.244
G1 Y83.22 E0.596
G1 X95.22 E0.596
G1 X95.19 Y88.08 E0.242
G1 X94.62 Y88.26 E0.03
G1 X92.73 Y89.13 E0.104
G1 X92.4 Y88.74 E0.025
G1 X90.69 Y90.03 E0.107
G1 X89.16 Y91.77 E0.116
G1 X88.08 Y93.78 E0.114
G1 X87.78 Y94.65 E0.046
G1 X83.79 E0.199
G1 Y83.73 E0.545
G1 X94.71 Y83.76 E0.545
G1 Y87.69 E0.196
G1 X92.4 Y88.74 E0.127
G1 F1995.6
G1 E-10.394
G1 F2000.0
G1 X92.73 Y89.13
G1 X90.9 Y89.49 F15000.0
G1 F1995.6
G1 E10.394
G1 F2000.0
G1 X85.47 Y84.03 E0.384
G1 X86.1 E0.031
G1 X91.32 Y89.16 E0.365
G1 X91.68 Y88.92 E0.022
G1 X86.88 Y84.03 E0.342
G1 X87.51 E0.031
G1 X92.13 Y88.56 E0.323
G1 X92.49 Y88.32 E0.022
G1 X88.29 Y84.03 E0.3
G1 X88.92 E0.031
G1 X93.03 Y88.08 E0.288
G1 X93.51 Y87.87 E0.026
G1 X89.7 Y84.03 E0.27
G1 X90.33 E0.031
G1 X94.05 Y87.63 E0.258
G1 X94.35 Y87.51 E0.016
G1 X94.41 Y87.39 E0.007
G1 X91.11 Y84.03 E0.235
G1 X91.74 E0.031
G1 X94.41 Y86.61 E0.185
G1 Y85.98 E0.031
G1 X92.52 Y84.03 E0.135
G1 X93.15 E0.031
G1 X94.41 Y85.2 E0.086
G1 Y84.57 E0.031
G1 X93.93 Y84.03 E0.036
G1 F1995.6
G1 E-10.394
G1 F2000.0
G1 X89.82 Y90.54 F15000.0
G1 F1995.6
G1 E10.394
G1 F2000.0
G1 X84.09 Y84.78 E0.405
G1 Y84.15 E0.031
G1 X90.18 Y90.15 E0.427
G1 X90.48 Y89.82 E0.022
G1 X84.75 Y84.03 E0.406
G1 F1995.6
G1 E-10.394
G1 F2000.0
G1 X84.09 Y85.5 F15000.0
G1 F1995.6
G1 E10.394
G1 F2000.0
G1 X89.49 Y90.93 E0.382
G1 X89.19 Y91.26 E0.022
G1 X84.09 Y86.28 E0.356
G1 Y86.91 E0.031
G1 X88.86 Y91.71 E0.338
G1 X88.62 Y92.13 E0.024
G1 X84.09 Y87.69 E0.316
G1 Y88.32 E0.031
G1 X88.35 Y92.58 E0.301
G1 X88.11 Y93.03 E0.025
G1 X84.09 Y89.1 E0.28
G1 Y89.76 E0.033
G1 X87.84 Y93.54 E0.266
G1 X87.69 Y94.02 E0.025
G1 X84.09 Y90.51 E0.251
G1 Y91.14 E0.031
G1 X87.21 Y94.35 E0.223
G1 X86.58 E0.031
G1 X84.09 Y91.92 E0.174
G1 Y92.55 E0.031
G1 X85.8 Y94.35 E0.124
G1 X85.17 E0.031
G1 X84.09 Y93.33 E0.074
G1 Y93.96 E0.031
G1 X84.45 Y94.35 E0.026
G1 F1995.6
G1 E-10.394
G1 F2000.0
G1 X90.21 Y105.75 F15000.0
G1 F1995.6
G1 E10.394
G1 F2000.0
G1 X88.92 Y104.28 E0.098
G1 X88.26 Y103.11 E0.067
G1 X86.64 Y101.55 E0.112
G1 X85.98 E0.033
G1 X94.41 Y110.04 E0.597
G1 Y110.67 E0.031
G1 X85.23 Y101.55 E0.646
G1 X84.6 E0.031
G1 X94.41 Y111.45 E0.695
G1 X94.38 Y111.84 E0.02
G1 X94.17 E0.01
G1 X84.09 Y101.82 E0.709
G1 Y102.45 E0.031
G1 X93.39 Y111.84 E0.659
G1 X92.76 E0.031
G1 X84.09 Y103.23 E0.61
G1 Y103.86 E0.031
G1 X91.98 Y111.84 E0.56
G1 X91.35 E0.031
G1 X84.09 Y104.67 E0.509
G1 Y105.3 E0.031
G1 X90.57 Y111.84 E0.459
G1 X89.94 E0.031
G1 X84.09 Y106.08 E0.41
G1 Y106.71 E0.031
G1 X89.16 Y111.84 E0.36
G1 X88.53 E0.031
G1 X84.09 Y107.49 E0.31
G1 Y108.12 E0.031
G1 X87.75 Y111.84 E0.26
G1 X87.12 E0.031
G1 X84.09 Y108.9 E0.211
G1 Y109.53 E0.031
G1 X86.31 Y111.84 E0.16
G1 X85.68 E0.031
G1 X84.09 Y110.31 E0.11
G1 Y110.94 E0.031
G1 X84.9 Y111.84 E0.06
G1 X84.27 E0.031
G1 X84.09 Y111.66 E0.013
G1 F1995.6
G1 E-10.394
G1 F2000.0
G1 X92.88 Y107.73 F15000.0
G1 F1995.6
G1 E10.394
G1 F2000.0
G1 X94.41 Y109.23 E0.107
G1 Y108.6 E0.031
G1 X94.17 Y108.3 E0.019
G1 F1995.6
G1 E-10.394
G1 F2000.0
G1 X101.94 Y111.84 F15000.0
G1 F1995.6
G1 E10.394
G1 F2000.0
G1 X101.58 Y111.45 E0.026
G1 Y110.82 E0.031
G1 X102.66 Y111.84 E0.074
G1 X103.29 E0.031
G1 X101.58 Y110.04 E0.124
G1 Y109.41 E0.031
G1 X104.07 Y111.84 E0.174
G1 X104.7 E0.031
G1 X101.58 Y108.66 E0.222
G1 X101.94 Y108.27 E0.026
G1 X105.48 Y111.84 E0.251
G1 X106.11 E0.031
G1 X102.42 Y108.06 E0.264
G1 X102.87 Y107.85 E0.025
G1 X106.92 Y111.84 E0.284
G1 X107.55 E0.031
G1 X103.38 Y107.61 E0.296
G1 X103.8 Y107.37 E0.024
G1 X108.33 Y111.84 E0.318
G1 X108.96 E0.031
G1 X104.25 Y107.07 E0.334
G1 X104.61 Y106.77 E0.023
G1 X109.74 Y111.84 E0.36
G1 X110.37 E0.031
G1 X105.06 Y106.44 E0.378
G1 X105.42 Y106.17 E0.022
G1 X111.15 Y111.84 E0.402
G1 X111.78 E0.031
G1 X105.78 Y105.78 E0.425
G1 X106.11 Y105.42 E0.024
G1 X111.9 Y111.18 E0.407
G1 Y110.55 E0.031
G1 X106.47 Y105.03 E0.386
G1 X106.77 Y104.7 E0.022
G1 X111.9 Y109.77 E0.36
G1 Y109.14 E0.031
G1 X107.07 Y104.25 E0.343
G1 X107.34 Y103.8 E0.026
G1 X111.9 Y108.36 E0.322
G1 Y107.73 E0.031
G1 X107.61 Y103.35 E0.306
G1 X107.85 Y102.96 E0.023
G1 X111.9 Y106.95 E0.284
G1 Y106.29 E0.033
G1 X108.12 Y102.45 E0.269
G1 X108.3 Y102.0 E0.024
G1 X111.9 Y105.51 E0.251
G1 Y104.88 E0.031
G1 X108.63 Y101.55 E0.233
G1 X109.26 E0.031
G1 X111.9 Y104.1 E0.183
G1 Y103.47 E0.031
G1 X110.04 Y101.55 E0.133
G1 X110.67 E0.031
G1 X111.9 Y102.69 E0.084
G1 Y102.06 E0.031
G1 X111.45 Y101.55 E0.034
G1 F1995.6
G1 E-10.394
G1 F2000.0
G1 X108.39 Y94.26 F15000.0
G1 F1995.6
G1 E10.394
G1 F2000.0
G1 X108.48 Y94.32 E0.005
G1 X109.11 E0.031
G1 X107.88 Y93.03 E0.089
G1 X106.98 Y91.44 E0.091
G1 X109.89 Y94.32 E0.204
G1 X110.55 Y94.35 E0.033
G1 X101.58 Y85.29 E0.636
G1 Y84.66 E0.031
G1 X111.33 Y94.35 E0.686
G1 X111.84 E0.025
G1 X111.9 Y94.29 E0.004
G1 X101.73 Y84.03 E0.721
G1 X102.36 E0.031
G1 X111.9 Y93.51 E0.671
G1 Y92.88 E0.031
G1 X103.14 Y84.03 E0.621
G1 X103.77 E0.031
G1 X111.9 Y92.1 E0.572
G1 Y91.44 E0.033
G1 X104.55 Y84.03 E0.521
G1 X105.18 E0.031
G1 X111.9 Y90.66 E0.471
G1 Y90.03 E0.031
G1 X105.96 Y84.03 E0.421
G1 X106.59 E0.031
G1 X111.9 Y89.25 E0.371
G1 Y88.62 E0.031
G1 X107.37 Y84.03 E0.322
G1 X108.0 E0.031
G1 X111.9 Y87.84 E0.272
G1 Y87.21 E0.031
G1 X108.78 Y84.03 E0.222
G1 X109.44 E0.033
G1 X111.9 Y86.43 E0.171
G1 Y85.8 E0.031
G1 X110.22 Y84.03 E0.122
G1 X110.85 E0.031
G1 X111.9 Y85.02 E0.072
G1 Y84.39 E0.031
G1 X111.6 Y84.03 E0.023
G1 F1995.6
G1 E-10.394
G1 F2000.0
G1 X104.85 Y89.28 F15000.0
G1 F1995.6
G1 E10.394
G1 F2000.0
G1 X101.58 Y86.07 E0.229
G1 Y86.73 E0.033
G1 X102.9 Y88.05 E0.093
G1 F1995.6
G1 E-10.394
G1 F2000.0
G1 X85.5 Y69.95 F15000.0
T2
G1 F1995.6
G1 E10.394
G1 F2000.0
G1 F99.8
G1 E0.104
G1 F2000.0
G1 X110.5 Y69.95 E1.247
G1 Y69.45 E0.025
G1 X85.5 Y69.45 E1.247
G1 Y68.95 E0.025
G1 X110.5 Y68.95 E1.247
G1 F1995.6
G1 E-10.394
G1 F2000.0
G1 X98.97 Y87.72 F15000.0
G1 F1995.6
G1 E10.394
G1 F2000.0
G1 X96.63 Y87.78 E0.117 F1800.0
G1 X95.79 Y87.9 E0.042
G1 Y80.73 E0.358
G1 X100.23 E0.222
G1 Y87.96 E0.361
G1 X98.97 Y87.72 E0.064
G1 X99.03 Y87.21 E0.026
G1 X96.78 Y87.24 E0.112
G1 X96.3 Y87.3 E0.024
G1 Y81.24 E0.302
G1 X99.72 Y81.27 E0.171
G1 Y87.33 E0.302
G1 X99.03 Y87.21 E0.035
G1 F1995.6
G1 E-10.394
G1 F2000.0
G1 X98.97 Y87.72
G1 X108.15 Y96.54 F15000.0
G1 F1995.6
G1 E10.394
G1 F2000.0
G1 X108.03 Y95.73 E0.041 F1800.0
G1 X115.23 Y95.76 E0.359
G1 Y100.17 E0.22
G1 X108.03 Y100.14 E0.359
G1 X108.24 Y98.31 E0.092
G1 X108.15 Y96.54 E0.088
G1 X108.66 Y96.51 E0.025
G1 X108.6 Y96.24 E0.014
G1 X114.72 Y96.3 E0.305
G1 X114.69 Y99.66 E0.168
G1 X108.6 Y99.63 E0.304
G1 X108.75 Y98.37 E0.063
G1 X108.66 Y96.51 E0.093
G1 F1995.6
G1 E-10.394
G1 F2000.0
G1 X108.15 Y96.54
G1 X97.02 Y108.18 F15000.0
G1 F1995.6
G1 E10.394
G1 F2000.0
G1 X99.39 Y108.09 E0.118 F1800.0
G1 X100.23 Y107.97 E0.042
G1 X100.2 Y115.17 E0.359
G1 X95.79 E0.22
G1 Y107.94 E0.361
G1 X97.02 Y108.18 E0.063
G1 X96.96 Y108.69 E0.026
G1 X99.27 Y108.63 E0.115
G1 X99.72 Y108.6 E0.023
G1 Y114.66 E0.302
G1 X96.3 Y114.63 E0.171
G1 Y108.57 E0.302
G1 X96.96 Y108.69 E0.033
G1 F1995.6
G1 E-10.394
G1 F2000.0
G1 X97.02 Y108.18
G1 X87.75 Y97.8 F15000.0
G1 F1995.6
G1 E10.394
G1 F2000.0
G1 X87.96 Y100.17 E0.119 F1800.0
G1 X80.79 E0.358
G1 Y95.73 E0.222
G1 X87.96 Y95.76 E0.358
G1 X87.75 Y97.8 E0.102
G1 X87.24 Y97.74 E0.026
G1 X87.39 Y99.66 E0.096
G1 X81.3 Y99.63 E0.304
G1 Y96.24 E0.169
G1 X87.39 Y96.27 E0.304
G1 X87.24 Y97.74 E0.074
G1 F1995.6
G1 E-10.394
G1 F2000.0
G1 X87.75 Y97.8
G1 X86.67 Y96.57 F15000.0
G1 F1995.6
G1 E10.394
G1 F2000.0
G1 X87.03 Y96.96 E0.026
G1 X86.97 Y97.56 E0.03
G1 X85.89 Y96.57 E0.073
G1 X85.26 E0.031
G1 X86.94 Y98.31 E0.121
G1 X87.03 Y99.03 E0.036
G1 X84.48 Y96.57 E0.177
G1 X83.82 Y96.54 E0.033
G1 X86.58 Y99.36 E0.197
G1 X85.95 E0.031
G1 X83.04 Y96.54 E0.202
G1 X82.41 E0.031
G1 X85.17 Y99.36 E0.197
G1 X84.54 E0.031
G1 X81.63 Y96.54 E0.202
G1 X81.6 Y97.14 E0.03
G1 X83.73 Y99.36 E0.153
G1 X83.1 E0.031
G1 X81.6 Y97.92 E0.104
G1 Y98.55 E0.031
G1 X82.32 Y99.36 E0.054
G1 X81.69 E0.031
G1 X81.6 Y99.27 E0.006
G1 F1995.6
G1 E-10.394
G1 F2000.0
G1 X96.6 Y86.7 F15000.0
G1 F1995.6
G1 E10.394
G1 F2000.0
G1 X96.84 Y86.94 E0.017
G1 X97.5 E0.033
G1 X96.6 Y85.98 E0.066
G1 Y85.35 E0.031
G1 X98.25 Y86.91 E0.113
G1 X98.88 E0.031
G1 X96.6 Y84.57 E0.163
G1 Y83.94 E0.031
G1 X99.42 Y86.67 E0.196
G1 Y86.04 E0.031
G1 X96.6 Y83.16 E0.201
G1 Y82.53 E0.031
G1 X99.42 Y85.26 E0.196
G1 Y84.63 E0.031
G1 X96.6 Y81.75 E0.201
G1 Y81.57 E0.009
G1 X97.05 Y81.54 E0.023
G1 X99.42 Y83.85 E0.165
G1 Y83.22 E0.031
G1 X97.83 Y81.54 E0.115
G1 X98.46 E0.031
G1 X99.42 Y82.44 E0.066
G1 Y81.81 E0.031
G1 X99.21 Y81.54 E0.017
G1 F1995.6
G1 E-10.394
G1 F2000.0
G1 X108.96 Y99.06 F15000.0
G1 F1995.6
G1 E10.394
G1 F2000.0
G1 X109.23 Y99.33 E0.019
G1 X109.89 E0.033
G1 X109.05 Y98.43 E0.061
G1 Y97.8 E0.031
G1 X110.67 Y99.33 E0.111
G1 X111.3 E0.031
G1 X108.99 Y96.96 E0.165
G1 X108.96 Y96.57 E0.02
G1 X109.2 Y96.54 E0.012
G1 X112.11 Y99.36 E0.202
G1 X112.74 E0.031
G1 X109.98 Y96.54 E0.197
G1 X110.61 E0.031
G1 X113.52 Y99.36 E0.202
G1 X114.15 E0.031
G1 X111.39 Y96.54 E0.197
G1 X112.08 Y96.57 E0.034
G1 X114.42 Y98.85 E0.163
G1 Y98.22 E0.031
G1 X112.86 Y96.57 E0.113
G1 X113.49 E0.031
G1 X114.42 Y97.44 E0.064
G1 Y96.81 E0.031
G1 X114.24 Y96.57 E0.015
G1 F1995.6
G1 E-10.394
G1 F2000.0
G1 X99.06 Y108.96 F15000.0
G1 F1995.6
G1 E10.394
G1 F2000.0
G1 X99.42 Y109.38 E0.028
G1 Y110.01 E0.031
G1 X98.28 Y108.96 E0.077
G1 X97.68 Y108.99 E0.03
G1 X99.42 Y110.79 E0.125
G1 Y111.42 E0.031
G1 X96.9 Y108.99 E0.175
G1 X96.6 Y108.96 E0.015
G1 Y109.32 E0.018
G1 X99.42 Y112.2 E0.201
G1 Y112.83 E0.031
G1 X96.6 Y110.1 E0.196
G1 Y110.73 E0.031
G1 X99.42 Y113.61 E0.201
G1 Y114.24 E0.031
G1 X96.6 Y111.51 E0.196
G1 Y112.14 E0.031
G1 X98.73 Y114.36 E0.153
G1 X98.1 E0.031
G1 X96.6 Y112.92 E0.104
G1 Y113.55 E0.031
G1 X97.32 Y114.36 E0.054
G1 X96.69 E0.031
G1 X96.6 Y114.27 E0.006
G1 F1995.6
G1 E-10.394
G1 F2000.0
;#!LAYER: 3/20
G92 E0
G1 Z0.72 F200.0
G1 X82.95 Y67.17 F15000.0
G1 X85.5 Y72.95
T0
G1 F1995.6
G1 E10.394
G1 F2000.0
G1 F99.8
G1 E0.104
G1 F2000.0
G1 X110.5 Y72.95 E1.247
G1 Y72.45 E0.025
G1 X85.5 Y72.45 E1.247
G1 Y71.95 E0.025
G1 X110.5 Y71.95 E1.247
G1 F1995.6
G1 E-10.394
G1 F2000.0
G1 X82.95 Y67.17 F15000.0
G1 F1995.6
G1 E10.394
G1 F2000.0
G1 F99.8
G1 E0.104
G1 F2000.0
G1 X82.77 Y67.32 E0.012 F1800.0
G1 Y75.57 E0.412
G1 X83.13 Y75.72 E0.019
G1 X113.07 Y75.69 E1.494
G1 X113.22 Y75.57 E0.01
G1 X113.28 Y75.21 E0.018
G1 X113.25 Y67.35 E0.392
G1 X112.89 Y67.17 E0.02
G1 X82.95 E1.494
G1 X82.86 Y66.69 E0.024
G1 X82.5 Y66.87 E0.02
G1 X82.35 Y67.02 E0.011
G1 X82.23 Y75.54 E0.425
G1 X82.38 Y75.9 E0.019
G1 X82.56 Y76.08 E0.013
G1 X83.1 Y76.23 E0.028
G1 X113.1 E1.497
G1 X113.46 Y76.05 E0.02
G1 X113.64 Y75.84 E0.014
G1 X113.76 Y75.54 E0.016
G1 Y67.35 E0.409
G1 X113.7 Y67.11 E0.012
G1 X113.43 Y66.81 E0.02
G1 X112.95 Y66.66 E0.025
G1 X82.86 Y66.69 E1.501
G1 F1995.6
G1 E-10.394
G1 F2000.0
G1 X82.95 Y67.17
G1 X115.68 Y78.15 F15000.0
G1 F1995.6
G1 E10.394
G1 F2000.0
G1 F99.8
G1 E0.104
G1 F2000.0
G1 X80.28 E1.766 F1800.0
G1 Y64.74 E0.669
G1 X115.71 E1.768
G1 X115.68 Y78.15 E0.669
G1 X115.2 Y77.64 E0.035
G1 X80.79 E1.717
G1 Y65.25 E0.618
G1 X115.2 E1.717
G1 Y77.64 E0.618
G1 F1995.6
G1 E-10.394
G1 F2000.0
G1 X115.68 Y78.15
G1 X85.2 Y65.55 F15000.0
G1 F1995.6
G1 E10.394
G1 F2000.0
G1 F99.8
G1 E0.104
G1 F2000.0
G1 X84.42 Y66.36 E0.056
G1 X86.16 E0.087
G1 X87.06 Y65.55 E0.06
G1 X88.83 E0.088
G1 X88.08 Y66.36 E0.055
G1 X89.85 E0.088
G1 X90.75 Y65.55 E0.06
G1 X92.49 E0.087
G1 X91.77 Y66.36 E0.054
G1 X93.54 E0.088
G1 X94.41 Y65.55 E0.059
G1 X96.18 E0.088
G1 X95.43 Y66.36 E0.055
G1 X97.2 E0.088
G1 X98.1 Y65.55 E0.06
G1 X99.84 E0.087
G1 X99.12 Y66.36 E0.054
G1 X100.89 E0.088
G1 X101.76 Y65.55 E0.059
G1 X103.53 E0.088
G1 X102.78 Y66.36 E0.055
G1 X104.55 E0.088
G1 X105.45 Y65.55 E0.06
G1 X107.22 E0.088
G1 X106.47 Y66.36 E0.055
G1 X108.24 E0.088
G1 X109.11 Y65.55 E0.059
G1 X110.88 E0.088
G1 X110.16 Y66.36 E0.054
G1 X111.9 E0.087
G1 X112.8 Y65.55 E0.06
G1 X114.57 E0.088
G1 X113.61 Y66.57 E0.07
G1 X114.0 Y67.05 E0.031
G1 X114.09 Y67.86 E0.041
G1 X114.9 Y67.11 E0.055
G1 Y68.88 E0.088
G1 X114.09 Y69.78 E0.06
G1 Y71.55 E0.088
G1 X114.9 Y70.8 E0.055
G1 Y72.57 E0.088
G1 X114.09 Y73.44 E0.059
G1 Y75.21 E0.088
G1 X114.9 Y74.46 E0.055
G1 Y76.23 E0.088
G1 X113.85 Y77.34 E0.076
G1 X112.11 E0.087
G1 X112.83 Y76.53 E0.054
G1 X111.06 E0.088
G1 X110.19 Y77.34 E0.059
G1 X108.42 E0.088
G1 X109.17 Y76.53 E0.055
G1 X107.4 E0.088
G1 X106.5 Y77.34 E0.06
G1 X104.73 E0.088
G1 X105.48 Y76.53 E0.055
G1 X103.71 E0.088
G1 X102.84 Y77.34 E0.059
G1 X101.07 E0.088
G1 X101.79 Y76.53 E0.054
G1 X100.05 E0.087
G1 X99.15 Y77.34 E0.06
G1 X97.38 E0.088
G1 X98.13 Y76.53 E0.055
G1 X96.36 E0.088
G1 X95.49 Y77.34 E0.059
G1 X93.72 E0.088
G1 X94.44 Y76.53 E0.054
G1 X92.67 E0.088
G1 X91.8 Y77.34 E0.059
G1 X90.03 E0.088
G1 X90.78 Y76.53 E0.055
G1 X89.01 E0.088
G1 X88.11 Y77.34 E0.06
G1 X86.37 E0.087
G1 X87.09 Y76.53 E0.054
G1 X85.32 E0.088
G1 X84.45 Y77.34 E0.059
G1 X82.68 E0.088
G1 X83.43 Y76.53 E0.055
G1 X83.19 E0.012
G1 X82.56 Y76.41 E0.032
G1 X82.14 Y76.08 E0.027
G1 X81.09 Y77.01 E0.07
G1 Y75.27 E0.087
G1 X81.9 Y74.37 E0.06
G1 Y72.6 E0.088
G1 X81.09 Y73.35 E0.055
G1 Y71.58 E0.088
G1 X81.9 Y70.68 E0.06
G1 Y68.94 E0.087
G1 X81.09 Y69.66 E0.054
G1 Y67.89 E0.088
G1 X83.37 Y65.55 E0.163
G1 X81.6 E0.088
G1 X81.09 Y66.0 E0.034
G1 F1995.6
G1 E-10.394
G1 F2000.0
G1 X89.07 Y101.7 F15000.0
G1 F1995.6
G1 E10.394
G1 F2000.0
G1 F99.8
G1 E0.104
G1 F2000.0
G1 X88.44 Y99.63 E0.108 F1800.0
G1 X88.29 Y97.71 E0.096
G1 X88.47 Y95.91 E0.09
G1 X89.07 Y94.08 E0.096
G1 X90.18 Y92.16 E0.111
G1 X91.62 Y90.63 E0.105
G1 X93.09 Y89.55 E0.091
G1 X95.19 Y88.65 E0.114
G1 X97.05 Y88.29 E0.095
G1 X99.12 E0.103
G1 X100.95 Y88.68 E0.093
G1 X102.96 Y89.61 E0.11
G1 X104.58 Y90.81 E0.101
G1 X105.69 Y92.01 E0.082
G1 X106.95 Y94.17 E0.125
G1 X107.55 Y96.12 E0.102
G1 X107.7 Y97.83 E0.086
G1 X107.46 Y100.14 E0.116
G1 X106.8 Y102.06 E0.101
G1 X105.75 Y103.8 E0.101
G1 X104.4 Y105.24 E0.098
G1 X102.96 Y106.29 E0.089
G1 X100.86 Y107.22 E0.115
G1 X98.94 Y107.61 E0.098
G1 X96.93 E0.1
G1 X95.01 Y107.19 E0.098
G1 X93.06 Y106.32 E0.107
G1 X91.5 Y105.18 E0.096
G1 X90.18 Y103.74 E0.097
G1 X89.31 Y102.24 E0.087
G1 X89.07 Y101.7 E0.029
G1 X89.55 Y101.55 E0.025
G1 X88.98 Y99.72 E0.096
G1 X88.8 Y97.74 E0.099
G1 X88.98 Y96.0 E0.087
G1 X89.55 Y94.26 E0.091
G1 X90.6 Y92.46 E0.104
G1 X91.95 Y91.02 E0.098
G1 X93.42 Y89.97 E0.09
G1 X95.28 Y89.16 E0.101
G1 X97.08 Y88.8 E0.092
G1 X99.09 Y88.83 E0.1
G1 X100.92 Y89.22 E0.093
G1 X102.78 Y90.12 E0.103
G1 X104.25 Y91.2 E0.091
G1 X105.48 Y92.61 E0.093
G1 X106.47 Y94.35 E0.1
G1 X107.04 Y96.21 E0.097
G1 X107.19 Y97.74 E0.077
G1 X107.01 Y99.87 E0.107
G1 X106.35 Y101.82 E0.103
G1 X105.18 Y103.68 E0.11
G1 X104.16 Y104.79 E0.075
G1 X102.51 Y105.96 E0.101
G1 X100.77 Y106.71 E0.095
G1 X98.94 Y107.1 E0.093
G1 X96.99 E0.097
G1 X95.25 Y106.71 E0.089
G1 X93.27 Y105.84 E0.108
G1 X91.59 Y104.52 E0.107
G1 X90.6 Y103.41 E0.074
G1 X89.55 Y101.55 E0.107
G1 F1995.6
G1 E-10.394
G1 F2000.0
G1 X89.07 Y101.7
G1 X99.18 Y106.74 F15000.0
G1 F1995.6
G1 E10.394
G1 F2000.0
G1 F99.8
G1 E0.104
G1 F2000.0
G1 X106.77 Y99.15 E0.536
G1 X106.71 Y99.72 E0.029
G1 X106.14 Y101.55 E0.096
G1 X101.82 Y105.93 E0.307
G1 X102.3 Y105.72 E0.026
G1 X103.83 Y104.67 E0.093
G1 X105.06 Y103.35 E0.09
G1 X106.11 Y101.64 E0.1
G1 F1995.6
G1 E-10.394
G1 F2000.0
G1 X106.83 Y97.23 F15000.0
G1 F1995.6
G1 E10.394
G1 F2000.0
G1 F99.8
G1 E0.104
G1 F2000.0
G1 X97.2 Y106.8 E0.677
G1 X95.76 Y106.53 E0.073
G1 X106.56 Y95.61 E0.766
G1 X106.11 Y94.29 E0.07
G1 X94.35 Y106.02 E0.829
G1 X93.33 Y105.51 E0.057
G1 X93.18 Y105.39 E0.01
G1 X105.42 Y93.09 E0.866
G1 X104.91 Y92.37 E0.044
G1 X104.67 Y92.1 E0.018
G1 X92.07 Y104.58 E0.885
G1 X91.23 Y103.68 E0.061
G1 X103.68 Y91.14 E0.882
G1 X102.66 Y90.39 E0.063
G1 X90.42 Y102.57 E0.861
G1 X89.82 Y101.4 E0.066
G1 X101.37 Y89.76 E0.818
G1 X100.59 Y89.43 E0.042
G1 X100.05 Y89.34 E0.027
G1 X89.34 Y99.96 E0.752
G1 X89.16 Y98.52 E0.072
G1 X89.13 Y98.4 E0.006
G1 X98.37 Y89.1 E0.654
G1 X96.84 Y89.13 E0.076
G1 X96.48 Y89.22 E0.019
G1 X89.25 Y96.39 E0.508
G1 X89.37 Y95.76 E0.032
G1 X89.91 Y94.26 E0.08
G1 X90.33 Y93.54 E0.042
G1 X93.66 Y90.18 E0.236
G1 F1995.6
G1 E-10.394
G1 F2000.0
G1 X85.5 Y71.45 F15000.0
T1
G1 F1995.6
G1 E10.394
G1 F2000.0
G1 F99.8
G1 E0.104
G1 F2000.0
G1 X110.5 Y71.45 E1.247
G1 Y70.95 E0.025
G1 X85.5 Y70.95 E1.247
G1 Y70.45 E0.025
G1 X110.5 Y70.45 E1.247
G1 F1995.6
G1 E-10.394
G1 F2000.0
G1 X92.73 Y89.13 F15000.0
G1 F1995.6
G1 E10.394
G1 F2000.0
G1 X91.02 Y90.42 E0.107 F1800.0
G1 X89.67 Y91.95 E0.102
G1 X88.59 Y93.87 E0.11
G1 X88.17 Y95.16 E0.068
G1 X83.28 E0.244
G1 Y83.22 E0.596
G1 X95.22 E0.596
G1 X95.19 Y88.08 E0.242
G1 X94.62 Y88.26 E0.03
G1 X92.73 Y89.13 E0.104
G1 X92.4 Y88.74 E0.025
G1 X90.69 Y90.03 E0.107
G1 X89.16 Y91.77 E0.116
G1 X88.08 Y93.78 E0.114
G1 X87.78 Y94.65 E0.046
G1 X83.79 E0.199
G1 Y83.73 E0.545
G1 X94.71 Y83.76 E0.545
G1 Y87.69 E0.196
G1 X92.4 Y88.74 E0.127
G1 F1995.6
G1 E-10.394
G1 F2000.0
G1 X92.73 Y89.13
G1 X103.14 Y89.07 F15000.0
G1 F1995.6
G1 E10.394
G1 F2000.0
G1 X101.07 Y88.14 E0.113 F1800.0
G1 X100.77 Y88.08 E0.015
G1 Y83.22 E0.242
G1 X112.71 E0.596
G1 X112.68 Y95.16 E0.596
G1 X107.82 Y95.13 E0.242
G1 X107.4 Y93.81 E0.069
G1 X106.26 Y91.86 E0.113
G1 X104.76 Y90.21 E0.111
G1 X103.14 Y89.07 E0.099
G1 X103.38 Y88.62 E0.025
G1 X101.28 Y87.66 E0.115
G1 Y83.73 E0.196
G1 X112.2 E0.545
G1 Y94.65 E0.545
G1 X108.18 Y94.59 E0.201
G1 X107.85 Y93.57 E0.053
G1 X106.65 Y91.53 E0.118
G1 X105.09 Y89.82 E0.115
G1 X103.38 Y88.62 E0.104
G1 F1995.6
G1 E-10.394
G1 F2000.0
G1 X103.14 Y89.07
G1 X104.85 Y105.6 F15000.0
G1 F1995.6
G1 E10.394
G1 F2000.0
G1 X106.2 Y104.13 E0.1 F1800.0
G1 X107.22 Y102.42 E0.099
G1 X107.85 Y100.74 E0.09
G1 X112.71 E0.242
G1 X112.68 Y112.65 E0.594
G1 X100.77 E0.594
G1 Y107.82 E0.241
G1 X101.1 Y107.76 E0.017
G1 X103.2 Y106.8 E0.115
G1 X104.85 Y105.6 E0.102
G1 X105.24 Y105.93 E0.025
G1 X106.74 Y104.25 E0.112
G1 X107.7 Y102.6 E0.095
G1 X108.21 Y101.25 E0.072
G1 X112.2 Y101.28 E0.199
G1 Y112.14 E0.542
G1 X101.28 Y112.11 E0.545
G1 Y108.24 E0.193
G1 X103.5 Y107.22 E0.122
G1 X105.24 Y105.93 E0.108
G1 F1995.6
G1 E-10.394
G1 F2000.0
G1 X104.85 Y105.6
G1 X91.23 Y105.66 F15000.0
G1 F1995.6
G1 E10.394
G1 F2000.0
G1 X92.67 Y106.71 E0.089 F1800.0
G1 X94.89 Y107.73 E0.122
G1 X95.22 Y107.82 E0.017
G1 Y112.65 E0.241
G1 X83.28 E0.596
G1 Y100.74 E0.594
G1 X88.17 E0.244
G1 X88.68 Y102.24 E0.079
G1 X90.0 Y104.34 E0.124
G1 X91.23 Y105.66 E0.09
G1 X90.9 Y106.05 E0.025
G1 X92.58 Y107.25 E0.103
G1 X94.71 Y108.24 E0.117
G1 X94.68 Y112.14 E0.195
G1 X83.79 Y112.11 E0.543
G1 Y101.25 E0.542
G1 X87.81 E0.201
G1 X88.2 Y102.45 E0.063
G1 X89.25 Y104.25 E0.104
G1 X90.9 Y106.05 E0.122
G1 F1995.6
G1 E-10.394
G1 F2000.0
G1 X91.23 Y105.66
G1 X94.41 Y111.51 F15000.0
G1 F1995.6
G1 E10.394
G1 F2000.0
G1 X94.02 Y111.84 E0.025
G1 X92.25 E0.088
G1 X94.41 Y109.59 E0.156
G1 X94.38 Y108.39 E0.06
G1 X94.02 Y108.24 E0.019
G1 X90.33 Y111.84 E0.257
G1 X88.56 E0.088
G1 X92.7 Y107.64 E0.294
G1 X92.13 Y107.31 E0.033
G1 X91.65 Y106.95 E0.03
G1 X86.67 Y111.84 E0.348
G1 X84.9 E0.088
G1 X90.54 Y106.11 E0.401
G1 X89.7 Y105.21 E0.061
G1 X84.09 Y110.73 E0.393
G1 Y108.96 E0.088
G1 X88.86 Y104.13 E0.339
G1 X88.2 Y103.02 E0.064
G1 X84.09 Y107.04 E0.287
G1 Y105.3 E0.087
G1 X87.63 Y101.67 E0.253
G1 X87.51 Y101.55 E0.008
G1 X85.98 E0.076
G1 X84.09 Y103.38 E0.131
G1 Y101.61 E0.088
G1 X84.15 Y101.55 E0.004
G1 F1995.6
G1 E-10.394
G1 F2000.0
G1 X84.09 Y85.05 F15000.0
G1 F1995.6
G1 E10.394
G1 F2000.0
G1 X85.11 Y84.03 E0.072
G1 X86.88 E0.088
G1 X84.09 Y86.91 E0.2
G1 Y88.68 E0.088
G1 X88.8 Y84.03 E0.33
G1 X90.57 E0.088
G1 X84.09 Y90.57 E0.459
G1 Y92.34 E0.088
G1 X92.49 Y84.03 E0.589
G1 X94.23 E0.087
G1 X84.09 Y94.32 E0.721
G1 X85.77 Y94.35 E0.084
G1 X94.41 Y85.77 E0.607
G1 F1995.6
G1 E-10.394
G1 F2000.0
G1 X101.58 Y84.12 F15000.0
G1 F1995.6
G1 E10.394
G1 F2000.0
G1 X101.67 Y84.03 E0.006
G1 X103.44 E0.088
G1 X101.58 Y85.95 E0.133
G1 Y87.42 E0.073
G1 X101.76 Y87.54 E0.011
G1 X105.36 Y84.03 E0.251
G1 X107.1 E0.087
G1 X103.08 Y88.14 E0.287
G1 X103.35 Y88.26 E0.015
G1 X104.19 Y88.83 E0.051
G1 X109.02 Y84.03 E0.34
G1 F1995.6
G1 E-10.394
G1 F2000.0
G1 X105.3 Y89.61 F15000.0
G1 F1995.6
G1 E10.394
G1 F2000.0
G1 X110.85 Y84.03 E0.393
G1 X111.87 E0.051
G1 X111.9 Y84.75 E0.036
G1 X106.2 Y90.57 E0.406
G1 X107.01 Y91.5 E0.062
G1 X111.9 Y86.67 E0.343
G1 Y88.44 E0.088
G1 X107.7 Y92.7 E0.298
G1 X107.76 Y92.82 E0.007
G1 X108.3 Y93.9 E0.06
G1 X111.9 Y90.36 E0.252
G1 Y92.1 E0.087
G1 X109.77 Y94.32 E0.153
G1 X111.51 Y94.35 E0.087
G1 X111.9 Y94.02 E0.025
G1 F1995.6
G1 E-10.394
G1 F2000.0
G1 X104.76 Y106.65 F15000.0
G1 F1995.6
G1 E10.394
G1 F2000.0
G1 X103.68 Y107.46 E0.067
G1 X101.61 Y108.42 E0.114
G1 X101.58 Y109.77 E0.067
G1 X104.76 Y106.65 E0.222
G1 X105.24 Y106.32 E0.029
G1 X106.56 Y104.91 E0.096
G1 X109.89 Y101.55 E0.236
G1 X111.66 E0.088
G1 X101.58 Y111.69 E0.713
G1 Y111.81 E0.006
G1 X103.2 Y111.84 E0.081
G1 X111.9 Y103.23 E0.611
G1 Y104.97 E0.087
G1 X105.12 Y111.84 E0.482
G1 X106.89 E0.088
G1 X111.9 Y106.89 E0.351
G1 Y108.66 E0.088
G1 X108.78 Y111.84 E0.222
G1 X110.55 E0.088
G1 X111.9 Y110.55 E0.093
G1 F1995.6
G1 E-10.394
G1 F2000.0
G1 X85.5 Y69.95 F15000.0
T2
G1 F1995.6
G1 E10.394
G1 F2000.0
G1 F99.8
G1 E0.104
G1 F2000.0
G1 X110.5 Y69.95 E1.247
G1 Y69.45 E0.025
G1 X85.5 Y69.45 E1.247
G1 Y68.95 E0.025
G1 X110.5 Y68.95 E1.247
G1 F1995.6
G1 E-10.394
G1 F2000.0
G1 X108.15 Y96.54 F15000.0
G1 F1995.6
G1 E10.394
G1 F2000.0
G1 X108.03 Y95.73 E0.041 F1800.0
G1 X115.23 Y95.76 E0.359
G1 Y100.17 E0.22
G1 X108.03 Y100.14 E0.359
G1 X108.24 Y98.31 E0.092
G1 X108.15 Y96.54 E0.088
G1 X108.66 Y96.51 E0.025
G1 X108.6 Y96.24 E0.014
G1 X114.72 Y96.3 E0.305
G1 X114.69 Y99.66 E0.168
G1 X108.6 Y99.63 E0.304
G1 X108.75 Y98.37 E0.063
G1 X108.66 Y96.51 E0.093
G1 F1995.6
G1 E-10.394
G1 F2000.0
G1 X108.15 Y96.54
G1 X98.97 Y87.72 F15000.0
G1 F1995.6
G1 E10.394
G1 F2000.0
G1 X96.63 Y87.78 E0.117 F1800.0
G1 X95.79 Y87.9 E0.042
G1 Y80.73 E0.358
G1 X100.23 E0.222
G1 Y87.96 E0.361
G1 X98.97 Y87.72 E0.064
G1 X99.03 Y87.21 E0.026
G1 X96.78 Y87.24 E0.112
G1 X96.3 Y87.3 E0.024
G1 Y81.24 E0.302
G1 X99.72 Y81.27 E0.171
G1 Y87.33 E0.302
G1 X99.03 Y87.21 E0.035
G1 F1995.6
G1 E-10.394
G1 F2000.0
G1 X98.97 Y87.72
G1 X87.75 Y97.8 F15000.0
G1 F1995.6
G1 E10.394
G1 F2000.0
G1 X87.96 Y100.17 E0.119 F1800.0
G1 X80.79 E0.358
G1 Y95.73 E0.222
G1 X87.96 Y95.76 E0.358
G1 X87.75 Y97.8 E0.102
G1 X87.24 Y97.74 E0.026
G1 X87.39 Y99.66 E0.096
G1 X81.3 Y99.63 E0.304
G1 Y96.24 E0.169
G1 X87.39 Y96.27 E0.304
G1 X87.24 Y97.74 E0.074
G1 F1995.6
G1 E-10.394
G1 F2000.0
G1 X87.75 Y97.8
G1 X97.02 Y108.18 F15000.0
G1 F1995.6
G1 E10.394
G1 F2000.0
G1 X99.39 Y108.09 E0.118 F1800.0
G1 X100.23 Y107.97 E0.042
G1 X100.2 Y115.17 E0.359
G1 X95.79 E0.22
G1 Y107.94 E0.361
G1 X97.02 Y108.18 E0.063
G1 X96.96 Y108.69 E0.026
G1 X99.27 Y108.63 E0.115
G1 X99.72 Y108.6 E0.023
G1 Y114.66 E0.302
G1 X96.3 Y114.63 E0.171
G1 Y108.57 E0.302
G1 X96.96 Y108.69 E0.033
G1 F1995.6
G1 E-10.394
G1 F2000.0
G1 X97.02 Y108.18
G1 X96.6 Y109.32 F15000.0
G1 F1995.6
G1 E10.394
G1 F2000.0
G1 X96.93 Y108.99 E0.023
G1 X98.73 Y108.96 E0.09
G1 X96.6 Y111.15 E0.152
G1 Y112.92 E0.088
G1 X99.42 Y110.19 E0.196
G1 Y111.93 E0.087
G1 X97.08 Y114.36 E0.168
G1 X98.85 E0.088
G1 X99.42 Y113.85 E0.038
G1 F1995.6
G1 E-10.394
G1 F2000.0
G1 X108.99 Y96.93 F15000.0
G1 F1995.6
G1 E10.394
G1 F2000.0
G1 X109.38 Y96.54 E0.028
G1 X111.15 E0.088
G1 X109.02 Y98.73 E0.152
G1 X108.93 Y99.3 E0.029
G1 X110.19 Y99.33 E0.063
G1 X113.04 Y96.57 E0.198
G1 X114.39 E0.067
G1 X114.42 Y96.93 E0.018
G1 X112.08 Y99.36 E0.168
G1 X113.85 E0.088
G1 X114.42 Y98.85 E0.038
G1 F1995.6
G1 E-10.394
G1 F2000.0
G1 X99.42 Y86.28 F15000.0
G1 F1995.6
G1 E10.394
G1 F2000.0
G1 X98.73 Y86.91 E0.047
G1 X96.93 Y86.94 E0.09
G1 X99.42 Y84.36 E0.179
G1 Y82.59 E0.088
G1 X96.6 Y85.35 E0.197
G1 Y83.58 E0.088
G1 X98.58 Y81.54 E0.142
G1 X96.81 E0.088
G1 X96.6 Y81.72 E0.014
G1 F1995.6
G1 E-10.394
G1 F2000.0
G1 X87.0 Y98.7 F15000.0
G1 F1995.6
G1 E10.394
G1 F2000.0
G1 X86.28 Y99.36 E0.049
G1 X84.51 E0.088
G1 X87.03 Y96.75 E0.181
G1 Y96.57 E0.009
G1 X85.44 E0.079
G1 X82.59 Y99.36 E0.199
G1 X81.6 Y99.33 E0.049
G1 Y98.58 E0.037
G1 X83.58 Y96.54 E0.142
G1 X81.81 E0.088
G1 X81.6 Y96.72 E0.014
G1 F1995.6
G1 E-10.394
G1 F2000.0
;#!LAYER: 4/20
G92 E0
G1 Z0.96 F200.0
G1 X82.95 Y67.17 F15000.0
G1 X85.5 Y72.95
T0
G1 F1995.6
G1 E10.394
G1 F2000.0
G1 F99.8
G1 E0.104
G1 F2000.0
G1 X110.5 Y72.95 E1.247
G1 Y72.45 E0.025
G1 X85.5 Y72.45 E1.247
G1 Y71.95 E0.025
G1 X110.5 Y71.95 E1.247
G1 F1995.6
G1 E-10.394
G1 F2000.0
G1 X82.95 Y67.17 F15000.0
G1 F1995.6
G1 E10.394
G1 F2000.0
G1 F99.8
G1 E0.104
G1 F2000.0
G1 X82.77 Y67.32 E0.012 F1800.0
G1 Y75.57 E0.412
G1 X83.13 Y75.72 E0.019
G1 X113.07 Y75.69 E1.494
G1 X113.22 Y75.57 E0.01
G1 X113.28 Y75.21 E0.018
G1 X113.25 Y67.35 E0.392
G1 X112.89 Y67.17 E0.02
G1 X82.95 E1.494
G1 X82.86 Y66.69 E0.024
G1 X82.5 Y66.87 E0.02
G1 X82.35 Y67.02 E0.011
G1 X82.23 Y75.54 E0.425
G1 X82.38 Y75.9 E0.019
G1 X82.56 Y76.08 E0.013
G1 X83.1 Y76.23 E0.028
G1 X113.1 E1.497
G1 X113.46 Y76.05 E0.02
G1 X113.64 Y75.84 E0.014
G1 X113.76 Y75.54 E0.016
G1 Y67.35 E0.409
G1 X113.7 Y67.11 E0.012
G1 X113.43 Y66.81 E0.02
G1 X112.95 Y66.66 E0.025
G1 X82.86 Y66.69 E1.501
G1 F1995.6
G1 E-10.394
G1 F2000.0
G1 X82.95 Y67.17
G1 X115.68 Y78.15 F15000.0
G1 F1995.6
G1 E10.394
G1 F2000.0
G1 F99.8
G1 E0.104
G1 F2000.0
G1 X80.28 E1.766 F1800.0
G1 Y64.74 E0.669
G1 X115.71 E1.768
G1 X115.68 Y78.15 E0.669
G1 X115.2 Y77.64 E0.035
G1 X80.79 E1.717
G1 Y65.25 E0.618
G1 X115.2 E1.717
G1 Y77.64 E0.618
G1 F1995.6
G1 E-10.394
G1 F2000.0
G1 X115.68 Y78.15
G1 X113.31 Y66.42 F15000.0
G1 F1995.6
G1 E10.394
G1 F2000.0
G1 F99.8
G1 E0.104
G1 F2000.0
G1 X112.44 Y65.55 E0.061
G1 X114.21 E0.088
G1 X114.9 Y66.18 E0.047
G1 Y67.95 E0.088
G1 X114.03 Y67.14 E0.059
G1 X114.06 Y67.23 E0.005
G1 X114.09 Y68.97 E0.087
G1 X114.9 Y69.87 E0.06
G1 Y71.61 E0.087
G1 X114.09 Y70.89 E0.054
G1 Y72.66 E0.088
G1 X114.9 Y73.53 E0.059
G1 Y75.3 E0.088
G1 X114.09 Y74.55 E0.055
G1 X114.03 Y75.63 E0.054
G1 X113.85 Y76.08 E0.024
G1 X114.9 Y77.22 E0.077
G1 Y77.31 E0.004
G1 X113.28 Y77.34 E0.081
G1 X112.38 Y76.53 E0.06
G1 X110.61 E0.088
G1 X111.36 Y77.34 E0.055
G1 X109.59 E0.088
G1 X108.69 Y76.53 E0.06
G1 X106.95 E0.087
G1 X107.67 Y77.34 E0.054
G1 X105.9 E0.088
G1 X105.03 Y76.53 E0.059
G1 X103.26 E0.088
G1 X104.01 Y77.34 E0.055
G1 X102.24 E0.088
G1 X101.34 Y76.53 E0.06
G1 X99.6 E0.087
G1 X100.32 Y77.34 E0.054
G1 X98.55 E0.088
G1 X97.68 Y76.53 E0.059
G1 X95.91 E0.088
G1 X96.63 Y77.34 E0.054
G1 X94.89 E0.087
G1 X93.99 Y76.53 E0.06
G1 X92.22 E0.088
G1 X92.97 Y77.34 E0.055
G1 X91.2 E0.088
G1 X90.33 Y76.53 E0.059
G1 X88.56 E0.088
G1 X89.28 Y77.34 E0.054
G1 X87.54 E0.087
G1 X86.64 Y76.53 E0.06
G1 X84.87 E0.088
G1 X85.62 Y77.34 E0.055
G1 X83.85 E0.088
G1 X82.92 Y76.5 E0.063
G1 X82.56 Y76.41 E0.019
G1 X82.08 Y76.02 E0.031
G1 X81.93 Y75.57 E0.024
G1 X81.09 Y74.67 E0.061
G1 Y76.41 E0.087
G1 X81.93 Y77.34 E0.063
G1 F1995.6
G1 E-10.394
G1 F2000.0
G1 X81.9 Y73.62 F15000.0
G1 F1995.6
G1 E10.394
G1 F2000.0
G1 F99.8
G1 E0.104
G1 F2000.0
G1 X81.09 Y72.81 E0.057
G1 Y71.04 E0.088
G1 X81.9 Y71.76 E0.054
G1 Y70.02 E0.087
G1 X81.09 Y69.12 E0.06
G1 Y67.32 E0.09
G1 X81.9 Y68.04 E0.054
G1 X81.99 Y67.08 E0.048
G1 X82.26 Y66.69 E0.024
G1 X81.18 Y65.55 E0.078
G1 X82.95 E0.088
G1 X83.85 Y66.36 E0.06
G1 X85.59 E0.087
G1 X84.87 Y65.55 E0.054
G1 X86.64 E0.088
G1 X87.51 Y66.36 E0.059
G1 X89.28 E0.088
G1 X88.56 Y65.55 E0.054
G1 X90.3 E0.087
G1 X91.2 Y66.36 E0.06
G1 X92.97 E0.088
G1 X92.22 Y65.55 E0.055
G1 X93.99 E0.088
G1 X94.86 Y66.36 E0.059
G1 X96.63 E0.088
G1 X95.91 Y65.55 E0.054
G1 X97.65 E0.087
G1 X98.55 Y66.36 E0.06
G1 X100.32 E0.088
G1 X99.57 Y65.55 E0.055
G1 X101.34 E0.088
G1 X102.24 Y66.36 E0.06
G1 X103.98 E0.087
G1 X103.26 Y65.55 E0.054
G1 X105.03 E0.088
G1 X105.9 Y66.36 E0.059
G1 X107.67 E0.088
G1 X106.92 Y65.55 E0.055
G1 X108.69 E0.088
G1 X109.59 Y66.36 E0.06
G1 X111.33 E0.087
G1 X110.58 Y65.55 E0.055
G1 F1995.6
G1 E-10.394
G1 F2000.0
G1 X89.07 Y101.7 F15000.0
G1 F1995.6
G1 E10.394
G1 F2000.0
G1 F99.8
G1 E0.104
G1 F2000.0
G1 X88.44 Y99.63 E0.108 F1800.0
G1 X88.29 Y97.71 E0.096
G1 X88.47 Y95.91 E0.09
G1 X89.07 Y94.08 E0.096
G1 X90.18 Y92.16 E0.111
G1 X91.62 Y90.63 E0.105
G1 X93.09 Y89.55 E0.091
G1 X95.19 Y88.65 E0.114
G1 X97.05 Y88.29 E0.095
G1 X99.12 E0.103
G1 X100.95 Y88.68 E0.093
G1 X102.96 Y89.61 E0.11
G1 X104.58 Y90.81 E0.101
G1 X105.69 Y92.01 E0.082
G1 X106.95 Y94.17 E0.125
G1 X107.55 Y96.12 E0.102
G1 X107.7 Y97.83 E0.086
G1 X107.46 Y100.14 E0.116
G1 X106.8 Y102.06 E0.101
G1 X105.75 Y103.8 E0.101
G1 X104.4 Y105.24 E0.098
G1 X102.96 Y106.29 E0.089
G1 X100.86 Y107.22 E0.115
G1 X98.94 Y107.61 E0.098
G1 X96.93 E0.1
G1 X95.01 Y107.19 E0.098
G1 X93.06 Y106.32 E0.107
G1 X91.5 Y105.18 E0.096
G1 X90.18 Y103.74 E0.097
G1 X89.31 Y102.24 E0.087
G1 X89.07 Y101.7 E0.029
G1 X89.55 Y101.55 E0.025
G1 X88.98 Y99.72 E0.096
G1 X88.8 Y97.74 E0.099
G1 X88.98 Y96.0 E0.087
G1 X89.55 Y94.26 E0.091
G1 X90.6 Y92.46 E0.104
G1 X91.95 Y91.02 E0.098
G1 X93.42 Y89.97 E0.09
G1 X95.28 Y89.16 E0.101
G1 X97.08 Y88.8 E0.092
G1 X99.09 Y88.83 E0.1
G1 X100.92 Y89.22 E0.093
G1 X102.78 Y90.12 E0.103
G1 X104.25 Y91.2 E0.091
G1 X105.48 Y92.61 E0.093
G1 X106.47 Y94.35 E0.1
G1 X107.04 Y96.21 E0.097
G1 X107.19 Y97.74 E0.077
G1 X107.01 Y99.87 E0.107
G1 X106.35 Y101.82 E0.103
G1 X105.18 Y103.68 E0.11
G1 X104.16 Y104.79 E0.075
G1 X102.51 Y105.96 E0.101
G1 X100.77 Y106.71 E0.095
G1 X98.94 Y107.1 E0.093
G1 X96.99 E0.097
G1 X95.25 Y106.71 E0.089
G1 X93.27 Y105.84 E0.108
G1 X91.59 Y104.52 E0.107
G1 X90.6 Y103.41 E0.074
G1 X89.55 Y101.55 E0.107
G1 F1995.6
G1 E-10.394
G1 F2000.0
G1 X89.07 Y101.7
G1 X89.16 Y97.44 F15000.0
G1 F1995.6
G1 E10.394
G1 F2000.0
G1 F99.8
G1 E0.104
G1 F2000.0
G1 X98.46 Y106.8 E0.658
G1 X96.9 Y106.77 E0.078
G1 X96.57 Y106.68 E0.017
G1 X89.25 Y99.42 E0.514
G1 X89.37 Y100.05 E0.032
G1 X89.94 Y101.7 E0.087
G1 X90.21 Y102.15 E0.026
G1 X93.87 Y105.81 E0.258
G1 F1995.6
G1 E-10.394
G1 F2000.0
G1 X89.37 Y95.79 F15000.0
G1 F1995.6
G1 E10.394
G1 F2000.0
G1 F99.8
G1 E0.104
G1 F2000.0
G1 X100.11 Y106.53 E0.758
G1 X100.56 Y106.44 E0.023
G1 X101.46 Y106.08 E0.048
G1 X89.82 Y94.41 E0.822
G1 X90.48 Y93.27 E0.066
G1 X102.72 Y105.45 E0.861
G1 X103.74 Y104.73 E0.062
G1 X91.26 Y92.19 E0.883
G1 F1995.6
G1 E-10.394
G1 F2000.0
G1 X92.16 Y91.23 F15000.0
G1 F1995.6
G1 E10.394
G1 F2000.0
G1 F99.8
G1 E0.104
G1 F2000.0
G1 X104.7 Y103.74 E0.884
G1 X105.03 Y103.38 E0.024
G1 X105.45 Y102.75 E0.038
G1 X93.24 Y90.48 E0.864
G1 X93.42 Y90.33 E0.012
G1 X94.41 Y89.85 E0.055
G1 X106.14 Y101.55 E0.827
G1 F1995.6
G1 E-10.394
G1 F2000.0
G1 X106.59 Y100.17 F15000.0
G1 F1995.6
G1 E10.394
G1 F2000.0
G1 F99.8
G1 E0.104
G1 F2000.0
G1 X95.79 Y89.34 E0.763
G1 X96.54 Y89.19 E0.038
G1 X97.32 Y89.1 E0.039
G1 X106.83 Y98.55 E0.669
G1 X106.89 Y98.16 E0.02
G1 X106.8 Y96.75 E0.07
G1 X99.27 Y89.16 E0.533
G1 X100.59 Y89.43 E0.067
G1 X101.85 Y89.97 E0.068
G1 X105.93 Y93.99 E0.286
G1 F1995.6
G1 E-10.394
G1 F2000.0
G1 X85.5 Y71.45 F15000.0
T1
G1 F1995.6
G1 E10.394
G1 F2000.0
G1 F99.8
G1 E0.104
G1 F2000.0
G1 X110.5 Y71.45 E1.247
G1 Y70.95 E0.025
G1 X85.5 Y70.95 E1.247
G1 Y70.45 E0.025
G1 X110.5 Y70.45 E1.247
G1 F1995.6
G1 E-10.394
G1 F2000.0
G1 X103.14 Y89.07 F15000.0
G1 F1995.6
G1 E10.394
G1 F2000.0
G1 X101.07 Y88.14 E0.113 F1800.0
G1 X100.77 Y88.08 E0.015
G1 Y83.22 E0.242
G1 X112.71 E0.596
G1 X112.68 Y95.16 E0.596
G1 X107.82 Y95.13 E0.242
G1 X107.4 Y93.81 E0.069
G1 X106.26 Y91.86 E0.113
G1 X104.76 Y90.21 E0.111
G1 X103.14 Y89.07 E0.099
G1 X103.38 Y88.62 E0.025
G1 X101.28 Y87.66 E0.115
G1 Y83.73 E0.196
G1 X112.2 E0.545
G1 Y94.65 E0.545
G1 X108.18 Y94.59 E0.201
G1 X107.85 Y93.57 E0.053
G1 X106.65 Y91.53 E0.118
G1 X105.09 Y89.82 E0.115
G1 X103.38 Y88.62 E0.104
G1 F1995.6
G1 E-10.394
G1 F2000.0
G1 X103.14 Y89.07
G1 X92.73 Y89.13 F15000.0
G1 F1995.6
G1 E10.394
G1 F2000.0
G1 X91.02 Y90.42 E0.107 F1800.0
G1 X89.67 Y91.95 E0.102
G1 X88.59 Y93.87 E0.11
G1 X88.17 Y95.16 E0.068
G1 X83.28 E0.244
G1 Y83.22 E0.596
G1 X95.22 E0.596
G1 X95.19 Y88.08 E0.242
G1 X94.62 Y88.26 E0.03
G1 X92.73 Y89.13 E0.104
G1 X92.4 Y88.74 E0.025
G1 X90.69 Y90.03 E0.107
G1 X89.16 Y91.77 E0.116
G1 X88.08 Y93.78 E0.114
G1 X87.78 Y94.65 E0.046
G1 X83.79 E0.199
G1 Y83.73 E0.545
G1 X94.71 Y83.76 E0.545
G1 Y87.69 E0.196
G1 X92.4 Y88.74 E0.127
G1 F1995.6
G1 E-10.394
G1 F2000.0
G1 X92.73 Y89.13
G1 X91.23 Y105.66 F15000.0
G1 F1995.6
G1 E10.394
G1 F2000.0
G1 X92.67 Y106.71 E0.089 F1800.0
G1 X94.89 Y107.73 E0.122
G1 X95.22 Y107.82 E0.017
G1 Y112.65 E0.241
G1 X83.28 E0.596
G1 Y100.74 E0.594
G1 X88.17 E0.244
G1 X88.68 Y102.24 E0.079
G1 X90.0 Y104.34 E0.124
G1 X91.23 Y105.66 E0.09
G1 X90.9 Y106.05 E0.025
G1 X92.58 Y107.25 E0.103
G1 X94.71 Y108.24 E0.117
G1 X94.68 Y112.14 E0.195
G1 X83.79 Y112.11 E0.543
G1 Y101.25 E0.542
G1 X87.81 E0.201
G1 X88.2 Y102.45 E0.063
G1 X89.25 Y104.25 E0.104
G1 X90.9 Y106.05 E0.122
G1 F1995.6
G1 E-10.394
G1 F2000.0
G1 X91.23 Y105.66
G1 X104.85 Y105.6 F15000.0
G1 F1995.6
G1 E10.394
G1 F2000.0
G1 X106.2 Y104.13 E0.1 F1800.0
G1 X107.22 Y102.42 E0.099
G1 X107.85 Y100.74 E0.09
G1 X112.71 E0.242
G1 X112.68 Y112.65 E0.594
G1 X100.77 E0.594
G1 Y107.82 E0.241
G1 X101.1 Y107.76 E0.017
G1 X103.2 Y106.8 E0.115
G1 X104.85 Y105.6 E0.102
G1 X105.24 Y105.93 E0.025
G1 X106.74 Y104.25 E0.112
G1 X107.7 Y102.6 E0.095
G1 X108.21 Y101.25 E0.072
G1 X112.2 Y101.28 E0.199
G1 Y112.14 E0.542
G1 X101.28 Y112.11 E0.545
G1 Y108.24 E0.193
G1 X103.5 Y107.22 E0.122
G1 X105.24 Y105.93 E0.108
G1 F1995.6
G1 E-10.394
G1 F2000.0
G1 X104.85 Y105.6
G1 X107.07 Y104.31 F15000.0
G1 F1995.6
G1 E10.394
G1 F2000.0
G1 X111.9 Y109.2 E0.343
G1 Y110.97 E0.088
G1 X106.2 Y105.33 E0.4
G1 X105.33 Y106.23 E0.062
G1 X110.85 Y111.84 E0.393
G1 X109.11 E0.087
G1 X104.25 Y107.04 E0.341
G1 X103.41 Y107.61 E0.051
G1 X103.14 Y107.73 E0.015
G1 X107.19 Y111.84 E0.288
G1 X105.42 E0.088
G1 X101.85 Y108.33 E0.25
G1 X101.58 Y108.48 E0.015
G1 Y109.83 E0.067
G1 X103.5 Y111.84 E0.139
G1 X101.73 E0.088
G1 X101.58 Y111.69 E0.011
G1 F1995.6
G1 E-10.394
G1 F2000.0
G1 X107.73 Y103.14 F15000.0
G1 F1995.6
G1 E10.394
G1 F2000.0
G1 X111.9 Y107.28 E0.293
G1 Y105.54 E0.087
G1 X108.33 Y101.88 E0.255
G1 X108.42 Y101.58 E0.016
G1 X109.77 Y101.55 E0.067
G1 X111.9 Y103.62 E0.148
G1 Y101.85 E0.088
G1 X111.66 Y101.55 E0.019
G1 F1995.6
G1 E-10.394
G1 F2000.0
G1 X106.83 Y91.26 F15000.0
G1 F1995.6
G1 E10.394
G1 F2000.0
G1 X108.09 Y93.39 E0.123
G1 X108.42 Y94.29 E0.048
G1 X109.89 Y94.32 E0.073
G1 X106.02 Y90.39 E0.275
G1 F1995.6
G1 E-10.394
G1 F2000.0
G1 X105.06 Y89.43 F15000.0
G1 F1995.6
G1 E10.394
G1 F2000.0
G1 X101.58 Y85.95 E0.246
G1 Y84.18 E0.088
G1 X111.87 Y94.35 E0.722
G1 X111.9 Y92.67 E0.084
G1 X103.35 Y84.03 E0.606
G1 X105.12 E0.088
G1 X111.9 Y90.75 E0.476
G1 Y88.98 E0.088
G1 X107.04 Y84.03 E0.346
G1 X108.78 E0.087
G1 X111.9 Y87.06 E0.217
G1 Y85.29 E0.088
G1 X110.7 Y84.03 E0.087
G1 F1995.6
G1 E-10.394
G1 F2000.0
G1 X94.14 F15000.0
G1 F1995.6
G1 E10.394
G1 F2000.0
G1 X94.41 Y84.36 E0.021
G1 Y86.13 E0.088
G1 X92.25 Y84.03 E0.15
G1 X90.48 E0.088
G1 X94.02 Y87.66 E0.253
G1 X92.82 Y88.17 E0.065
G1 X88.56 Y84.03 E0.296
G1 X86.79 E0.088
G1 X91.68 Y88.92 E0.345
G1 F1995.6
G1 E-10.394
G1 F2000.0
G1 X88.89 Y91.65 F15000.0
G1 F1995.6
G1 E10.394
G1 F2000.0
G1 X84.09 Y86.82 E0.34
G1 Y85.08 E0.087
G1 X89.76 Y90.63 E0.396
G1 X90.6 Y89.7 E0.063
G1 X84.96 Y84.03 E0.399
G1 F1995.6
G1 E-10.394
G1 F2000.0
G1 X88.2 Y92.79 F15000.0
G1 F1995.6
G1 E10.394
G1 F2000.0
G1 X84.09 Y88.74 E0.288
G1 Y90.51 E0.088
G1 X87.66 Y94.11 E0.253
G1 X87.54 Y94.35 E0.013
G1 X86.1 E0.072
G1 X84.09 Y92.43 E0.139
G1 Y94.2 E0.088
G1 X84.24 Y94.35 E0.011
G1 F1995.6
G1 E-10.394
G1 F2000.0
G1 X85.92 Y101.55 F15000.0
G1 F1995.6
G1 E10.394
G1 F2000.0
G1 X94.41 Y110.1 E0.601
G1 X94.38 Y111.84 E0.087
G1 X84.09 Y101.61 E0.724
G1 Y103.38 E0.088
G1 X92.49 Y111.84 E0.595
G1 X90.72 E0.088
G1 X84.09 Y105.3 E0.465
G1 Y107.07 E0.088
G1 X88.8 Y111.84 E0.334
G1 X87.03 E0.088
G1 X84.09 Y108.96 E0.205
G1 Y110.73 E0.088
G1 X85.17 Y111.84 E0.077
G1 F1995.6
G1 E-10.394
G1 F2000.0
G1 X85.5 Y69.95 F15000.0
T2
G1 F1995.6
G1 E10.394
G1 F2000.0
G1 F99.8
G1 E0.104
G1 F2000.0
G1 X110.5 Y69.95 E1.247
G1 Y69.45 E0.025
G1 X85.5 Y69.45 E1.247
G1 Y68.95 E0.025
G1 X110.5 Y68.95 E1.247
G1 F1995.6
G1 E-10.394
G1 F2000.0
G1 X97.02 Y108.18 F15000.0
G1 F1995.6
G1 E10.394
G1 F2000.0
G1 X99.39 Y108.09 E0.118 F1800.0
G1 X100.23 Y107.97 E0.042
G1 X100.2 Y115.17 E0.359
G1 X95.79 E0.22
G1 Y107.94 E0.361
G1 X97.02 Y108.18 E0.063
G1 X96.96 Y108.69 E0.026
G1 X99.27 Y108.63 E0.115
G1 X99.72 Y108.6 E0.023
G1 Y114.66 E0.302
G1 X96.3 Y114.63 E0.171
G1 Y108.57 E0.302
G1 X96.96 Y108.69 E0.033
G1 F1995.6
G1 E-10.394
G1 F2000.0
G1 X97.02 Y108.18
G1 X87.75 Y97.8 F15000.0
G1 F1995.6
G1 E10.394
G1 F2000.0
G1 X87.96 Y100.17 E0.119 F1800.0
G1 X80.79 E0.358
G1 Y95.73 E0.222
G1 X87.96 Y95.76 E0.358
G1 X87.75 Y97.8 E0.102
G1 X87.24 Y97.74 E0.026
G1 X87.39 Y99.66 E0.096
G1 X81.3 Y99.63 E0.304
G1 Y96.24 E0.169
G1 X87.39 Y96.27 E0.304
G1 X87.24 Y97.74 E0.074
G1 F1995.6
G1 E-10.394
G1 F2000.0
G1 X87.75 Y97.8
G1 X98.97 Y87.72 F15000.0
G1 F1995.6
G1 E10.394
G1 F2000.0
G1 X96.63 Y87.78 E0.117 F1800.0
G1 X95.79 Y87.9 E0.042
G1 Y80.73 E0.358
G1 X100.23 E0.222
G1 Y87.96 E0.361
G1 X98.97 Y87.72 E0.064
G1 X99.03 Y87.21 E0.026
G1 X96.78 Y87.24 E0.112
G1 X96.3 Y87.3 E0.024
G1 Y81.24 E0.302
G1 X99.72 Y81.27 E0.171
G1 Y87.33 E0.302
G1 X99.03 Y87.21 E0.035
G1 F1995.6
G1 E-10.394
G1 F2000.0
G1 X98.97 Y87.72
G1 X108.15 Y96.54 F15000.0
G1 F1995.6
G1 E10.394
G1 F2000.0
G1 X108.03 Y95.73 E0.041 F1800.0
G1 X115.23 Y95.76 E0.359
G1 Y100.17 E0.22
G1 X108.03 Y100.14 E0.359
G1 X108.24 Y98.31 E0.092
G1 X108.15 Y96.54 E0.088
G1 X108.66 Y96.51 E0.025
G1 X108.6 Y96.24 E0.014
G1 X114.72 Y96.3 E0.305
G1 X114.69 Y99.66 E0.168
G1 X108.6 Y99.63 E0.304
G1 X108.75 Y98.37 E0.063
G1 X108.66 Y96.51 E0.093
G1 F1995.6
G1 E-10.394
G1 F2000.0
G1 X108.15 Y96.54
G1 X108.99 Y97.05 F15000.0
G1 F1995.6
G1 E10.394
G1 F2000.0
G1 X111.3 Y99.33 E0.162
G1 X113.1 Y99.36 E0.09
G1 X110.34 Y96.54 E0.197
G1 X112.14 Y96.57 E0.09
G1 X114.42 Y98.79 E0.159
G1 Y97.02 E0.088
G1 X114.03 Y96.57 E0.03
G1 F1995.6
G1 E-10.394
G1 F2000.0
G1 X97.05 Y86.94 F15000.0
G1 F1995.6
G1 E10.394
G1 F2000.0
G1 X96.6 Y86.46 E0.033
G1 Y84.72 E0.087
G1 X98.88 Y86.91 E0.158
G1 X99.39 Y86.97 E0.026
G1 X99.42 Y85.68 E0.064
G1 X96.6 Y82.8 E0.201
G1 Y81.57 E0.061
G1 X97.11 Y81.54 E0.025
G1 X99.42 Y83.79 E0.161
G1 Y82.02 E0.088
G1 X99.0 Y81.54 E0.032
G1 F1995.6
G1 E-10.394
G1 F2000.0
G1 X86.46 Y96.57 F15000.0
G1 F1995.6
G1 E10.394
G1 F2000.0
G1 X87.0 Y97.17 E0.04
G1 X86.94 Y98.19 E0.051
G1 X87.0 Y98.94 E0.038
G1 X84.57 Y96.57 E0.169
G1 X82.77 Y96.54 E0.09
G1 X85.5 Y99.36 E0.196
G1 X83.76 E0.087
G1 X81.6 Y97.29 E0.149
G1 Y99.06 E0.088
G1 X81.9 Y99.36 E0.021
G1 F1995.6
G1 E-10.394
G1 F2000.0
G1 X98.85 Y108.96 F15000.0
G1 F1995.6
G1 E10.394
G1 F2000.0
G1 X99.42 Y109.59 E0.042
G1 Y111.36 E0.088
G1 X96.99 Y108.99 E0.169
G1 X96.6 Y108.96 E0.02
G1 Y110.37 E0.07
G1 X99.42 Y113.28 E0.202
G1 X99.39 Y114.36 E0.054
G1 X98.76 E0.031
G1 X96.6 Y112.29 E0.149
G1 Y114.06 E0.088
G1 X96.9 Y114.36 E0.021
G1 F1995.6
G1 E-10.394
G1 F2000.0
;#!LAYER: 5/20
G92 E0
G1 Z1.2 F200.0
G1 X82.95 Y67.17 F15000.0
G1 X85.5 Y72.95
T0
G1 F1995.6
G1 E10.394
G1 F2000.0
G1 F99.8
G1 E0.104
G1 F2000.0
G1 X110.5 Y72.95 E1.247
G1 Y72.45 E0.025
G1 X85.5 Y72.45 E1.247
G1 Y71.95 E0.025
G1 X110.5 Y71.95 E1.247
G1 F1995.6
G1 E-10.394
G1 F2000.0
G1 X82.95 Y67.17 F15000.0
G1 F1995.6
G1 E10.394
G1 F2000.0
G1 F99.8
G1 E0.104
G1 F2000.0
G1 X82.77 Y67.32 E0.012 F1800.0
G1 Y75.57 E0.412
G1 X83.13 Y75.72 E0.019
G1 X113.07 Y75.69 E1.494
G1 X113.22 Y75.57 E0.01
G1 X113.28 Y75.21 E0.018
G1 X113.25 Y67.35 E0.392
G1 X112.89 Y67.17 E0.02
G1 X82.95 E1.494
G1 X82.86 Y66.69 E0.024
G1 X82.5 Y66.87 E0.02
G1 X82.35 Y67.02 E0.011
G1 X82.23 Y75.54 E0.425
G1 X82.38 Y75.9 E0.019
G1 X82.56 Y76.08 E0.013
G1 X83.1 Y76.23 E0.028
G1 X113.1 E1.497
G1 X113.46 Y76.05 E0.02
G1 X113.64 Y75.84 E0.014
G1 X113.76 Y75.54 E0.016
G1 Y67.35 E0.409
G1 X113.7 Y67.11 E0.012
G1 X113.43 Y66.81 E0.02
G1 X112.95 Y66.66 E0.025
G1 X82.86 Y66.69 E1.501
G1 F1995.6
G1 E-10.394
G1 F2000.0
G1 X82.95 Y67.17
G1 X115.68 Y78.15 F15000.0
G1 F1995.6
G1 E10.394
G1 F2000.0
G1 F99.8
G1 E0.104
G1 F2000.0
G1 X80.28 E1.766 F1800.0
G1 Y64.74 E0.669
G1 X115.71 E1.768
G1 X115.68 Y78.15 E0.669
G1 X115.2 Y77.64 E0.035
G1 X80.79 E1.717
G1 Y65.25 E0.618
G1 X115.2 E1.717
G1 Y77.64 E0.618
G1 F1995.6
G1 E-10.394
G1 F2000.0
G1 X115.68 Y78.15
G1 X114.9 Y77.22 F15000.0
G1 F1995.6
G1 E10.394
G1 F2000.0
G1 F99.8
G1 E0.104
G1 F2000.0
G1 X114.69 Y77.34 E0.012
G1 X112.95 E0.087
G1 X114.9 Y75.33 E0.14
G1 Y73.56 E0.088
G1 X114.09 Y74.28 E0.054
G1 Y72.54 E0.087
G1 X114.9 Y71.64 E0.06
G1 Y69.87 E0.088
G1 X114.09 Y70.62 E0.055
G1 Y68.85 E0.088
G1 X114.9 Y67.98 E0.059
G1 Y66.21 E0.088
G1 X114.0 Y67.05 E0.061
G1 X113.61 Y66.57 E0.031
G1 X113.01 Y66.36 E0.032
G1 X112.92 E0.004
G1 X113.64 Y65.55 E0.054
G1 X111.87 E0.088
G1 X111.0 Y66.36 E0.059
G1 X109.23 E0.088
G1 X109.95 Y65.55 E0.054
G1 X108.21 E0.087
G1 X107.31 Y66.36 E0.06
G1 X105.54 E0.088
G1 X106.29 Y65.55 E0.055
G1 X104.52 E0.088
G1 X103.65 Y66.36 E0.059
G1 X101.88 E0.088
G1 X102.6 Y65.55 E0.054
G1 X100.86 E0.087
G1 X99.96 Y66.36 E0.06
G1 X98.19 E0.088
G1 X98.94 Y65.55 E0.055
G1 X97.17 E0.088
G1 X96.3 Y66.36 E0.059
G1 X94.53 E0.088
G1 X95.25 Y65.55 E0.054
G1 X93.48 E0.088
G1 X92.61 Y66.36 E0.059
G1 X90.84 E0.088
G1 X91.59 Y65.55 E0.055
G1 X89.82 E0.088
G1 X88.92 Y66.36 E0.06
G1 X87.18 E0.087
G1 X87.9 Y65.55 E0.054
G1 X86.13 E0.088
G1 X85.26 Y66.36 E0.059
G1 X83.49 E0.088
G1 X84.24 Y65.55 E0.055
G1 X82.47 E0.088
G1 X81.09 Y66.9 E0.096
G1 F1995.6
G1 E-10.394
G1 F2000.0
G1 X81.9 Y67.95 F15000.0
G1 F1995.6
G1 E10.394
G1 F2000.0
G1 F99.8
G1 E0.104
G1 F2000.0
G1 X81.09 Y68.76 E0.057
G1 Y70.53 E0.088
G1 X81.9 Y69.78 E0.055
G1 Y71.55 E0.088
G1 X81.09 Y72.45 E0.06
G1 Y74.19 E0.087
G1 X81.9 Y73.47 E0.054
G1 Y75.24 E0.088
G1 X81.09 Y76.11 E0.059
G1 Y77.31 E0.06
G1 X81.63 Y77.34 E0.027
G1 X82.62 Y76.44 E0.067
G1 X82.8 Y76.5 E0.009
G1 X84.27 Y76.53 E0.073
G1 X83.55 Y77.34 E0.054
G1 X85.32 E0.088
G1 X86.19 Y76.53 E0.059
G1 X87.96 E0.088
G1 X87.21 Y77.34 E0.055
G1 X88.98 E0.088
G1 X89.88 Y76.53 E0.06
G1 X91.62 E0.087
G1 X90.9 Y77.34 E0.054
G1 X92.67 E0.088
G1 X93.54 Y76.53 E0.059
G1 X95.31 E0.088
G1 X94.56 Y77.34 E0.055
G1 X96.33 E0.088
G1 X97.23 Y76.53 E0.06
G1 X98.97 E0.087
G1 X98.25 Y77.34 E0.054
G1 X100.02 E0.088
G1 X100.89 Y76.53 E0.059
G1 X102.66 E0.088
G1 X101.94 Y77.34 E0.054
G1 X103.68 E0.087
G1 X104.58 Y76.53 E0.06
G1 X106.35 E0.088
G1 X105.6 Y77.34 E0.055
G1 X107.37 E0.088
G1 X108.24 Y76.53 E0.059
G1 X110.01 E0.088
G1 X109.29 Y77.34 E0.054
G1 X111.03 E0.087
G1 X111.9 Y76.53 E0.059
G1 F1995.6
G1 E-10.394
G1 F2000.0
G1 X89.07 Y101.7 F15000.0
G1 F1995.6
G1 E10.394
G1 F2000.0
G1 F99.8
G1 E0.104
G1 F2000.0
G1 X88.44 Y99.63 E0.108 F1800.0
G1 X88.29 Y97.71 E0.096
G1 X88.47 Y95.91 E0.09
G1 X89.07 Y94.08 E0.096
G1 X90.18 Y92.16 E0.111
G1 X91.62 Y90.63 E0.105
G1 X93.09 Y89.55 E0.091
G1 X95.19 Y88.65 E0.114
G1 X97.05 Y88.29 E0.095
G1 X99.12 E0.103
G1 X100.95 Y88.68 E0.093
G1 X102.96 Y89.61 E0.11
G1 X104.58 Y90.81 E0.101
G1 X105.69 Y92.01 E0.082
G1 X106.95 Y94.17 E0.125
G1 X107.55 Y96.12 E0.102
G1 X107.7 Y97.83 E0.086
G1 X107.46 Y100.14 E0.116
G1 X106.8 Y102.06 E0.101
G1 X105.75 Y103.8 E0.101
G1 X104.4 Y105.24 E0.098
G1 X102.96 Y106.29 E0.089
G1 X100.86 Y107.22 E0.115
G1 X98.94 Y107.61 E0.098
G1 X96.93 E0.1
G1 X95.01 Y107.19 E0.098
G1 X93.06 Y106.32 E0.107
G1 X91.5 Y105.18 E0.096
G1 X90.18 Y103.74 E0.097
G1 X89.31 Y102.24 E0.087
G1 X89.07 Y101.7 E0.029
G1 X89.55 Y101.55 E0.025
G1 X88.98 Y99.72 E0.096
G1 X88.8 Y97.74 E0.099
G1 X88.98 Y96.0 E0.087
G1 X89.55 Y94.26 E0.091
G1 X90.6 Y92.46 E0.104
G1 X91.95 Y91.02 E0.098
G1 X93.42 Y89.97 E0.09
G1 X95.28 Y89.16 E0.101
G1 X97.08 Y88.8 E0.092
G1 X99.09 Y88.83 E0.1
G1 X100.92 Y89.22 E0.093
G1 X102.78 Y90.12 E0.103
G1 X104.25 Y91.2 E0.091
G1 X105.48 Y92.61 E0.093
G1 X106.47 Y94.35 E0.1
G1 X107.04 Y96.21 E0.097
G1 X107.19 Y97.74 E0.077
G1 X107.01 Y99.87 E0.107
G1 X106.35 Y101.82 E0.103
G1 X105.18 Y103.68 E0.11
G1 X104.16 Y104.79 E0.075
G1 X102.51 Y105.96 E0.101
G1 X100.77 Y106.71 E0.095
G1 X98.94 Y107.1 E0.093
G1 X96.99 E0.097
G1 X95.25 Y106.71 E0.089
G1 X93.27 Y105.84 E0.108
G1 X91.59 Y104.52 E0.107
G1 X90.6 Y103.41 E0.074
G1 X89.55 Y101.55 E0.107
G1 F1995.6
G1 E-10.394
G1 F2000.0
G1 X89.07 Y101.7
G1 X93.75 Y105.75 F15000.0
G1 F1995.6
G1 E10.394
G1 F2000.0
G1 F99.8
G1 E0.104
G1 F2000.0
G1 X105.78 Y93.72 E0.849
G1 X106.08 Y94.23 E0.03
G1 X106.32 Y94.92 E0.036
G1 X95.04 Y106.32 E0.8
G1 X95.19 Y106.38 E0.008
G1 X96.45 Y106.65 E0.064
G1 X106.74 Y96.42 E0.724
G1 X106.89 Y98.04 E0.081
G1 X98.22 Y106.8 E0.615
G1 X98.67 E0.022
G1 X100.26 Y106.5 E0.081
G1 X106.59 Y100.23 E0.445
G1 F1995.6
G1 E-10.394
G1 F2000.0
G1 X105.06 Y92.58 F15000.0
G1 F1995.6
G1 E10.394
G1 F2000.0
G1 F99.8
G1 E0.104
G1 F2000.0
G1 X92.61 Y105.0 E0.877
G1 X91.83 Y104.34 E0.051
G1 X91.68 Y104.16 E0.012
G1 X104.19 Y91.56 E0.886
G1 X103.2 Y90.78 E0.063
G1 X90.78 Y103.14 E0.874
G1 X90.12 Y102.03 E0.064
G1 X102.0 Y90.06 E0.841
G1 X100.8 Y89.49 E0.066
G1 X89.58 Y100.65 E0.79
G1 X89.25 Y99.54 E0.058
G1 X89.22 Y99.24 E0.015
G1 X99.27 Y89.16 E0.71
G1 F1995.6
G1 E-10.394
G1 F2000.0
G1 X97.5 Y89.1 F15000.0
G1 F1995.6
G1 E10.394
G1 F2000.0
G1 F99.8
G1 E0.104
G1 F2000.0
G1 X89.16 Y97.38 E0.586
G1 X89.34 Y95.85 E0.077
G1 X89.58 Y95.19 E0.035
G1 X95.31 Y89.46 E0.404
G1 F1995.6
G1 E-10.394
G1 F2000.0
G1 X85.5 Y71.45 F15000.0
T1
G1 F1995.6
G1 E10.394
G1 F2000.0
G1 F99.8
G1 E0.104
G1 F2000.0
G1 X110.5 Y71.45 E1.247
G1 Y70.95 E0.025
G1 X85.5 Y70.95 E1.247
G1 Y70.45 E0.025
G1 X110.5 Y70.45 E1.247
G1 F1995.6
G1 E-10.394
G1 F2000.0
G1 X92.73 Y89.13 F15000.0
G1 F1995.6
G1 E10.394
G1 F2000.0
G1 X91.02 Y90.42 E0.107 F1800.0
G1 X89.67 Y91.95 E0.102
G1 X88.59 Y93.87 E0.11
G1 X88.17 Y95.16 E0.068
G1 X83.28 E0.244
G1 Y83.22 E0.596
G1 X95.22 E0.596
G1 X95.19 Y88.08 E0.242
G1 X94.62 Y88.26 E0.03
G1 X92.73 Y89.13 E0.104
G1 X92.4 Y88.74 E0.025
G1 X90.69 Y90.03 E0.107
G1 X89.16 Y91.77 E0.116
G1 X88.08 Y93.78 E0.114
G1 X87.78 Y94.65 E0.046
G1 X83.79 E0.199
G1 Y83.73 E0.545
G1 X94.71 Y83.76 E0.545
G1 Y87.69 E0.196
G1 X92.4 Y88.74 E0.127
G1 F1995.6
G1 E-10.394
G1 F2000.0
G1 X92.73 Y89.13
G1 X103.14 Y89.07 F15000.0
G1 F1995.6
G1 E10.394
G1 F2000.0
G1 X101.07 Y88.14 E0.113 F1800.0
G1 X100.77 Y88.08 E0.015
G1 Y83.22 E0.242
G1 X112.71 E0.596
G1 X112.68 Y95.16 E0.596
G1 X107.82 Y95.13 E0.242
G1 X107.4 Y93.81 E0.069
G1 X106.26 Y91.86 E0.113
G1 X104.76 Y90.21 E0.111
G1 X103.14 Y89.07 E0.099
G1 X103.38 Y88.62 E0.025
G1 X101.28 Y87.66 E0.115
G1 Y83.73 E0.196
G1 X112.2 E0.545
G1 Y94.65 E0.545
G1 X108.18 Y94.59 E0.201
G1 X107.85 Y93.57 E0.053
G1 X106.65 Y91.53 E0.118
G1 X105.09 Y89.82 E0.115
G1 X103.38 Y88.62 E0.104
G1 F1995.6
G1 E-10.394
G1 F2000.0
G1 X103.14 Y89.07
G1 X104.85 Y105.6 F15000.0
G1 F1995.6
G1 E10.394
G1 F2000.0
G1 X106.2 Y104.13 E0.1 F1800.0
G1 X107.22 Y102.42 E0.099
G1 X107.85 Y100.74 E0.09
G1 X112.71 E0.242
G1 X112.68 Y112.65 E0.594
G1 X100.77 E0.594
G1 Y107.82 E0.241
G1 X101.1 Y107.76 E0.017
G1 X103.2 Y106.8 E0.115
G1 X104.85 Y105.6 E0.102
G1 X105.24 Y105.93 E0.025
G1 X106.74 Y104.25 E0.112
G1 X107.7 Y102.6 E0.095
G1 X108.21 Y101.25 E0.072
G1 X112.2 Y101.28 E0.199
G1 Y112.14 E0.542
G1 X101.28 Y112.11 E0.545
G1 Y108.24 E0.193
G1 X103.5 Y107.22 E0.122
G1 X105.24 Y105.93 E0.108
G1 F1995.6
G1 E-10.394
G1 F2000.0
G1 X104.85 Y105.6
G1 X91.23 Y105.66 F15000.0
G1 F1995.6
G1 E10.394
G1 F2000.0
G1 X92.67 Y106.71 E0.089 F1800.0
G1 X94.89 Y107.73 E0.122
G1 X95.22 Y107.82 E0.017
G1 Y112.65 E0.241
G1 X83.28 E0.596
G1 Y100.74 E0.594
G1 X88.17 E0.244
G1 X88.68 Y102.24 E0.079
G1 X90.0 Y104.34 E0.124
G1 X91.23 Y105.66 E0.09
G1 X90.9 Y106.05 E0.025
G1 X92.58 Y107.25 E0.103
G1 X94.71 Y108.24 E0.117
G1 X94.68 Y112.14 E0.195
G1 X83.79 Y112.11 E0.543
G1 Y101.25 E0.542
G1 X87.81 E0.201
G1 X88.2 Y102.45 E0.063
G1 X89.25 Y104.25 E0.104
G1 X90.9 Y106.05 E0.122
G1 F1995.6
G1 E-10.394
G1 F2000.0
G1 X91.23 Y105.66
G1 X94.41 Y110.58 F15000.0
G1 F1995.6
G1 E10.394
G1 F2000.0
G1 X93.09 Y111.84 E0.091
G1 X91.32 E0.088
G1 X94.41 Y108.69 E0.22
G1 X94.38 Y108.39 E0.015
G1 X93.39 Y107.97 E0.054
G1 X89.4 Y111.84 E0.277
G1 X87.66 E0.087
G1 X92.13 Y107.31 E0.318
G1 X91.11 Y106.56 E0.063
G1 X85.74 Y111.84 E0.376
G1 X84.09 Y111.81 E0.082
G1 Y111.72 E0.004
G1 X90.12 Y105.66 E0.427
G1 X89.28 Y104.73 E0.063
G1 X84.09 Y109.8 E0.362
G1 Y108.06 E0.087
G1 X88.5 Y103.56 E0.314
G1 X87.87 Y102.42 E0.065
G1 X84.09 Y106.14 E0.265
G1 Y104.37 E0.088
G1 X86.82 Y101.55 E0.196
G1 X85.08 E0.087
G1 X84.09 Y102.51 E0.069
G1 F1995.6
G1 E-10.394
G1 F2000.0
G1 X84.18 Y84.03 F15000.0
G1 F1995.6
G1 E10.394
G1 F2000.0
G1 X84.09 Y84.15 E0.007
G1 Y85.92 E0.088
G1 X86.04 Y84.03 E0.135
G1 X87.81 E0.088
G1 X84.09 Y87.81 E0.265
G1 Y89.58 E0.088
G1 X89.73 Y84.03 E0.395
G1 X91.47 E0.087
G1 X84.09 Y91.5 E0.524
G1 Y93.27 E0.088
G1 X93.39 Y84.03 E0.654
G1 X94.38 E0.049
G1 X94.41 Y84.78 E0.037
G1 X84.93 Y94.35 E0.672
G1 X86.67 E0.087
G1 X88.14 Y92.94 E0.102
G1 X88.92 Y91.59 E0.078
G1 X90.39 Y89.91 E0.111
G1 X92.19 Y88.53 E0.113
G1 X92.85 Y88.17 E0.038
G1 X94.41 Y86.67 E0.108
G1 F1995.6
G1 E-10.394
G1 F2000.0
G1 X102.57 Y84.03 F15000.0
G1 F1995.6
G1 E10.394
G1 F2000.0
G1 X101.58 Y85.05 E0.071
G1 Y86.79 E0.087
G1 X104.43 Y84.03 E0.198
G1 X106.2 E0.088
G1 X102.45 Y87.87 E0.268
G1 X103.65 Y88.44 E0.066
G1 X108.09 Y84.03 E0.312
G1 F1995.6
G1 E-10.394
G1 F2000.0
G1 X104.76 Y89.22 F15000.0
G1 F1995.6
G1 E10.394
G1 F2000.0
G1 X109.95 Y84.03 E0.366
G1 X111.72 E0.088
G1 X105.75 Y90.09 E0.424
G1 X106.59 Y91.02 E0.063
G1 X111.9 Y85.74 E0.374
G1 Y87.51 E0.088
G1 X107.37 Y92.13 E0.323
G1 X108.0 Y93.24 E0.064
G1 X111.9 Y89.43 E0.272
G1 Y91.2 E0.088
G1 X108.84 Y94.32 E0.218
G1 X110.58 Y94.35 E0.087
G1 X111.9 Y93.09 E0.091
G1 F1995.6
G1 E-10.394
G1 F2000.0
G1 X102.45 Y108.06 F15000.0
G1 F1995.6
G1 E10.394
G1 F2000.0
G1 X101.58 Y108.93 E0.061
G1 Y110.7 E0.088
G1 X110.82 Y101.55 E0.649
G1 X111.87 E0.052
G1 X111.9 Y102.21 E0.033
G1 X102.36 Y111.84 E0.676
G1 X104.13 E0.088
G1 X111.9 Y104.13 E0.546
G1 Y105.9 E0.088
G1 X106.02 Y111.84 E0.417
G1 X107.79 E0.088
G1 X111.9 Y107.82 E0.287
G1 Y109.59 E0.088
G1 X109.71 Y111.84 E0.157
G1 X111.48 E0.088
G1 X111.9 Y111.48 E0.028
G1 F1995.6
G1 E-10.394
G1 F2000.0
G1 X85.5 Y69.95 F15000.0
T2
G1 F1995.6
G1 E10.394
G1 F2000.0
G1 F99.8
G1 E0.104
G1 F2000.0
G1 X110.5 Y69.95 E1.247
G1 Y69.45 E0.025
G1 X85.5 Y69.45 E1.247
G1 Y68.95 E0.025
G1 X110.5 Y68.95 E1.247
G1 F1995.6
G1 E-10.394
G1 F2000.0
G1 X97.02 Y108.18 F15000.0
G1 F1995.6
G1 E10.394
G1 F2000.0
G1 X99.39 Y108.09 E0.118 F1800.0
G1 X100.23 Y107.97 E0.042
G1 X100.2 Y115.17 E0.359
G1 X95.79 E0.22
G1 Y107.94 E0.361
G1 X97.02 Y108.18 E0.063
G1 X96.96 Y108.69 E0.026
G1 X99.27 Y108.63 E0.115
G1 X99.72 Y108.6 E0.023
G1 Y114.66 E0.302
G1 X96.3 Y114.63 E0.171
G1 Y108.57 E0.302
G1 X96.96 Y108.69 E0.033
G1 F1995.6
G1 E-10.394
G1 F2000.0
G1 X97.02 Y108.18
G1 X87.75 Y97.8 F15000.0
G1 F1995.6
G1 E10.394
G1 F2000.0
G1 X87.96 Y100.17 E0.119 F1800.0
G1 X80.79 E0.358
G1 Y95.73 E0.222
G1 X87.96 Y95.76 E0.358
G1 X87.75 Y97.8 E0.102
G1 X87.24 Y97.74 E0.026
G1 X87.39 Y99.66 E0.096
G1 X81.3 Y99.63 E0.304
G1 Y96.24 E0.169
G1 X87.39 Y96.27 E0.304
G1 X87.24 Y97.74 E0.074
G1 F1995.6
G1 E-10.394
G1 F2000.0
G1 X87.75 Y97.8
G1 X98.97 Y87.72 F15000.0
G1 F1995.6
G1 E10.394
G1 F2000.0
G1 X96.63 Y87.78 E0.117 F1800.0
G1 X95.79 Y87.9 E0.042
G1 Y80.73 E0.358
G1 X100.23 E0.222
G1 Y87.96 E0.361
G1 X98.97 Y87.72 E0.064
G1 X99.03 Y87.21 E0.026
G1 X96.78 Y87.24 E0.112
G1 X96.3 Y87.3 E0.024
G1 Y81.24 E0.302
G1 X99.72 Y81.27 E0.171
G1 Y87.33 E0.302
G1 X99.03 Y87.21 E0.035
G1 F1995.6
G1 E-10.394
G1 F2000.0
G1 X98.97 Y87.72
G1 X108.15 Y96.54 F15000.0
G1 F1995.6
G1 E10.394
G1 F2000.0
G1 X108.03 Y95.73 E0.041 F1800.0
G1 X115.23 Y95.76 E0.359
G1 Y100.17 E0.22
G1 X108.03 Y100.14 E0.359
G1 X108.24 Y98.31 E0.092
G1 X108.15 Y96.54 E0.088
G1 X108.66 Y96.51 E0.025
G1 X108.6 Y96.24 E0.014
G1 X114.72 Y96.3 E0.305
G1 X114.69 Y99.66 E0.168
G1 X108.6 Y99.63 E0.304
G1 X108.75 Y98.37 E0.063
G1 X108.66 Y96.51 E0.093
G1 F1995.6
G1 E-10.394
G1 F2000.0
G1 X108.15 Y96.54
G1 X110.28 F15000.0
G1 F1995.6
G1 E10.394
G1 F2000.0
G1 X109.05 Y97.8 E0.088
G1 Y98.07 E0.013
G1 X108.93 Y99.3 E0.062
G1 X109.29 Y99.33 E0.018
G1 X112.11 Y96.57 E0.197
G1 X113.88 E0.088
G1 X111.18 Y99.33 E0.193
G1 X112.92 Y99.36 E0.087
G1 X114.42 Y97.92 E0.104
G1 F1995.6
G1 E-10.394
G1 F2000.0
G1 X99.42 Y85.35 F15000.0
G1 F1995.6
G1 E10.394
G1 F2000.0
G1 X97.77 Y86.94 E0.114
G1 X96.6 E0.058
G1 Y86.34 E0.03
G1 X99.42 Y83.46 E0.201
G1 Y81.69 E0.088
G1 X96.6 Y84.42 E0.196
G1 Y82.68 E0.087
G1 X97.71 Y81.54 E0.079
G1 F1995.6
G1 E-10.394
G1 F2000.0
G1 X86.94 Y97.83 F15000.0
G1 F1995.6
G1 E10.394
G1 F2000.0
G1 X85.35 Y99.36 E0.11
G1 X83.58 E0.088
G1 X86.31 Y96.57 E0.195
G1 X84.54 E0.088
G1 X81.66 Y99.36 E0.2
G1 X81.6 Y99.3 E0.004
G1 Y97.68 E0.081
G1 X82.71 Y96.54 E0.079
G1 F1995.6
G1 E-10.394
G1 F2000.0
G1 X97.83 Y108.99 F15000.0
G1 F1995.6
G1 E10.394
G1 F2000.0
G1 X96.6 Y110.25 E0.088
G1 Y112.02 E0.088
G1 X99.42 Y109.26 E0.197
G1 Y111.03 E0.088
G1 X96.6 Y113.91 E0.201
G1 Y114.33 E0.021
G1 X97.92 Y114.36 E0.066
G1 X99.42 Y112.92 E0.104
G1 F1995.6
G1 E-10.394
G1 F2000.0
;#!LAYER: 6/20
G92 E0
G1 Z1.44 F200.0
G1 X82.95 Y67.17 F15000.0
G1 X85.5 Y72.95
T0
G1 F1995.6
G1 E10.394
G1 F2000.0
G1 F99.8
G1 E0.104
G1 F2000.0
G1 X110.5 Y72.95 E1.247
G1 Y72.45 E0.025
G1 X85.5 Y72.45 E1.247
G1 Y71.95 E0.025
G1 X110.5 Y71.95 E1.247
G1 F1995.6
G1 E-10.394
G1 F2000.0
G1 X82.95 Y67.17 F15000.0
G1 F1995.6
G1 E10.394
G1 F2000.0
G1 F99.8
G1 E0.104
G1 F2000.0
G1 X82.77 Y67.32 E0.012 F1800.0
G1 Y75.57 E0.412
G1 X83.13 Y75.72 E0.019
G1 X113.07 Y75.69 E1.494
G1 X113.22 Y75.57 E0.01
G1 X113.28 Y75.21 E0.018
G1 X113.25 Y67.35 E0.392
G1 X112.89 Y67.17 E0.02
G1 X82.95 E1.494
G1 X82.86 Y66.69 E0.024
G1 X82.5 Y66.87 E0.02
G1 X82.35 Y67.02 E0.011
G1 X82.23 Y75.54 E0.425
G1 X82.38 Y75.9 E0.019
G1 X82.56 Y76.08 E0.013
G1 X83.1 Y76.23 E0.028
G1 X113.1 E1.497
G1 X113.46 Y76.05 E0.02
G1 X113.64 Y75.84 E0.014
G1 X113.76 Y75.54 E0.016
G1 Y67.35 E0.409
G1 X113.7 Y67.11 E0.012
G1 X113.43 Y66.81 E0.02
G1 X112.95 Y66.66 E0.025
G1 X82.86 Y66.69 E1.501
G1 F1995.6
G1 E-10.394
G1 F2000.0
G1 X82.95 Y67.17
G1 X115.68 Y78.15 F15000.0
G1 F1995.6
G1 E10.394
G1 F2000.0
G1 F99.8
G1 E0.104
G1 F2000.0
G1 X80.28 E1.766 F1800.0
G1 Y64.74 E0.669
G1 X115.71 E1.768
G1 X115.68 Y78.15 E0.669
G1 X115.2 Y77.64 E0.035
G1 X80.79 E1.717
G1 Y65.25 E0.618
G1 X115.2 E1.717
G1 Y77.64 E0.618
G1 F1995.6
G1 E-10.394
G1 F2000.0
G1 X115.68 Y78.15
G1 X81.09 Y75.57 F15000.0
G1 F1995.6
G1 E10.394
G1 F2000.0
G1 F99.8
G1 E0.104
G1 F2000.0
G1 X82.92 Y77.34 E0.127
G1 X84.69 E0.088
G1 X83.97 Y76.53 E0.054
G1 X85.71 E0.087
G1 X86.61 Y77.34 E0.06
G1 X88.38 E0.088
G1 X87.63 Y76.53 E0.055
G1 X89.4 E0.088
G1 X90.27 Y77.34 E0.059
G1 X92.04 E0.088
G1 X91.32 Y76.53 E0.054
G1 X93.09 E0.088
G1 X93.96 Y77.34 E0.059
G1 X95.73 E0.088
G1 X94.98 Y76.53 E0.055
G1 X96.75 E0.088
G1 X97.65 Y77.34 E0.06
G1 X99.39 E0.087
G1 X98.67 Y76.53 E0.054
G1 X100.44 E0.088
G1 X101.31 Y77.34 E0.059
G1 X103.08 E0.088
G1 X102.33 Y76.53 E0.055
G1 X104.1 E0.088
G1 X105.0 Y77.34 E0.06
G1 X106.77 E0.088
G1 X106.02 Y76.53 E0.055
G1 X107.79 E0.088
G1 X108.66 Y77.34 E0.059
G1 X110.43 E0.088
G1 X109.71 Y76.53 E0.054
G1 X111.45 E0.087
G1 X112.35 Y77.34 E0.06
G1 X114.12 E0.088
G1 X113.31 Y76.47 E0.059
G1 X113.7 Y76.23 E0.023
G1 X113.97 Y75.87 E0.022
G1 X114.06 Y75.45 E0.021
G1 X114.9 Y76.23 E0.057
G1 Y74.46 E0.088
G1 X114.09 Y73.56 E0.06
G1 Y71.82 E0.087
G1 X114.9 Y72.54 E0.054
G1 Y70.77 E0.088
G1 X114.09 Y69.9 E0.059
G1 Y68.13 E0.088
G1 X114.9 Y68.85 E0.054
G1 Y67.11 E0.087
G1 X113.28 Y65.55 E0.112
G1 X111.51 E0.088
G1 X112.26 Y66.36 E0.055
G1 X110.49 E0.088
G1 X109.62 Y65.55 E0.059
G1 X107.85 E0.088
G1 X108.57 Y66.36 E0.054
G1 X106.83 E0.087
G1 X105.93 Y65.55 E0.06
G1 X104.16 E0.088
G1 X104.91 Y66.36 E0.055
G1 X103.14 E0.088
G1 X102.27 Y65.55 E0.059
G1 X100.5 E0.088
G1 X101.22 Y66.36 E0.054
G1 X99.48 E0.087
G1 X98.58 Y65.55 E0.06
G1 X96.81 E0.088
G1 X97.56 Y66.36 E0.055
G1 X95.79 E0.088
G1 X94.92 Y65.55 E0.059
G1 X93.15 E0.088
G1 X93.87 Y66.36 E0.054
G1 X92.1 E0.088
G1 X91.23 Y65.55 E0.059
G1 X89.46 E0.088
G1 X90.21 Y66.36 E0.055
G1 X88.44 E0.088
G1 X87.54 Y65.55 E0.06
G1 X85.8 E0.087
G1 X86.52 Y66.36 E0.054
G1 X84.75 E0.088
G1 X83.88 Y65.55 E0.059
G1 X82.11 E0.088
G1 X82.86 Y66.36 E0.055
G1 X82.38 Y66.57 E0.026
G1 X82.05 Y66.96 E0.025
G1 X81.96 Y67.23 E0.014
G1 X81.09 Y66.45 E0.058
G1 Y68.22 E0.088
G1 X81.9 Y69.09 E0.059
G1 Y70.86 E0.088
G1 X81.09 Y70.11 E0.055
G1 Y71.88 E0.088
G1 X81.9 Y72.78 E0.06
G1 Y74.52 E0.087
G1 X81.09 Y73.8 E0.054
G1 F1995.6
G1 E-10.394
G1 F2000.0
G1 X89.07 Y101.7 F15000.0
G1 F1995.6
G1 E10.394
G1 F2000.0
G1 F99.8
G1 E0.104
G1 F2000.0
G1 X88.44 Y99.63 E0.108 F1800.0
G1 X88.29 Y97.71 E0.096
G1 X88.47 Y95.91 E0.09
G1 X89.07 Y94.08 E0.096
G1 X90.18 Y92.16 E0.111
G1 X91.62 Y90.63 E0.105
G1 X93.09 Y89.55 E0.091
G1 X95.19 Y88.65 E0.114
G1 X97.05 Y88.29 E0.095
G1 X99.12 E0.103
G1 X100.95 Y88.68 E0.093
G1 X102.96 Y89.61 E0.11
G1 X104.58 Y90.81 E0.101
G1 X105.69 Y92.01 E0.082
G1 X106.95 Y94.17 E0.125
G1 X107.55 Y96.12 E0.102
G1 X107.7 Y97.83 E0.086
G1 X107.46 Y100.14 E0.116
G1 X106.8 Y102.06 E0.101
G1 X105.75 Y103.8 E0.101
G1 X104.4 Y105.24 E0.098
G1 X102.96 Y106.29 E0.089
G1 X100.86 Y107.22 E0.115
G1 X98.94 Y107.61 E0.098
G1 X96.93 E0.1
G1 X95.01 Y107.19 E0.098
G1 X93.06 Y106.32 E0.107
G1 X91.5 Y105.18 E0.096
G1 X90.18 Y103.74 E0.097
G1 X89.31 Y102.24 E0.087
G1 X89.07 Y101.7 E0.029
G1 X89.55 Y101.55 E0.025
G1 X88.98 Y99.72 E0.096
G1 X88.8 Y97.74 E0.099
G1 X88.98 Y96.0 E0.087
G1 X89.55 Y94.26 E0.091
G1 X90.6 Y92.46 E0.104
G1 X91.95 Y91.02 E0.098
G1 X93.42 Y89.97 E0.09
G1 X95.28 Y89.16 E0.101
G1 X97.08 Y88.8 E0.092
G1 X99.09 Y88.83 E0.1
G1 X100.92 Y89.22 E0.093
G1 X102.78 Y90.12 E0.103
G1 X104.25 Y91.2 E0.091
G1 X105.48 Y92.61 E0.093
G1 X106.47 Y94.35 E0.1
G1 X107.04 Y96.21 E0.097
G1 X107.19 Y97.74 E0.077
G1 X107.01 Y99.87 E0.107
G1 X106.35 Y101.82 E0.103
G1 X105.18 Y103.68 E0.11
G1 X104.16 Y104.79 E0.075
G1 X102.51 Y105.96 E0.101
G1 X100.77 Y106.71 E0.095
G1 X98.94 Y107.1 E0.093
G1 X96.99 E0.097
G1 X95.25 Y106.71 E0.089
G1 X93.27 Y105.84 E0.108
G1 X91.59 Y104.52 E0.107
G1 X90.6 Y103.41 E0.074
G1 X89.55 Y101.55 E0.107
G1 F1995.6
G1 E-10.394
G1 F2000.0
G1 X89.07 Y101.7
G1 X89.55 Y100.59 F15000.0
G1 F1995.6
G1 E10.394
G1 F2000.0
G1 F99.8
G1 E0.104
G1 F2000.0
G1 X95.43 Y106.44 E0.414
G1 X96.78 Y106.74 E0.069
G1 X97.56 Y106.8 E0.039
G1 X89.13 Y98.31 E0.597
G1 F1995.6
G1 E-10.394
G1 F2000.0
G1 X89.25 Y96.6 F15000.0
G1 F1995.6
G1 E10.394
G1 F2000.0
G1 F99.8
G1 E0.104
G1 F2000.0
G1 X99.36 Y106.71 E0.713
G1 X100.8 Y106.38 E0.074
G1 X89.61 Y95.07 E0.794
G1 X89.73 Y94.68 E0.02
G1 X90.12 Y93.87 E0.045
G1 X102.15 Y105.78 E0.845
G1 X102.3 Y105.72 E0.008
G1 X103.23 Y105.09 E0.056
G1 X90.84 Y92.64 E0.876
G1 X91.68 Y91.74 E0.061
G1 X104.25 Y104.25 E0.885
G1 X105.09 Y103.32 E0.063
G1 X92.7 Y90.87 E0.876
G1 F1995.6
G1 E-10.394
G1 F2000.0
G1 X96.54 Y89.19 F15000.0
G1 F1995.6
G1 E10.394
G1 F2000.0
G1 F99.8
G1 E0.104
G1 F2000.0
G1 X106.74 Y99.36 E0.719
G1 X106.89 Y97.77 E0.08
G1 X98.28 Y89.1 E0.61
G1 X98.79 E0.025
G1 X100.38 Y89.4 E0.081
G1 X106.5 Y95.46 E0.43
G1 X106.23 Y94.56 E0.047
G1 X105.27 Y92.82 E0.099
G1 X104.16 Y91.53 E0.085
G1 X102.69 Y90.42 E0.092
G1 X101.07 Y89.61 E0.09
G1 X100.44 Y89.4 E0.033
G1 F1995.6
G1 E-10.394
G1 F2000.0
G1 X106.38 Y100.86 F15000.0
G1 F1995.6
G1 E10.394
G1 F2000.0
G1 F99.8
G1 E0.104
G1 F2000.0
G1 X95.07 Y89.58 E0.797
G1 X93.81 Y90.12 E0.068
G1 X105.84 Y102.12 E0.848
G1 F1995.6
G1 E-10.394
G1 F2000.0
G1 X85.5 Y71.45 F15000.0
T1
G1 F1995.6
G1 E10.394
G1 F2000.0
G1 F99.8
G1 E0.104
G1 F2000.0
G1 X110.5 Y71.45 E1.247
G1 Y70.95 E0.025
G1 X85.5 Y70.95 E1.247
G1 Y70.45 E0.025
G1 X110.5 Y70.45 E1.247
G1 F1995.6
G1 E-10.394
G1 F2000.0
G1 X104.85 Y105.6 F15000.0
G1 F1995.6
G1 E10.394
G1 F2000.0
G1 X106.2 Y104.13 E0.1 F1800.0
G1 X107.22 Y102.42 E0.099
G1 X107.85 Y100.74 E0.09
G1 X112.71 E0.242
G1 X112.68 Y112.65 E0.594
G1 X100.77 E0.594
G1 Y107.82 E0.241
G1 X101.1 Y107.76 E0.017
G1 X103.2 Y106.8 E0.115
G1 X104.85 Y105.6 E0.102
G1 X105.24 Y105.93 E0.025
G1 X106.74 Y104.25 E0.112
G1 X107.7 Y102.6 E0.095
G1 X108.21 Y101.25 E0.072
G1 X112.2 Y101.28 E0.199
G1 Y112.14 E0.542
G1 X101.28 Y112.11 E0.545
G1 Y108.24 E0.193
G1 X103.5 Y107.22 E0.122
G1 X105.24 Y105.93 E0.108
G1 F1995.6
G1 E-10.394
G1 F2000.0
G1 X104.85 Y105.6
G1 X91.23 Y105.66 F15000.0
G1 F1995.6
G1 E10.394
G1 F2000.0
G1 X92.67 Y106.71 E0.089 F1800.0
G1 X94.89 Y107.73 E0.122
G1 X95.22 Y107.82 E0.017
G1 Y112.65 E0.241
G1 X83.28 E0.596
G1 Y100.74 E0.594
G1 X88.17 E0.244
G1 X88.68 Y102.24 E0.079
G1 X90.0 Y104.34 E0.124
G1 X91.23 Y105.66 E0.09
G1 X90.9 Y106.05 E0.025
G1 X92.58 Y107.25 E0.103
G1 X94.71 Y108.24 E0.117
G1 X94.68 Y112.14 E0.195
G1 X83.79 Y112.11 E0.543
G1 Y101.25 E0.542
G1 X87.81 E0.201
G1 X88.2 Y102.45 E0.063
G1 X89.25 Y104.25 E0.104
G1 X90.9 Y106.05 E0.122
G1 F1995.6
G1 E-10.394
G1 F2000.0
G1 X91.23 Y105.66
G1 X92.73 Y89.13 F15000.0
G1 F1995.6
G1 E10.394
G1 F2000.0
G1 X91.02 Y90.42 E0.107 F1800.0
G1 X89.67 Y91.95 E0.102
G1 X88.59 Y93.87 E0.11
G1 X88.17 Y95.16 E0.068
G1 X83.28 E0.244
G1 Y83.22 E0.596
G1 X95.22 E0.596
G1 X95.19 Y88.08 E0.242
G1 X94.62 Y88.26 E0.03
G1 X92.73 Y89.13 E0.104
G1 X92.4 Y88.74 E0.025
G1 X90.69 Y90.03 E0.107
G1 X89.16 Y91.77 E0.116
G1 X88.08 Y93.78 E0.114
G1 X87.78 Y94.65 E0.046
G1 X83.79 E0.199
G1 Y83.73 E0.545
G1 X94.71 Y83.76 E0.545
G1 Y87.69 E0.196
G1 X92.4 Y88.74 E0.127
G1 F1995.6
G1 E-10.394
G1 F2000.0
G1 X92.73 Y89.13
G1 X103.14 Y89.07 F15000.0
G1 F1995.6
G1 E10.394
G1 F2000.0
G1 X101.07 Y88.14 E0.113 F1800.0
G1 X100.77 Y88.08 E0.015
G1 Y83.22 E0.242
G1 X112.71 E0.596
G1 X112.68 Y95.16 E0.596
G1 X107.82 Y95.13 E0.242
G1 X107.4 Y93.81 E0.069
G1 X106.26 Y91.86 E0.113
G1 X104.76 Y90.21 E0.111
G1 X103.14 Y89.07 E0.099
G1 X103.38 Y88.62 E0.025
G1 X101.28 Y87.66 E0.115
G1 Y83.73 E0.196
G1 X112.2 E0.545
G1 Y94.65 E0.545
G1 X108.18 Y94.59 E0.201
G1 X107.85 Y93.57 E0.053
G1 X106.65 Y91.53 E0.118
G1 X105.09 Y89.82 E0.115
G1 X103.38 Y88.62 E0.104
G1 F1995.6
G1 E-10.394
G1 F2000.0
G1 X103.14 Y89.07
G1 X102.9 Y88.05 F15000.0
G1 F1995.6
G1 E10.394
G1 F2000.0
G1 X101.58 Y86.73 E0.093
G1 Y86.07 E0.033
G1 X104.85 Y89.28 E0.229
G1 F1995.6
G1 E-10.394
G1 F2000.0
G1 X108.39 Y94.26 F15000.0
G1 F1995.6
G1 E10.394
G1 F2000.0
G1 X108.48 Y94.32 E0.005
G1 X109.11 E0.031
G1 X107.88 Y93.03 E0.089
G1 X106.98 Y91.44 E0.091
G1 X109.89 Y94.32 E0.204
G1 X110.55 Y94.35 E0.033
G1 X101.58 Y85.29 E0.636
G1 Y84.66 E0.031
G1 X111.33 Y94.35 E0.686
G1 X111.84 E0.025
G1 X111.9 Y94.29 E0.004
G1 X101.73 Y84.03 E0.721
G1 X102.36 E0.031
G1 X111.9 Y93.51 E0.671
G1 Y92.88 E0.031
G1 X103.14 Y84.03 E0.621
G1 X103.77 E0.031
G1 X111.9 Y92.1 E0.572
G1 Y91.44 E0.033
G1 X104.55 Y84.03 E0.521
G1 X105.18 E0.031
G1 X111.9 Y90.66 E0.471
G1 Y90.03 E0.031
G1 X105.96 Y84.03 E0.421
G1 X106.59 E0.031
G1 X111.9 Y89.25 E0.371
G1 Y88.62 E0.031
G1 X107.37 Y84.03 E0.322
G1 X108.0 E0.031
G1 X111.9 Y87.84 E0.272
G1 Y87.21 E0.031
G1 X108.78 Y84.03 E0.222
G1 X109.44 E0.033
G1 X111.9 Y86.43 E0.171
G1 Y85.8 E0.031
G1 X110.22 Y84.03 E0.122
G1 X110.85 E0.031
G1 X111.9 Y85.02 E0.072
G1 Y84.39 E0.031
G1 X111.6 Y84.03 E0.023
G1 F1995.6
G1 E-10.394
G1 F2000.0
G1 X111.45 Y101.55 F15000.0
G1 F1995.6
G1 E10.394
G1 F2000.0
G1 X111.9 Y102.06 E0.034
G1 Y102.69 E0.031
G1 X110.67 Y101.55 E0.084
G1 X110.04 E0.031
G1 X111.9 Y103.47 E0.133
G1 Y104.1 E0.031
G1 X109.26 Y101.55 E0.183
G1 X108.63 E0.031
G1 X111.9 Y104.88 E0.233
G1 Y105.51 E0.031
G1 X108.3 Y102.0 E0.251
G1 X108.12 Y102.45 E0.024
G1 X111.9 Y106.29 E0.269
G1 Y106.95 E0.033
G1 X107.85 Y102.96 E0.284
G1 X107.61 Y103.35 E0.023
G1 X111.9 Y107.73 E0.306
G1 Y108.36 E0.031
G1 X107.34 Y103.8 E0.322
G1 X107.07 Y104.25 E0.026
G1 X111.9 Y109.14 E0.343
G1 Y109.77 E0.031
G1 X106.77 Y104.7 E0.36
G1 X106.47 Y105.03 E0.022
G1 X111.9 Y110.55 E0.386
G1 Y111.18 E0.031
G1 X106.11 Y105.42 E0.407
G1 X105.78 Y105.78 E0.024
G1 X111.78 Y111.84 E0.425
G1 X111.15 E0.031
G1 X105.42 Y106.17 E0.402
G1 X105.06 Y106.44 E0.022
G1 X110.37 Y111.84 E0.378
G1 X109.74 E0.031
G1 X104.61 Y106.77 E0.36
G1 X104.25 Y107.07 E0.023
G1 X108.96 Y111.84 E0.334
G1 X108.33 E0.031
G1 X103.8 Y107.37 E0.318
G1 X103.38 Y107.61 E0.024
G1 X107.55 Y111.84 E0.296
G1 X106.92 E0.031
G1 X102.87 Y107.85 E0.284
G1 X102.42 Y108.06 E0.025
G1 X106.11 Y111.84 E0.264
G1 X105.48 E0.031
G1 X101.94 Y108.27 E0.251
G1 X101.58 Y108.66 E0.026
G1 X104.7 Y111.84 E0.222
G1 X104.07 E0.031
G1 X101.58 Y109.41 E0.174
G1 Y110.04 E0.031
G1 X103.29 Y111.84 E0.124
G1 X102.66 E0.031
G1 X101.58 Y110.82 E0.074
G1 Y111.45 E0.031
G1 X101.94 Y111.84 E0.026
G1 F1995.6
G1 E-10.394
G1 F2000.0
G1 X94.17 Y108.3 F15000.0
G1 F1995.6
G1 E10.394
G1 F2000.0
G1 X94.41 Y108.6 E0.019
G1 Y109.23 E0.031
G1 X92.88 Y107.73 E0.107
G1 F1995.6
G1 E-10.394
G1 F2000.0
G1 X90.21 Y105.75 F15000.0
G1 F1995.6
G1 E10.394
G1 F2000.0
G1 X88.92 Y104.28 E0.098
G1 X88.26 Y103.11 E0.067
G1 X86.64 Y101.55 E0.112
G1 X85.98 E0.033
G1 X94.41 Y110.04 E0.597
G1 Y110.67 E0.031
G1 X85.23 Y101.55 E0.646
G1 X84.6 E0.031
G1 X94.41 Y111.45 E0.695
G1 X94.38 Y111.84 E0.02
G1 X94.17 E0.01
G1 X84.09 Y101.82 E0.709
G1 Y102.45 E0.031
G1 X93.39 Y111.84 E0.659
G1 X92.76 E0.031
G1 X84.09 Y103.23 E0.61
G1 Y103.86 E0.031
G1 X91.98 Y111.84 E0.56
G1 X91.35 E0.031
G1 X84.09 Y104.67 E0.509
