; generated by Slic3r 0.9.9-dev on 2013-07-11 at 11:20:28

; M-PLA-05-03-1

; layer_height = 0.3
; perimeters = 2
; top_solid_layers = 3
; bottom_solid_layers = 2
; fill_density = 0.2
; perimeter_speed = 32
; infill_speed = 50
; travel_speed = 250
; scale = 1
; nozzle_diameter = 0.5
; filament_diameter = 1.75
; extrusion_multiplier = 0.9
; perimeters extrusion width = 0.50mm
; infill extrusion width = 0.50mm
; first layer extrusion width = 0.50mm

M107
M190 S57 ; wait for bed temperature to be reached
G28 X0 Y0
G1 X75 Y75 F12000
G28 Z0
G1 Z0.3 F200
G1 X15 Y20 F12000
G90 ; use absolute coordinates
G21 ; set units to millimeters
M83 ; use relative distances for extrusion
T0
G1 F2760.000 E-3.20000
G1 Z0.300 F15000.000
G1 X90.770 Y82.770
G1 X91.249 Y82.408 F2760.000 E3.20000
G1 X91.590 Y82.150 F960.000 E0.02402
G1 X92.550 Y81.810 E0.05716
G1 X105.050 Y79.310 E0.71548
G1 X105.400 Y79.260 E0.01984
G1 X105.740 Y79.240 E0.01912
G1 X110.250 Y79.240 E0.25313
G1 X110.590 Y79.260 E0.01912
G1 X110.940 Y79.310 E0.01984
G1 X123.440 Y81.810 E0.71548
G1 X124.400 Y82.150 E0.05716
G1 X125.220 Y82.770 E0.05770
G1 X125.840 Y83.590 E0.05770
G1 X126.180 Y84.550 E0.05716
G1 X128.680 Y97.050 E0.71548
G1 X128.730 Y97.400 E0.01984
G1 X128.750 Y97.740 E0.01912
G1 X128.750 Y102.250 E0.25313
G1 X128.730 Y102.590 E0.01912
G1 X128.680 Y102.940 E0.01984
G1 X126.180 Y115.440 E0.71548
G1 X125.840 Y116.400 E0.05716
G1 X125.220 Y117.220 E0.05770
G1 X124.400 Y117.840 E0.05770
G1 X123.440 Y118.180 E0.05716
G1 X110.940 Y120.680 E0.71548
G1 X110.590 Y120.730 E0.01984
G1 X110.250 Y120.750 E0.01912
G1 X105.740 Y120.750 E0.25313
G1 X105.400 Y120.730 E0.01912
G1 X105.050 Y120.680 E0.01984
G1 X92.550 Y118.180 E0.71548
G1 X91.590 Y117.840 E0.05716
G1 X90.770 Y117.220 E0.05770
G1 X90.150 Y116.400 E0.05770
G1 X89.810 Y115.440 E0.05716
G1 X87.310 Y102.940 E0.71548
G1 X87.260 Y102.590 E0.01984
G1 X87.240 Y102.250 E0.01912
G1 X87.240 Y97.740 E0.25313
G1 X87.260 Y97.400 E0.01912
G1 X87.310 Y97.050 E0.01984
G1 X89.810 Y84.550 E0.71548
G1 X90.150 Y83.590 E0.05716
G1 X90.725 Y82.830 E0.05349
G1 X90.770 Y82.770 E0.00421
G1 F2760.000 E-3.20000
G1 X118.265 Y103.250 F15000.000
G1 X118.865 Y103.250 F2760.000 E3.20000
G1 X122.250 Y103.250 F780.000 E0.19001
G1 X122.250 Y114.250 E0.61739
G1 X111.250 Y114.250 E0.61739
G1 X111.250 Y110.260 E0.22392
G1 X113.377 Y109.313 E0.13068
G1 X115.196 Y107.992 E0.12618
G1 X116.700 Y106.321 E0.12619
G1 X117.824 Y104.374 E0.12618
G1 X118.051 Y103.678 E0.04108
G1 X118.265 Y103.250
G1 X117.901 Y102.750 F15000.000
G1 X122.750 Y102.750 F960.000 E0.27214
G1 X122.750 Y114.750 E0.67352
G1 X110.750 Y114.750 E0.67352
G1 X110.750 Y109.838 E0.27567
G1 X111.168 Y109.750 E0.02398
G1 X113.126 Y108.878 E0.12029
G1 X114.860 Y107.618 E0.12029
G1 X116.294 Y106.026 E0.12029
G1 X117.365 Y104.170 E0.12029
G1 X117.680 Y103.202 E0.05712
G1 X117.901 Y102.750
G1 X118.051 Y103.678 F2760.000 E-3.20000
G1 X118.166 Y96.679 F15000.000
G1 X117.981 Y96.108 F2760.000 E3.20000
G1 X117.824 Y95.626 F780.000 E0.02845
G1 X116.700 Y93.679 E0.12619
G1 X115.196 Y92.008 E0.12619
G1 X113.377 Y90.687 E0.12619
G1 X111.250 Y89.740 E0.13068
G1 X111.250 Y85.750 E0.22392
G1 X122.250 Y85.750 E0.61739
G1 X122.250 Y96.750 E0.61739
G1 X118.640 Y96.750 E0.20264
G1 X118.166 Y96.679
G1 X117.803 Y97.179 F15000.000
G1 X117.365 Y95.830 F960.000 E0.07957
G1 X116.294 Y93.974 E0.12029
G1 X114.860 Y92.382 E0.12029
G1 X113.126 Y91.122 E0.12029
G1 X111.168 Y90.250 E0.12029
G1 X110.750 Y90.162 E0.02398
G1 X110.750 Y85.250 E0.27567
G1 X122.750 Y85.250 E0.67352
G1 X122.750 Y97.250 E0.67352
G1 X118.301 Y97.250 E0.24969
G1 X117.803 Y97.179
G1 X118.640 Y96.750 F2760.000 E-3.20000
G1 X104.681 Y89.770 F15000.000
G1 X104.133 Y90.014 F2760.000 E3.20000
G1 X102.623 Y90.687 F780.000 E0.09280
G1 X100.804 Y92.008 E0.12618
G1 X99.300 Y93.679 E0.12619
G1 X98.176 Y95.626 E0.12618
G1 X97.810 Y96.750 E0.06634
G1 X93.750 Y96.750 E0.22789
G1 X93.750 Y85.750 E0.61739
G1 X104.750 Y85.750 E0.61739
G1 X104.750 Y89.290 E0.19867
G1 X104.681 Y89.770
G1 X104.764 Y90.281 F15000.000
G1 X102.874 Y91.122 F960.000 E0.11608
G1 X101.140 Y92.382 E0.12029
G1 X99.706 Y93.974 E0.12029
G1 X98.635 Y95.830 E0.12029
G1 X98.174 Y97.250 E0.08378
G1 X93.250 Y97.250 E0.27635
G1 X93.250 Y85.250 E0.67352
G1 X105.250 Y85.250 E0.67352
G1 X105.250 Y90.114 E0.27298
G1 X104.764 Y90.281
G1 X104.750 Y89.290 F2760.000 E-3.20000
G1 X97.834 Y103.321 F15000.000
G1 X98.019 Y103.892 F2760.000 E3.20000
G1 X98.176 Y104.374 F780.000 E0.02845
G1 X99.300 Y106.321 E0.12618
G1 X100.804 Y107.992 E0.12619
G1 X102.623 Y109.313 E0.12618
G1 X104.750 Y110.260 E0.13068
G1 X104.750 Y114.250 E0.22392
G1 X93.750 Y114.250 E0.61739
G1 X93.750 Y103.250 E0.61739
G1 X97.360 Y103.250 E0.20264
G1 X97.834 Y103.321
G1 X98.197 Y102.821 F15000.000
G1 X98.635 Y104.170 F960.000 E0.07957
G1 X99.706 Y106.026 E0.12029
G1 X101.140 Y107.618 E0.12029
G1 X102.874 Y108.878 E0.12029
G1 X104.832 Y109.750 E0.12029
G1 X105.250 Y109.838 E0.02398
G1 X105.250 Y114.750 E0.27567
G1 X93.250 Y114.750 E0.67352
G1 X93.250 Y102.750 E0.67352
G1 X97.699 Y102.750 E0.24969
G1 X98.197 Y102.821
G1 X97.288 Y103.591 F15000.000
G1 X97.606 Y103.909 F1200.000 E0.02621
G1 X98.113 Y105.149 E0.07795
G1 X96.555 Y103.591 E0.12826
G1 X95.822 Y103.591 E0.04267
G1 X99.466 Y107.235 E0.29992
G1 F2760.000 E-3.20000
G1 X100.778 Y108.548 F15000.000
G1 X101.203 Y108.972 F2760.000 E3.20000
G1 X104.409 Y112.178 F1200.000 E0.26391
G1 X104.409 Y112.912 E0.04267
G1 X95.088 Y103.591 E0.76711
G1 X94.355 Y103.591 E0.04267
G1 X104.409 Y113.645 E0.82745
G1 X103.940 Y113.909 E0.03132
G1 X94.091 Y104.060 E0.81064
G1 X94.091 Y104.793 E0.04267
G1 X103.207 Y113.909 E0.75030
G1 X102.474 Y113.909 E0.04267
G1 X94.091 Y105.526 E0.68996
G1 X94.091 Y106.259 E0.04267
G1 X101.741 Y113.909 E0.62961
G1 X101.008 Y113.909 E0.04267
G1 X94.091 Y106.992 E0.56927
G1 X94.091 Y107.725 E0.04267
G1 X100.275 Y113.909 E0.50893
G1 X99.541 Y113.909 E0.04267
G1 X94.091 Y108.459 E0.44859
G1 X94.091 Y109.192 E0.04267
G1 X98.808 Y113.909 E0.38825
G1 X98.075 Y113.909 E0.04267
G1 X94.091 Y109.925 E0.32791
G1 X94.091 Y110.658 E0.04267
G1 X97.342 Y113.909 E0.26757
G1 X96.609 Y113.909 E0.04267
G1 X94.091 Y111.391 E0.20723
G1 X94.091 Y112.124 E0.04267
G1 X95.876 Y113.909 E0.14689
G1 X95.142 Y113.909 E0.04267
G1 X94.091 Y112.858 E0.08655
G1 X94.091 Y113.591 E0.04267
G1 X94.409 Y113.909 E0.02620
G1 F2760.000 E-3.20000
G1 X102.827 Y109.863 F15000.000
G1 X103.251 Y110.287 F2760.000 E3.20000
G1 X104.409 Y111.445 F1200.000 E0.09529
G1 F2760.000 E-3.20000
G1 X94.409 Y96.409 F15000.000
G1 X94.091 Y96.091 F2760.000 E3.20000
G1 X94.091 Y96.091 F2400.000
G1 X94.091 Y95.377 E0.04050
G1 X95.123 Y96.409 E0.08280
G1 X95.838 Y96.409 E0.04050
G1 X94.091 Y94.662 E0.14007
G1 X94.091 Y93.948 E0.04050
G1 X96.552 Y96.409 E0.19735
G1 X97.266 Y96.409 E0.04050
G1 X94.091 Y93.234 E0.25462
G1 X94.091 Y92.519 E0.04050
G1 X97.698 Y96.127 E0.28924
G1 X97.873 Y95.588 E0.03214
G1 X94.091 Y91.805 E0.30328
G1 X94.091 Y91.091 E0.04050
G1 X98.134 Y95.134 E0.32415
G1 X98.395 Y94.681 E0.02965
G1 X94.091 Y90.377 E0.34512
G1 X94.091 Y89.662 E0.04050
G1 X98.656 Y94.228 E0.36608
G1 X98.918 Y93.775 E0.02965
G1 X94.091 Y88.948 E0.38704
G1 X94.091 Y88.234 E0.04050
G1 X99.217 Y93.360 E0.41101
G1 X99.555 Y92.984 E0.02868
G1 X94.091 Y87.519 E0.43814
G1 X94.091 Y86.805 E0.04050
G1 X99.894 Y92.608 E0.46528
G1 X100.232 Y92.232 E0.02868
G1 X94.091 Y86.091 E0.49241
G1 X94.805 Y86.091 E0.04049
G1 X100.571 Y91.856 E0.46228
G1 X100.972 Y91.543 E0.02885
G1 X95.519 Y86.091 E0.43717
G1 X96.234 Y86.091 E0.04050
G1 X101.385 Y91.243 E0.41307
G1 X101.799 Y90.942 E0.02899
G1 X96.948 Y86.091 E0.38897
G1 X97.662 Y86.091 E0.04050
G1 X102.213 Y90.641 E0.36487
G1 X102.645 Y90.359 E0.02926
G1 X98.377 Y86.091 E0.34227
G1 X99.091 Y86.091 E0.04050
G1 X103.139 Y90.139 E0.32462
G1 X103.634 Y89.919 E0.03067
G1 X99.805 Y86.091 E0.30698
G1 X100.519 Y86.091 E0.04050
G1 X104.128 Y89.699 E0.28934
G1 X104.409 Y89.266 E0.02927
G1 X101.234 Y86.091 E0.25462
G1 X101.948 Y86.091 E0.04050
G1 X104.409 Y88.552 E0.19735
G1 X104.409 Y87.838 E0.04050
G1 X102.662 Y86.091 E0.14007
G1 X103.377 Y86.091 E0.04050
G1 X104.409 Y87.123 E0.08280
G1 X104.409 Y86.409 E0.04050
G1 X104.091 Y86.091 E0.02553
G1 F2760.000 E-3.20000
G1 X111.591 Y86.355 F15000.000
G1 X112.015 Y86.779 F2760.000 E3.20000
G1 X121.645 Y96.409 F1200.000 E0.79254
G1 X121.909 Y95.940 E0.03132
G1 X112.060 Y86.091 E0.81064
G1 X112.793 Y86.091 E0.04267
G1 X121.909 Y95.207 E0.75030
G1 X121.909 Y94.474 E0.04267
G1 X113.526 Y86.091 E0.68996
G1 X114.259 Y86.091 E0.04267
G1 X121.909 Y93.741 E0.62961
G1 X121.909 Y93.008 E0.04267
G1 X114.992 Y86.091 E0.56927
G1 X115.725 Y86.091 E0.04267
G1 X121.909 Y92.275 E0.50893
G1 X121.909 Y91.541 E0.04267
G1 X116.459 Y86.091 E0.44859
G1 X117.192 Y86.091 E0.04267
G1 X121.909 Y90.808 E0.38825
G1 X121.909 Y90.075 E0.04267
G1 X117.925 Y86.091 E0.32791
G1 X118.658 Y86.091 E0.04267
G1 X121.909 Y89.342 E0.26757
G1 X121.909 Y88.609 E0.04267
G1 X119.391 Y86.091 E0.20723
G1 X120.124 Y86.091 E0.04267
G1 X121.909 Y87.876 E0.14689
G1 X121.909 Y87.142 E0.04267
G1 X120.858 Y86.091 E0.08655
G1 X121.591 Y86.091 E0.04267
G1 X121.909 Y86.409 E0.02620
G1 F2760.000 E-3.20000
G1 X118.712 Y96.409 F15000.000
G1 X118.394 Y96.091 F2760.000 E3.20000
G1 X118.394 Y96.091 F2400.000
G1 X119.445 Y96.409 E0.06394
G1 X117.887 Y94.851 E0.12826
G1 X116.534 Y92.765 E0.14467
G1 X120.178 Y96.409 E0.29992
G1 X120.912 Y96.409 E0.04267
G1 X111.591 Y87.088 E0.76711
G1 X111.591 Y87.822 E0.04267
G1 X115.222 Y91.452 E0.29883
G1 X113.173 Y90.137 E0.14170
G1 X111.591 Y88.555 E0.13021
G1 F2760.000 E-3.20000
G1 X121.591 Y103.591 F15000.000
G1 X121.909 Y103.909 F2760.000 E3.20000
G1 X121.909 Y103.909 F2400.000
G1 X121.909 Y104.623 E0.04050
G1 X120.877 Y103.591 E0.08280
G1 X120.162 Y103.591 E0.04050
G1 X121.909 Y105.338 E0.14007
G1 X121.909 Y106.052 E0.04050
G1 X119.448 Y103.591 E0.19735
G1 X118.734 Y103.591 E0.04050
G1 X121.909 Y106.766 E0.25462
G1 X121.909 Y107.481 E0.04050
G1 X118.302 Y103.873 E0.28924
G1 X118.127 Y104.412 E0.03214
G1 X121.909 Y108.195 E0.30328
G1 X121.909 Y108.909 E0.04050
G1 X117.866 Y104.866 E0.32415
G1 X117.605 Y105.319 E0.02965
G1 X121.909 Y109.623 E0.34512
G1 X121.909 Y110.338 E0.04050
G1 X117.344 Y105.772 E0.36608
G1 X117.082 Y106.225 E0.02965
G1 X121.909 Y111.052 E0.38704
G1 X121.909 Y111.766 E0.04050
G1 X116.783 Y106.640 E0.41101
G1 X116.445 Y107.016 E0.02868
G1 X121.909 Y112.481 E0.43814
G1 X121.909 Y113.195 E0.04050
G1 X116.106 Y107.392 E0.46528
G1 X115.768 Y107.768 E0.02868
G1 X121.909 Y113.909 E0.49241
G1 X121.195 Y113.909 E0.04049
G1 X115.429 Y108.144 E0.46228
G1 X115.028 Y108.457 E0.02885
G1 X120.481 Y113.909 E0.43717
G1 X119.766 Y113.909 E0.04050
G1 X114.615 Y108.757 E0.41307
G1 X114.201 Y109.058 E0.02899
G1 X119.052 Y113.909 E0.38897
G1 X118.338 Y113.909 E0.04050
G1 X113.787 Y109.359 E0.36487
G1 X113.355 Y109.641 E0.02926
G1 X117.623 Y113.909 E0.34227
G1 X116.909 Y113.909 E0.04050
G1 X112.861 Y109.861 E0.32462
G1 X112.366 Y110.081 E0.03067
G1 X116.195 Y113.909 E0.30698
G1 X115.481 Y113.909 E0.04050
G1 X111.872 Y110.301 E0.28934
G1 X111.591 Y110.734 E0.02927
G1 X114.766 Y113.909 E0.25462
G1 X114.052 Y113.909 E0.04050
G1 X111.591 Y111.448 E0.19735
G1 X111.591 Y112.162 E0.04050
G1 X113.338 Y113.909 E0.14007
G1 X112.623 Y113.909 E0.04050
G1 X111.591 Y112.877 E0.08280
G1 X111.591 Y113.591 E0.04050
G1 X111.909 Y113.909 E0.02553
G1 F2760.000 E-3.00000
T1
G1 E-3.20000
G1 X109.675 Y116.750 F15000.000
G1 X109.075 Y116.750 F2760.000 E3.20000
G1 X106.250 Y116.750 F780.000 E0.15856
G1 X106.250 Y110.562 E0.34730
G1 X106.876 Y110.695 E0.03591
G1 X109.124 Y110.695 E0.12619
G1 X109.750 Y110.562 E0.03591
G1 X109.750 Y116.300 E0.32204
G1 X109.675 Y116.750
G1 X110.175 Y117.250 F15000.000
G1 X105.750 Y117.250 F780.000 E0.24836
G1 X105.750 Y109.945 E0.41002
G1 X106.928 Y110.195 E0.06762
G1 X109.072 Y110.195 E0.12029
G1 X110.250 Y109.945 E0.06762
G1 X110.250 Y116.775 E0.38336
G1 X110.175 Y117.250
G1 X109.750 Y116.300 F2760.000 E-3.20000
G1 X97.355 Y101.750 F15000.000
G1 X96.755 Y101.750 F2760.000 E3.20000
G1 X91.250 Y101.750 F780.000 E0.30896
G1 X91.250 Y98.250 E0.19644
G1 X97.430 Y98.250 E0.34685
G1 X97.246 Y100.000 E0.09876
G1 X97.383 Y101.302 E0.07351
G1 X97.355 Y101.750
G1 X97.910 Y102.250 F15000.000
G1 X90.750 Y102.250 F780.000 E0.40187
G1 X90.750 Y97.750 E0.25257
G1 X97.985 Y97.750 E0.40608
G1 X97.749 Y100.000 E0.12698
G1 X97.935 Y101.778 E0.10032
G1 X97.910 Y102.250
G1 X97.383 Y101.302 F2760.000 E-3.20000
G1 X106.250 Y89.363 F15000.000
G1 X106.250 Y88.763 F2760.000 E3.20000
G1 X106.250 Y83.250 F780.000 E0.30941
G1 X109.750 Y83.250 E0.19644
G1 X109.750 Y89.438 E0.34730
G1 X109.124 Y89.305 E0.03591
G1 X106.876 Y89.305 E0.12619
G1 X106.690 Y89.344 E0.01066
G1 X106.250 Y89.363
G1 X106.757 Y89.841 F15000.000
G1 X105.750 Y90.055 F780.000 E0.05776
G1 X105.750 Y82.750 E0.41002
G1 X110.250 Y82.750 E0.25257
G1 X110.250 Y90.055 E0.41002
G1 X109.072 Y89.805 E0.06762
G1 X107.303 Y89.809 E0.09924
G1 X106.757 Y89.841
G1 X106.690 Y89.344 F2760.000 E-3.20000
G1 X118.645 Y98.250 F15000.000
G1 X119.245 Y98.250 F2760.000 E3.20000
G1 X124.750 Y98.250 F780.000 E0.30896
G1 X124.750 Y101.750 E0.19644
G1 X118.570 Y101.750 E0.34685
G1 X118.754 Y100.000 E0.09876
G1 X118.617 Y98.698 E0.07351
G1 X118.645 Y98.250
G1 X118.090 Y97.750 F15000.000
G1 X125.250 Y97.750 F780.000 E0.40187
G1 X125.250 Y102.250 E0.25257
G1 X118.015 Y102.250 E0.40608
G1 X118.251 Y100.000 E0.12698
G1 X118.065 Y98.222 E0.10032
G1 X118.090 Y97.750
G1 X118.617 Y98.698 F2760.000 E-3.20000
G1 X109.091 Y111.036 F15000.000
G1 X109.409 Y111.354 F2760.000 E3.20000
G1 X109.409 Y111.354 F2400.000
G1 X109.409 Y112.110 E0.04530
G1 X108.335 Y111.036 E0.09107
G1 X107.580 Y111.036 E0.04530
G1 X109.409 Y112.865 E0.15514
G1 X109.409 Y113.621 E0.04530
G1 X106.824 Y111.036 E0.21921
G1 X106.591 Y111.558 E0.03429
G1 X109.409 Y114.376 E0.23902
G1 X109.409 Y115.132 E0.04530
G1 X106.591 Y112.313 E0.23902
G1 X106.591 Y113.069 E0.04530
G1 X109.409 Y115.887 E0.23902
G1 X109.176 Y116.409 E0.03429
G1 X106.591 Y113.824 E0.21921
G1 X106.591 Y114.580 E0.04530
G1 X108.420 Y116.409 E0.15514
G1 X107.665 Y116.409 E0.04530
G1 X106.591 Y115.335 E0.09107
G1 X106.591 Y116.091 E0.04530
G1 X106.909 Y116.409 E0.02700
G1 F2760.000 E-3.20000
G1 X119.285 Y101.409 F15000.000
G1 X118.966 Y101.091 F2760.000 E3.20000
G1 X118.966 Y101.091 F2400.000
G1 X119.039 Y100.401 E0.04198
G1 X120.047 Y101.409 E0.08630
G1 X120.810 Y101.409 E0.04614
G1 X119.081 Y99.680 E0.14796
G1 X118.991 Y98.828 E0.05185
G1 X121.572 Y101.409 E0.22088
G1 X122.335 Y101.409 E0.04614
G1 X119.516 Y98.591 E0.24122
G1 X120.279 Y98.591 E0.04614
G1 X123.097 Y101.409 E0.24122
G1 X123.859 Y101.409 E0.04614
G1 X121.041 Y98.591 E0.24122
G1 X121.803 Y98.591 E0.04614
G1 X124.409 Y101.197 E0.22302
G1 X124.409 Y100.434 E0.04614
G1 X122.566 Y98.591 E0.15776
G1 X123.328 Y98.591 E0.04614
G1 X124.409 Y99.672 E0.09251
G1 X124.409 Y98.909 E0.04614
G1 X124.091 Y98.591 E0.02725
G1 F2760.000 E-3.20000
G1 X106.909 Y88.964 F15000.000
G1 X106.591 Y88.646 F2760.000 E3.20000
G1 X106.591 Y88.646 F2400.000
G1 X106.591 Y87.890 E0.04530
G1 X107.665 Y88.964 E0.09107
G1 X108.420 Y88.964 E0.04530
G1 X106.591 Y87.135 E0.15514
G1 X106.591 Y86.379 E0.04530
G1 X109.176 Y88.964 E0.21921
G1 X109.409 Y88.442 E0.03429
G1 X106.591 Y85.624 E0.23902
G1 X106.591 Y84.868 E0.04530
G1 X109.409 Y87.687 E0.23902
G1 X109.409 Y86.931 E0.04530
G1 X106.591 Y84.113 E0.23902
G1 X106.824 Y83.591 E0.03429
G1 X109.409 Y86.176 E0.21921
G1 X109.409 Y85.420 E0.04530
G1 X107.580 Y83.591 E0.15514
G1 X108.335 Y83.591 E0.04530
G1 X109.409 Y84.665 E0.09107
G1 X109.409 Y83.909 E0.04530
G1 X109.091 Y83.591 E0.02700
G1 F2760.000 E-3.20000
G1 X96.715 Y98.591 F15000.000
G1 X97.034 Y98.909 F2760.000 E3.20000
G1 X97.034 Y98.909 F2400.000
G1 X96.961 Y99.599 E0.04198
G1 X95.953 Y98.591 E0.08630
G1 X95.190 Y98.591 E0.04614
G1 X96.919 Y100.320 E0.14796
G1 X97.009 Y101.172 E0.05185
G1 X94.428 Y98.591 E0.22088
G1 X93.665 Y98.591 E0.04614
G1 X96.484 Y101.409 E0.24122
G1 X95.721 Y101.409 E0.04614
G1 X92.903 Y98.591 E0.24122
