; generated by Slic3r 0.9.11-dev on 2013-07-11 at 13:47:06

; M-PLA-05-03-1

; layer_height = 0.3
; perimeters = 2
; top_solid_layers = 3
; bottom_solid_layers = 2
; fill_density = 0.2
; perimeter_speed = 32
; infill_speed = 50
; travel_speed = 250
; nozzle_diameter = 0.5
; filament_diameter = 1.75
; extrusion_multiplier = 0.9
; perimeters extrusion width = 0.50mm
; infill extrusion width = 0.50mm
; solid infill extrusion width = 0.50mm
; top infill extrusion width = 0.50mm
; first layer extrusion width = 0.50mm

G21 ; set units to millimeters
M107
M190 S57 ; wait for bed temperature to be reached
G28
G1 Z0.3 F200
G1 X15 Y20 F12000
T0
G92 E0
G1 E5 F100
G1 E0 F2400
T1
G92 E0
G1 E5 F100
G1 E0 F2400
T2
G92 E0
G1 E5 F100
G1 E0 F2400
G92 E0
G90 ; use absolute coordinates
G92 E0
M82 ; use absolute distances for extrusion
T0
G92 E0
G1 Z0.300 F15000.000
G1 X88.680 Y81.590
G1 F2760.000 E5.00000
G1 X89.590 Y80.680 F960.000 E5.07223
G1 X90.690 Y80.010 E5.14452
G1 X91.920 Y79.610 E5.21712
G1 X104.420 Y77.110 E5.93259
G1 X104.960 Y77.030 E5.96323
G1 X105.500 Y77.000 E5.99358
G1 X110.500 Y77.000 E6.27422
G1 X111.040 Y77.030 E6.30457
G1 X111.580 Y77.110 E6.33521
G1 X124.080 Y79.610 E7.05069
G1 X125.310 Y80.010 E7.12328
G1 X126.410 Y80.680 E7.19557
G1 X127.320 Y81.590 E7.26780
G1 X127.990 Y82.690 E7.34009
G1 X128.390 Y83.920 E7.41269
G1 X130.890 Y96.420 E8.12816
G1 X130.970 Y96.960 E8.15880
G1 X131.000 Y97.500 E8.18915
G1 X131.000 Y102.500 E8.46979
G1 X130.970 Y103.040 E8.50014
G1 X130.890 Y103.580 E8.53078
G1 X128.390 Y116.080 E9.24626
G1 X127.990 Y117.310 E9.31885
G1 X127.320 Y118.410 E9.39114
G1 X126.410 Y119.320 E9.46337
G1 X125.310 Y119.990 E9.53566
G1 X124.080 Y120.390 E9.60826
G1 X111.580 Y122.890 E10.32373
G1 X111.040 Y122.970 E10.35437
G1 X110.500 Y123.000 E10.38473
G1 X105.500 Y123.000 E10.66536
G1 X104.960 Y122.970 E10.69571
G1 X104.420 Y122.890 E10.72635
G1 X91.920 Y120.390 E11.44183
G1 X90.690 Y119.990 E11.51442
G1 X89.590 Y119.320 E11.58671
G1 X88.680 Y118.410 E11.65894
G1 X88.010 Y117.310 E11.73123
G1 X87.610 Y116.080 E11.80383
G1 X85.110 Y103.580 E12.51930
G1 X85.030 Y103.040 E12.54994
G1 X85.000 Y102.500 E12.58030
G1 X85.000 Y97.500 E12.86093
G1 X85.030 Y96.960 E12.89128
G1 X85.110 Y96.420 E12.92192
G1 X87.610 Y83.920 E13.63740
G1 X88.010 Y82.690 E13.70999
G1 X88.641 Y81.654 E13.77807
G1 X89.070 Y81.900 F15000.000
G1 X89.900 Y81.070 F960.000 E13.84395
G1 X90.900 Y80.460 E13.90970
G1 X92.020 Y80.100 E13.97573
G1 X104.520 Y77.600 E14.69120
G1 X105.010 Y77.520 E14.71907
G1 X105.500 Y77.500 E14.74659
G1 X110.500 Y77.500 E15.02723
G1 X110.990 Y77.520 E15.05475
G1 X111.480 Y77.600 E15.08262
G1 X123.980 Y80.100 E15.79809
G1 X125.100 Y80.460 E15.86412
G1 X126.100 Y81.070 E15.92987
G1 X126.930 Y81.900 E15.99575
G1 X127.540 Y82.900 E16.06149
G1 X127.900 Y84.020 E16.12752
G1 X130.400 Y96.520 E16.84300
G1 X130.480 Y97.010 E16.87086
G1 X130.500 Y97.500 E16.89839
G1 X130.500 Y102.500 E17.17902
G1 X130.480 Y102.990 E17.20654
G1 X130.400 Y103.480 E17.23441
G1 X127.900 Y115.980 E17.94988
G1 X127.540 Y117.100 E18.01591
G1 X126.930 Y118.100 E18.08166
G1 X126.100 Y118.930 E18.14754
G1 X125.100 Y119.540 E18.21328
G1 X123.980 Y119.900 E18.27931
G1 X111.480 Y122.400 E18.99479
G1 X110.990 Y122.480 E19.02265
G1 X110.500 Y122.500 E19.05018
G1 X105.500 Y122.500 E19.33081
G1 X105.010 Y122.480 E19.35834
G1 X104.520 Y122.400 E19.38620
G1 X92.020 Y119.900 E20.10168
G1 X90.900 Y119.540 E20.16771
G1 X89.900 Y118.930 E20.23345
G1 X89.070 Y118.100 E20.29933
G1 X88.460 Y117.100 E20.36508
G1 X88.100 Y115.980 E20.43111
G1 X85.600 Y103.480 E21.14658
G1 X85.520 Y102.990 E21.17445
G1 X85.500 Y102.500 E21.20197
G1 X85.500 Y97.500 E21.48260
G1 X85.520 Y97.010 E21.51013
G1 X85.600 Y96.520 E21.53800
G1 X88.100 Y84.020 E22.25347
G1 X88.460 Y82.900 E22.31950
G1 X89.031 Y81.964 E22.38104
G1 X89.470 Y82.210 F15000.000
G1 X90.210 Y81.470 F960.000 E22.43977
G1 X91.110 Y80.910 E22.49927
G1 X92.120 Y80.590 E22.55873
G1 X104.620 Y78.090 E23.27421
G1 X105.060 Y78.020 E23.29921
G1 X105.500 Y78.000 E23.32393
G1 X110.500 Y78.000 E23.60457
G1 X110.940 Y78.020 E23.62929
G1 X111.380 Y78.090 E23.65429
G1 X123.880 Y80.590 E24.36977
G1 X124.890 Y80.910 E24.42923
G1 X125.790 Y81.470 E24.48873
G1 X126.530 Y82.210 E24.54747
G1 X127.090 Y83.110 E24.60696
G1 X127.410 Y84.120 E24.66642
G1 X129.910 Y96.620 E25.38190
G1 X129.980 Y97.060 E25.40691
G1 X130.000 Y97.500 E25.43163
G1 X130.000 Y102.500 E25.71226
G1 X129.980 Y102.940 E25.73698
G1 X129.910 Y103.380 E25.76199
G1 X127.410 Y115.880 E26.47746
G1 X127.090 Y116.890 E26.53693
G1 X126.530 Y117.790 E26.59642
G1 X125.790 Y118.530 E26.65516
G1 X124.890 Y119.090 E26.71465
G1 X123.880 Y119.410 E26.77412
G1 X111.380 Y121.910 E27.48959
G1 X110.940 Y121.980 E27.51460
G1 X110.500 Y122.000 E27.53932
G1 X105.500 Y122.000 E27.81995
G1 X105.060 Y121.980 E27.84467
G1 X104.620 Y121.910 E27.86968
G1 X92.120 Y119.410 E28.58515
G1 X91.110 Y119.090 E28.64462
G1 X90.210 Y118.530 E28.70411
G1 X89.470 Y117.790 E28.76285
G1 X88.910 Y116.890 E28.82234
G1 X88.590 Y115.880 E28.88181
G1 X86.090 Y103.380 E29.59728
G1 X86.020 Y102.940 E29.62229
G1 X86.000 Y102.500 E29.64701
G1 X86.000 Y97.500 E29.92764
G1 X86.020 Y97.060 E29.95237
G1 X86.090 Y96.620 E29.97737
G1 X88.590 Y84.120 E30.69285
G1 X88.910 Y83.110 E30.75231
G1 X89.430 Y82.274 E30.80760
G1 F2760.000 E27.60760
G92 E0
G1 X98.176 Y104.374 F15000.000
G1 F2760.000 E3.20000
G1 X99.300 Y106.321 F780.000 E3.32618
G1 X100.804 Y107.992 E3.45237
G1 X102.623 Y109.313 E3.57855
G1 X104.750 Y110.260 E3.70924
G1 X104.750 Y114.250 E3.93316
G1 X93.750 Y114.250 E4.55055
G1 X93.750 Y103.250 E5.16794
G1 X97.810 Y103.250 E5.39584
G1 X98.152 Y104.303 E5.45797
G1 X98.635 Y104.170 F15000.000
G1 X99.706 Y106.026 F960.000 E5.57825
G1 X101.140 Y107.618 E5.69854
G1 X102.874 Y108.878 E5.81882
G1 X104.832 Y109.750 E5.93911
G1 X105.250 Y109.838 E5.96309
G1 X105.250 Y114.750 E6.23875
G1 X93.250 Y114.750 E6.91227
G1 X93.250 Y102.750 E7.58579
G1 X98.174 Y102.750 E7.86214
G1 X98.612 Y104.098 E7.94171
G1 X98.355 Y104.584 F15000.000
G1 F2760.000 E4.74171
G92 E0
G1 X98.176 Y95.626 F15000.000
G1 F2760.000 E3.20000
G1 X97.810 Y96.750 F780.000 E3.26634
G1 X93.750 Y96.750 E3.49423
G1 X93.750 Y85.750 E4.11162
G1 X104.750 Y85.750 E4.72902
G1 X104.750 Y89.740 E4.95294
G1 X102.623 Y90.687 E5.08362
G1 X100.804 Y92.008 E5.20981
G1 X99.300 Y93.679 E5.33599
G1 X98.213 Y95.561 E5.45797
G1 X98.635 Y95.830 F15000.000
G1 X98.174 Y97.250 F960.000 E5.54175
G1 X93.250 Y97.250 E5.81809
G1 X93.250 Y85.250 E6.49161
G1 X105.250 Y85.250 E7.16513
G1 X105.250 Y90.162 E7.44080
G1 X104.832 Y90.250 E7.46477
G1 X102.874 Y91.122 E7.58506
G1 X101.140 Y92.382 E7.70534
G1 X99.706 Y93.974 E7.82563
G1 X98.672 Y95.765 E7.94171
G1 X98.140 Y95.900 F15000.000
G1 F2760.000 E4.74171
G92 E0
G1 X113.377 Y90.687 F15000.000
G1 F2760.000 E3.20000
G1 X111.250 Y89.740 F780.000 E3.33068
G1 X111.250 Y85.750 E3.55461
G1 X122.250 Y85.750 E4.17200
G1 X122.250 Y96.750 E4.78939
G1 X118.190 Y96.750 E5.01728
G1 X117.824 Y95.626 E5.08362
G1 X116.700 Y93.679 E5.20981
G1 X115.196 Y92.008 E5.33599
G1 X113.438 Y90.731 E5.45797
G1 X113.126 Y91.122 F15000.000
G1 X111.168 Y90.250 F960.000 E5.57825
G1 X110.750 Y90.162 E5.60223
G1 X110.750 Y85.250 E5.87790
G1 X122.750 Y85.250 E6.55141
G1 X122.750 Y97.250 E7.22493
G1 X117.826 Y97.250 E7.50128
G1 X117.365 Y95.830 E7.58506
G1 X116.294 Y93.974 E7.70534
G1 X114.860 Y92.382 E7.82563
G1 X113.186 Y91.166 E7.94171
G1 X113.108 Y90.622 F15000.000
G1 F2760.000 E4.74171
G92 E0
G1 X117.824 Y104.374 F15000.000
G1 F2760.000 E3.20000
G1 X118.190 Y103.250 F780.000 E3.26634
G1 X122.250 Y103.250 E3.49423
G1 X122.250 Y114.250 E4.11162
G1 X111.250 Y114.250 E4.72902
G1 X111.250 Y110.260 E4.95294
G1 X113.377 Y109.313 E5.08362
G1 X115.196 Y107.992 E5.20981
G1 X116.700 Y106.321 E5.33599
G1 X117.787 Y104.439 E5.45797
G1 X117.365 Y104.170 F15000.000
G1 X117.826 Y102.750 F960.000 E5.54175
G1 X122.750 Y102.750 E5.81809
G1 X122.750 Y114.750 E6.49161
G1 X110.750 Y114.750 E7.16513
G1 X110.750 Y109.838 E7.44080
G1 X111.168 Y109.750 E7.46477
G1 X113.126 Y108.878 E7.58506
G1 X114.860 Y107.618 E7.70534
G1 X116.294 Y106.026 E7.82563
G1 X117.328 Y104.235 E7.94171
G1 X117.860 Y104.100 F15000.000
G1 F2760.000 E4.74171
G92 E0
G1 X104.388 Y110.530 F15000.000
G1 F2760.000 E3.20000
G1 X104.326 Y110.468 F1200.000 E3.20487
G1 X103.052 Y109.901 F15000.000
G1 X104.388 Y111.237 F1200.000 E3.31091
G1 X104.388 Y111.944 E3.35060
G1 X101.094 Y108.651 E3.61200
G1 F2760.000 E0.41200
G92 E0
G1 X99.240 Y106.796 F15000.000
G1 F2760.000 E3.20000
G1 X96.056 Y103.612 F1200.000 E3.45272
G1 X95.349 Y103.612 E3.49241
G1 X104.388 Y112.651 E4.20985
G1 X104.388 Y113.358 E4.24954
G1 X94.642 Y103.612 E5.02311
G1 X94.112 Y103.790 E5.05446
G1 X104.210 Y113.888 E5.85595
G1 X103.503 Y113.888 E5.89564
G1 X94.112 Y104.497 E6.64100
G1 X94.112 Y105.204 E6.68069
G1 X102.796 Y113.888 E7.36993
G1 X102.089 Y113.888 E7.40962
G1 X94.112 Y105.911 E8.04273
G1 X94.112 Y106.618 E8.08242
G1 X101.382 Y113.888 E8.65941
G1 X100.674 Y113.888 E8.69909
G1 X94.112 Y107.326 E9.21995
G1 X94.112 Y108.033 E9.25964
G1 X99.967 Y113.888 E9.72438
G1 X99.260 Y113.888 E9.76406
G1 X94.112 Y108.740 E10.17267
G1 X94.112 Y109.447 E10.21236
G1 X98.553 Y113.888 E10.56484
G1 X97.846 Y113.888 E10.60453
G1 X94.112 Y110.154 E10.90088
G1 X94.112 Y110.861 E10.94057
G1 X97.139 Y113.888 E11.18080
G1 X96.432 Y113.888 E11.22048
G1 X94.112 Y111.568 E11.40459
G1 X94.112 Y112.275 E11.44427
G1 X95.725 Y113.888 E11.57225
G1 X95.018 Y113.888 E11.61194
G1 X94.112 Y112.982 E11.68379
G1 X94.112 Y113.690 E11.72347
G1 X94.310 Y113.888 E11.73920
G1 F2760.000 E8.53920
G92 E0
G1 X98.074 Y104.924 F15000.000
G1 F2760.000 E3.20000
G1 X96.763 Y103.612 F1200.000 E3.30409
G1 X97.470 Y103.612 E3.34378
G1 X97.584 Y103.726 E3.35281
G1 F2760.000 E0.15281
G92 E0
G1 X94.488 Y96.388 F15000.000
G1 F2760.000 E3.20000
G1 X94.112 Y96.012 F1200.000 E3.22982
G1 X94.112 Y95.305 E3.26951
G1 X95.195 Y96.388 E3.35546
G1 X95.902 Y96.388 E3.39515
G1 X94.112 Y94.598 E3.53723
G1 X94.112 Y93.891 E3.57692
G1 X96.609 Y96.388 E3.77512
G1 X97.317 Y96.388 E3.81481
G1 X94.112 Y93.183 E4.06914
G1 X94.112 Y92.476 E4.10883
G1 X97.664 Y96.028 E4.39073
G1 X97.837 Y95.494 E4.42223
G1 X94.112 Y91.769 E4.71790
G1 X94.112 Y91.062 E4.75758
G1 X98.094 Y95.043 E5.07359
G1 X98.352 Y94.595 E5.10264
G1 X94.112 Y90.355 E5.43919
G1 X94.112 Y89.648 E5.47888
G1 X98.611 Y94.147 E5.83597
G1 X98.870 Y93.698 E5.86502
G1 X94.112 Y88.941 E6.24266
G1 X94.112 Y88.234 E6.28234
G1 X99.165 Y93.287 E6.68342
G1 X99.500 Y92.915 E6.71152
G1 X94.112 Y87.527 E7.13918
G1 X94.112 Y86.819 E7.17887
G1 X99.835 Y92.542 E7.63313
G1 X100.170 Y92.170 E7.66123
G1 X94.112 Y86.112 E8.14208
G1 X94.819 Y86.112 E8.18177
G1 X100.505 Y91.798 E8.63309
G1 X100.903 Y91.489 E8.66137
G1 X95.527 Y86.112 E9.08810
G1 X96.234 Y86.112 E9.12778
G1 X101.312 Y91.191 E9.53089
G1 X101.722 Y90.893 E9.55931
G1 X96.941 Y86.112 E9.93880
G1 X97.648 Y86.112 E9.97849
G1 X102.131 Y90.596 E10.33436
G1 X102.560 Y90.318 E10.36306
G1 X98.355 Y86.112 E10.69686
G1 X99.062 Y86.112 E10.73655
G1 X103.050 Y90.100 E11.05306
G1 X103.539 Y89.882 E11.08312
G1 X99.769 Y86.112 E11.38235
G1 X100.476 Y86.112 E11.42203
G1 X104.028 Y89.664 E11.70397
G1 X104.388 Y89.317 E11.73203
G1 X101.183 Y86.112 E11.98636
G1 X101.891 Y86.112 E12.02605
G1 X104.388 Y88.609 E12.22426
G1 X104.388 Y87.902 E12.26394
G1 X102.598 Y86.112 E12.40602
G1 X103.305 Y86.112 E12.44571
G1 X104.388 Y87.195 E12.53166
G1 X104.388 Y86.488 E12.57135
G1 X104.012 Y86.112 E12.60117
G1 F2760.000 E9.40117
G92 E0
G1 X111.612 Y86.642 F15000.000
G1 F2760.000 E3.20000
G1 X121.358 Y96.388 F1200.000 E3.97357
G1 X121.888 Y96.210 E4.00492
G1 X111.790 Y86.112 E4.80641
G1 X112.497 Y86.112 E4.84610
G1 X121.888 Y95.503 E5.59146
G1 X121.888 Y94.796 E5.63115
G1 X113.204 Y86.112 E6.32039
G1 X113.911 Y86.112 E6.36008
G1 X121.888 Y94.089 E6.99319
G1 X121.888 Y93.382 E7.03288
G1 X114.618 Y86.112 E7.60986
G1 X115.326 Y86.112 E7.64955
G1 X121.888 Y92.674 E8.17041
G1 X121.888 Y91.967 E8.21010
G1 X116.033 Y86.112 E8.67483
G1 X116.740 Y86.112 E8.71452
G1 X121.888 Y91.260 E9.12313
G1 X121.888 Y90.553 E9.16282
G1 X117.447 Y86.112 E9.51530
G1 X118.154 Y86.112 E9.55498
G1 X121.888 Y89.846 E9.85134
G1 X121.888 Y89.139 E9.89103
G1 X118.861 Y86.112 E10.13125
G1 X119.568 Y86.112 E10.17094
G1 X121.888 Y88.432 E10.35504
G1 X121.888 Y87.725 E10.39473
G1 X120.275 Y86.112 E10.52271
G1 X120.982 Y86.112 E10.56239
G1 X121.888 Y87.018 E10.63424
G1 X121.888 Y86.310 E10.67393
G1 X121.690 Y86.112 E10.68965
G1 F2760.000 E7.48965
G92 E0
G1 X114.906 Y91.349 F15000.000
G1 F2760.000 E3.20000
G1 X111.612 Y88.056 F1200.000 E3.46140
G1 X111.612 Y87.349 E3.50109
G1 X120.651 Y96.388 E4.21854
G1 X119.944 Y96.388 E4.25822
G1 X116.760 Y93.204 E4.51095
G1 F2760.000 E1.31095
G92 E0
G1 X117.925 Y95.076 F15000.000
G1 F2760.000 E3.20000
G1 X119.237 Y96.388 F1200.000 E3.30409
G1 X118.416 Y96.274 E3.35061
G1 X118.530 Y96.388 E3.35964
G1 F2760.000 E0.15964
G92 E0
G1 X112.948 Y90.099 F15000.000
G1 F2760.000 E3.20000
G1 X111.612 Y88.763 F1200.000 E3.30604
G1 X111.612 Y89.470 E3.34573
G1 X111.674 Y89.532 E3.35060
G1 F2760.000 E0.15060
G92 E0
G1 X121.512 Y103.612 F15000.000
G1 F2760.000 E3.20000
G1 X121.888 Y103.988 F1200.000 E3.22982
G1 X121.888 Y104.695 E3.26951
G1 X120.805 Y103.612 E3.35546
G1 X120.098 Y103.612 E3.39515
G1 X121.888 Y105.402 E3.53723
G1 X121.888 Y106.109 E3.57692
G1 X119.391 Y103.612 E3.77512
G1 X118.683 Y103.612 E3.81481
G1 X121.888 Y106.817 E4.06914
G1 X121.888 Y107.524 E4.10883
G1 X118.336 Y103.972 E4.39073
G1 X118.163 Y104.506 E4.42223
G1 X121.888 Y108.231 E4.71790
G1 X121.888 Y108.938 E4.75759
G1 X117.906 Y104.957 E5.07359
G1 X117.648 Y105.405 E5.10264
G1 X121.888 Y109.645 E5.43919
G1 X121.888 Y110.352 E5.47888
G1 X117.389 Y105.853 E5.83597
G1 X117.130 Y106.302 E5.86502
G1 X121.888 Y111.059 E6.24266
G1 X121.888 Y111.766 E6.28235
G1 X116.835 Y106.713 E6.68342
G1 X116.500 Y107.085 E6.71152
G1 X121.888 Y112.473 E7.13919
G1 X121.888 Y113.181 E7.17888
G1 X116.165 Y107.458 E7.63314
G1 X115.830 Y107.830 E7.66124
G1 X121.888 Y113.888 E8.14209
G1 X121.181 Y113.888 E8.18178
G1 X115.495 Y108.202 E8.63309
G1 X115.097 Y108.511 E8.66137
G1 X120.473 Y113.888 E9.08810
G1 X119.766 Y113.888 E9.12779
G1 X114.688 Y108.809 E9.53090
G1 X114.278 Y109.107 E9.55932
G1 X119.059 Y113.888 E9.93881
G1 X118.352 Y113.888 E9.97850
G1 X113.869 Y109.404 E10.33437
G1 X113.440 Y109.682 E10.36307
G1 X117.645 Y113.888 E10.69687
G1 X116.938 Y113.888 E10.73656
G1 X112.950 Y109.900 E11.05307
G1 X112.461 Y110.118 E11.08313
G1 X116.231 Y113.888 E11.38236
G1 X115.524 Y113.888 E11.42205
G1 X111.972 Y110.336 E11.70398
G1 X111.612 Y110.683 E11.73204
G1 X114.817 Y113.888 E11.98638
G1 X114.109 Y113.888 E12.02606
G1 X111.612 Y111.391 E12.22427
G1 X111.612 Y112.098 E12.26395
G1 X113.402 Y113.888 E12.40603
G1 X112.695 Y113.888 E12.44572
G1 X111.612 Y112.805 E12.53167
G1 X111.612 Y113.512 E12.57136
G1 X111.988 Y113.888 E12.60118
G1 F2760.000 E7.60118
G92 E0
G1 X5 Y5 F12000
T1
G92 E0
G1 X109.124 Y110.695 F15000.000
G1 F2760.000 E5.00000
G1 X109.750 Y110.562 F780.000 E5.03591
G1 X109.750 Y116.750 E5.38321
G1 X106.250 Y116.750 E5.57966
G1 X106.250 Y110.562 E5.92696
G1 X106.876 Y110.695 E5.96287
G1 X109.049 Y110.695 E6.08485
G1 X109.072 Y110.195 F15000.000
G1 X110.250 Y109.945 F780.000 E6.15247
G1 X110.250 Y117.250 E6.56248
G1 X105.750 Y117.250 E6.81505
G1 X105.750 Y109.945 E7.22507
G1 X106.928 Y110.195 E7.29269
G1 X108.997 Y110.195 E7.40877
G1 X109.379 Y110.589 F15000.000
G1 F2760.000 E4.20877
G92 E0
G1 X97.246 Y100.000 F15000.000
G1 F2760.000 E3.20000
G1 X97.430 Y101.750 F780.000 E3.29876
G1 X91.250 Y101.750 E3.64561
G1 X91.250 Y98.250 E3.84206
G1 X97.430 Y98.250 E4.18891
G1 X97.254 Y99.925 E4.28346
G1 X97.749 Y100.000 F15000.000
G1 X97.985 Y102.250 F780.000 E4.41044
G1 X90.750 Y102.250 E4.81652
G1 X90.750 Y97.750 E5.06909
G1 X97.985 Y97.750 E5.47517
G1 X97.756 Y99.925 E5.59794
G1 X97.325 Y100.265 F15000.000
G1 F2760.000 E2.39794
G92 E0
G1 X106.876 Y89.305 F15000.000
G1 F2760.000 E3.20000
G1 X106.250 Y89.438 F780.000 E3.23591
