; generated by Slic3r 0.9.8-dev on 2013-01-02 at 14:53:11

; layer_height = 0.3
; perimeters = 2
; top_solid_layers = 3
; bottom_solid_layers = 2
; fill_density = 0.2
; perimeter_speed = 32
; infill_speed = 50
; travel_speed = 250
; scale = 1
; nozzle_diameter = 0.5
; filament_diameter = 1.75
; extrusion_multiplier = 0.9
; perimeters extrusion width = 0.50mm
; infill extrusion width = 0.50mm
; support material extrusion width = 0.20mm
; first layer extrusion width = 0.50mm

M107
M190 S57 ; wait for bed temperature to be reached
M104 S200 ; set temperature
G28 X0 Y0
G1 X75 Y75 F12000
G28 Z0
G1 Z0.3 F200
G1 X15 Y20 F12000
M109 S200 ; wait for temperature to be reached
G90 ; use absolute coordinates
G21 ; set units to millimeters
M83 ; use relative distances for extrusion
G1 F2760.000 E-3.20000
G1 Z0.300 F15000.000
G1 X83.257 Y79.093
G1 X83.681 Y78.669 F2760.000 E3.20000
G1 X83.847 Y78.503 F960.000 E0.01316
G1 X111.727 Y52.123 E2.15426
G1 X112.447 Y51.533 E0.05225
G1 X113.457 Y50.823 E0.06929
G1 X113.867 Y50.573 E0.02695
G1 X115.207 Y49.943 E0.08311
G1 X116.247 Y49.563 E0.06215
G1 X117.217 Y49.303 E0.05636
G1 X118.317 Y49.113 E0.06265
G1 X119.327 Y49.023 E0.05691
G1 X119.907 Y48.993 E0.03260
G1 X129.247 Y48.993 E0.52422
G1 X129.767 Y49.013 E0.02921
G1 X130.287 Y49.073 E0.02938
G1 X130.547 Y49.123 E0.01486
G1 X131.307 Y49.323 E0.04411
G1 X131.797 Y49.513 E0.02950
G1 X132.267 Y49.733 E0.02913
G1 X132.937 Y50.143 E0.04409
G1 X133.557 Y50.623 E0.04401
G1 X134.117 Y51.183 E0.04445
G1 X134.447 Y51.593 E0.02954
G1 X134.597 Y51.803 E0.01448
G1 X135.007 Y52.473 E0.04409
G1 X135.227 Y52.943 E0.02913
G1 X135.417 Y53.433 E0.02950
G1 X135.557 Y53.933 E0.02914
G1 X135.667 Y54.453 E0.02983
G1 X135.727 Y54.973 E0.02938
G1 X135.747 Y55.493 E0.02921
G1 X135.747 Y144.493 E4.99526
G1 X135.727 Y145.013 E0.02921
G1 X135.667 Y145.533 E0.02938
G1 X135.557 Y146.053 E0.02983
G1 X135.417 Y146.553 E0.02914
G1 X135.327 Y146.793 E0.01439
G1 X135.117 Y147.283 E0.02992
G1 X134.877 Y147.743 E0.02912
G1 X134.447 Y148.393 E0.04374
G1 X134.117 Y148.803 E0.02954
G1 X133.557 Y149.363 E0.04445
G1 X133.147 Y149.693 E0.02954
G1 X132.937 Y149.843 E0.01448
G1 X132.267 Y150.253 E0.04409
G1 X131.797 Y150.473 E0.02913
G1 X131.307 Y150.663 E0.02950
G1 X130.807 Y150.803 E0.02914
G1 X130.287 Y150.913 E0.02983
G1 X129.767 Y150.973 E0.02938
G1 X129.247 Y150.993 E0.02921
G1 X124.747 Y150.993 E0.25257
G1 X124.187 Y150.973 E0.03145
G1 X123.917 Y150.943 E0.01525
G1 X123.097 Y150.783 E0.04689
G1 X122.557 Y150.613 E0.03177
G1 X121.797 Y150.283 E0.04650
G1 X121.307 Y150.013 E0.03140
G1 X83.077 Y123.853 E2.59998
G1 X82.637 Y123.533 E0.03054
G1 X82.227 Y123.163 E0.03100
G1 X81.847 Y122.763 E0.03097
G1 X81.507 Y122.343 E0.03033
G1 X81.197 Y121.883 E0.03113
G1 X80.937 Y121.403 E0.03064
G1 X80.707 Y120.903 E0.03089
G1 X80.527 Y120.383 E0.03088
G1 X80.387 Y119.853 E0.03077
G1 X80.337 Y119.583 E0.01541
G1 X80.267 Y119.043 E0.03056
G1 X80.247 Y118.493 E0.03089
G1 X80.247 Y86.753 E1.78145
G1 X80.267 Y86.203 E0.03089
G1 X80.337 Y85.373 E0.04675
G1 X80.397 Y84.903 E0.02659
G1 X80.487 Y84.433 E0.02686
G1 X80.767 Y83.403 E0.05991
G1 X81.147 Y82.373 E0.06162
G1 X81.497 Y81.623 E0.04645
G1 X82.037 Y80.673 E0.06133
G1 X82.647 Y79.803 E0.05964
G1 X82.937 Y79.443 E0.02595
G1 X83.205 Y79.148 E0.02241
G1 X83.257 Y79.093 E0.00421
G1 F2760.000 E-3.20000
G1 X98.558 Y104.485 F15000.000
G1 X98.558 Y105.085 F2760.000 E3.20000
G1 X98.558 Y115.674 F600.000 E0.68765
G1 X102.532 Y118.809 E0.32877
G1 X102.558 Y118.809 F15000.000
G1 X102.558 Y101.784 F600.000 E1.10569
G1 X102.642 Y101.753 F15000.000
G1 X106.489 Y100.995 F600.000 E0.25466
G1 X106.558 Y101.000 F15000.000
G1 X106.558 Y118.832 F600.000 E1.15801
G1 X107.778 Y118.839 F15000.000
G1 X109.740 Y118.818 F600.000 E0.12743
G1 X110.558 Y118.790 F15000.000
G1 X110.558 Y102.187 F600.000 E1.07821
G1 X110.569 Y102.192 F15000.000
G1 X114.558 Y107.493 F600.000 E0.43080
G1 X114.558 Y113.868 E0.41402
G1 F2760.000 E-3.20000
G1 X115.068 Y119.203 F15000.000
G1 X115.068 Y118.988 F2760.000 E3.20000
G1 X115.068 Y118.988 F1200.000
G1 F2760.000 E-3.20000
G1 X119.068 Y118.998 F15000.000
G1 X119.068 Y119.598 F2760.000 E3.20000
G1 X119.068 Y126.131 F600.000 E0.42430
G1 X123.068 Y133.059 E0.51954
G1 X123.068 Y119.007 E0.91258
G1 F2760.000 E-3.20000
G1 X118.993 Y66.281 F15000.000
G1 X118.732 Y66.281 F2760.000 E3.20000
G1 X118.732 Y66.281 F1560.000
G1 X118.400 Y66.226 E0.01889
G1 X118.081 Y66.117 E0.01889
G1 X117.785 Y65.956 E0.01890
G1 X117.519 Y65.750 E0.01889
G1 X117.291 Y65.502 E0.01889
G1 X117.107 Y65.220 E0.01889
G1 X116.972 Y64.912 E0.01890
G1 X116.889 Y64.585 E0.01890
G1 X116.863 Y64.266 E0.01799
G1 X116.863 Y61.234 E0.17018
G1 X116.889 Y60.915 E0.01799
G1 X116.972 Y60.588 E0.01890
G1 X117.107 Y60.280 E0.01889
G1 X117.291 Y59.998 E0.01889
G1 X117.520 Y59.750 E0.01890
G1 X117.785 Y59.544 E0.01889
G1 X118.081 Y59.383 E0.01890
G1 X118.400 Y59.274 E0.01890
G1 X118.732 Y59.219 E0.01889
G1 X119.068 Y59.219 E0.01890
G1 X119.400 Y59.274 E0.01889
G1 X119.719 Y59.383 E0.01890
G1 X120.015 Y59.544 E0.01890
G1 X120.281 Y59.750 E0.01889
G1 X120.508 Y59.998 E0.01889
G1 X120.693 Y60.280 E0.01889
G1 X120.828 Y60.588 E0.01890
G1 X120.910 Y60.914 E0.01889
G1 X120.937 Y61.234 E0.01799
G1 X120.937 Y64.266 E0.17018
G1 X120.910 Y64.585 E0.01799
G1 X120.828 Y64.912 E0.01889
G1 X120.693 Y65.220 E0.01890
G1 X120.508 Y65.502 E0.01889
G1 X120.281 Y65.750 E0.01889
G1 X120.015 Y65.956 E0.01890
G1 X119.719 Y66.117 E0.01890
G1 X119.400 Y66.226 E0.01890
G1 X119.142 Y66.269 E0.01468
G1 X118.993 Y66.281 E0.00839
G1 X119.179 Y66.768 F2760.000 E-3.20000
G1 X118.975 Y85.218 F15000.000
G1 X119.254 Y85.243 F2760.000 E3.20000
G1 X119.254 Y85.243 F1560.000
G1 X119.597 Y85.334 E0.01994
G1 X119.919 Y85.485 E0.01995
G1 X120.210 Y85.688 E0.01994
G1 X120.462 Y85.940 E0.01995
G1 X120.665 Y86.231 E0.01994
G1 X120.816 Y86.553 E0.01994
G1 X120.907 Y86.896 E0.01994
G1 X120.937 Y87.233 E0.01899
G1 X120.937 Y90.266 E0.17023
G1 X120.910 Y90.585 E0.01799
G1 X120.828 Y90.912 E0.01890
G1 X120.693 Y91.220 E0.01889
G1 X120.508 Y91.502 E0.01889
G1 X120.281 Y91.750 E0.01889
G1 X120.015 Y91.956 E0.01889
G1 X119.719 Y92.117 E0.01890
G1 X119.400 Y92.226 E0.01890
G1 X119.068 Y92.281 E0.01889
G1 X118.732 Y92.281 E0.01890
G1 X118.400 Y92.226 E0.01889
G1 X118.081 Y92.117 E0.01889
G1 X117.785 Y91.956 E0.01890
G1 X117.519 Y91.750 E0.01889
G1 X117.291 Y91.502 E0.01890
G1 X117.107 Y91.220 E0.01889
G1 X116.972 Y90.912 E0.01889
G1 X116.889 Y90.585 E0.01890
G1 X116.863 Y90.266 E0.01799
G1 X116.863 Y87.233 E0.17022
G1 X116.893 Y86.896 E0.01899
G1 X116.984 Y86.553 E0.01994
G1 X117.135 Y86.231 E0.01995
G1 X117.338 Y85.940 E0.01994
G1 X117.590 Y85.688 E0.01995
G1 X117.881 Y85.485 E0.01994
G1 X118.203 Y85.334 E0.01995
G1 X118.546 Y85.243 E0.01994
G1 X118.825 Y85.218 E0.01573
G1 X118.975 Y85.218 E0.00839
G1 X118.834 Y84.718 F2760.000 E-3.20000
G1 X94.937 Y87.308 F15000.000
G1 X94.937 Y87.908 F2760.000 E3.20000
G1 X94.937 Y90.266 F780.000 E0.13234
G1 X94.911 Y90.586 E0.01799
G1 X94.828 Y90.912 E0.01890
G1 X94.693 Y91.220 E0.01889
G1 X94.509 Y91.502 E0.01889
G1 X94.280 Y91.750 E0.01890
G1 X94.015 Y91.956 E0.01889
G1 X93.719 Y92.117 E0.01890
G1 X93.400 Y92.226 E0.01889
G1 X93.068 Y92.281 E0.01890
G1 X92.732 Y92.281 E0.01890
G1 X92.400 Y92.226 E0.01889
G1 X92.081 Y92.117 E0.01889
G1 X91.785 Y91.956 E0.01890
G1 X91.519 Y91.750 E0.01889
G1 X91.291 Y91.502 E0.01890
G1 X91.107 Y91.220 E0.01889
G1 X90.972 Y90.912 E0.01889
G1 X90.889 Y90.586 E0.01890
G1 X90.863 Y90.266 E0.01799
G1 X90.863 Y87.233 E0.17023
G1 X90.893 Y86.896 E0.01899
G1 X90.984 Y86.553 E0.01994
G1 X91.135 Y86.231 E0.01995
G1 X91.338 Y85.940 E0.01994
G1 X91.590 Y85.688 E0.01995
G1 X91.881 Y85.485 E0.01994
G1 X92.203 Y85.334 E0.01995
G1 X92.546 Y85.243 E0.01994
G1 X92.900 Y85.212 E0.01994
G1 X93.254 Y85.243 E0.01994
G1 X93.597 Y85.334 E0.01994
G1 X93.919 Y85.485 E0.01995
G1 X94.210 Y85.688 E0.01994
G1 X94.462 Y85.940 E0.01995
G1 X94.665 Y86.231 E0.01994
G1 X94.816 Y86.553 E0.01995
G1 X94.907 Y86.896 E0.01994
G1 X94.930 Y87.158 E0.01478
G1 X94.937 Y87.308 E0.00841
G1 X95.430 Y87.136 F15000.000
G1 X95.402 Y86.809 F960.000 E0.01845
G1 X95.132 Y85.801 E0.05854
G1 X96.791 Y87.533 E0.13458
G1 X98.591 Y88.882 E0.12630
G1 X100.588 Y89.919 E0.12630
G1 X102.728 Y90.616 E0.12630
G1 X104.952 Y90.955 E0.12629
G1 X107.202 Y90.926 E0.12629
G1 X109.418 Y90.530 E0.12630
G1 X111.538 Y89.777 E0.12630
G1 X113.508 Y88.689 E0.12629
G1 X115.273 Y87.293 E0.12630
G1 X116.684 Y85.741 E0.11774
G1 X116.398 Y86.809 E0.06203
G1 X116.363 Y87.211 E0.02268
G1 X116.363 Y90.287 E0.17260
G1 X116.395 Y90.668 E0.02148
G1 X116.498 Y91.075 E0.02355
G1 X116.666 Y91.459 E0.02354
G1 X116.896 Y91.810 E0.02354
G1 X117.180 Y92.119 E0.02354
G1 X117.511 Y92.376 E0.02354
G1 X117.880 Y92.576 E0.02355
G1 X118.276 Y92.712 E0.02354
G1 X118.690 Y92.781 E0.02354
G1 X119.110 Y92.781 E0.02356
G1 X119.524 Y92.712 E0.02354
G1 X119.920 Y92.576 E0.02354
G1 X120.289 Y92.376 E0.02355
G1 X120.620 Y92.119 E0.02355
G1 X120.904 Y91.810 E0.02354
G1 X121.134 Y91.459 E0.02354
G1 X121.302 Y91.075 E0.02354
G1 X121.405 Y90.668 E0.02355
G1 X121.437 Y90.287 E0.02148
G1 X121.437 Y87.211 E0.17262
G1 X121.402 Y86.809 E0.02267
G1 X121.287 Y86.381 E0.02485
G1 X121.100 Y85.980 E0.02485
G1 X120.846 Y85.617 E0.02485
G1 X120.533 Y85.304 E0.02486
G1 X120.170 Y85.050 E0.02485
G1 X119.769 Y84.863 E0.02485
G1 X119.341 Y84.748 E0.02485
G1 X118.900 Y84.710 E0.02485
G1 X118.459 Y84.748 E0.02485
G1 X118.031 Y84.863 E0.02485
G1 X116.958 Y85.363 E0.06645
G1 X118.008 Y83.739 E0.10857
G1 X118.905 Y81.675 E0.12630
G1 X119.453 Y79.493 E0.12629
G1 X119.635 Y77.281 E0.12456
G1 X119.635 Y74.222 E0.17170
G1 X119.481 Y72.181 E0.11485
G1 X119.014 Y70.160 E0.11644
G1 X118.249 Y68.231 E0.11644
G1 X117.003 Y66.102 E0.13845
G1 X117.880 Y66.576 E0.05592
G1 X118.276 Y66.712 E0.02354
G1 X118.690 Y66.781 E0.02354
G1 X119.110 Y66.781 E0.02356
G1 X119.524 Y66.712 E0.02354
G1 X119.920 Y66.576 E0.02354
G1 X120.289 Y66.376 E0.02355
G1 X120.620 Y66.119 E0.02355
G1 X120.904 Y65.810 E0.02354
G1 X121.134 Y65.459 E0.02354
G1 X121.302 Y65.075 E0.02355
G1 X121.405 Y64.668 E0.02354
G1 X121.437 Y64.287 E0.02148
G1 X121.437 Y61.213 E0.17250
G1 X121.405 Y60.832 E0.02148
G1 X121.302 Y60.425 E0.02354
G1 X121.134 Y60.041 E0.02355
G1 X120.904 Y59.690 E0.02354
G1 X120.620 Y59.381 E0.02354
G1 X120.289 Y59.124 E0.02355
G1 X119.920 Y58.924 E0.02355
G1 X119.523 Y58.788 E0.02355
G1 X119.110 Y58.719 E0.02354
G1 X118.690 Y58.719 E0.02355
G1 X118.277 Y58.788 E0.02354
G1 X117.880 Y58.924 E0.02355
G1 X117.511 Y59.124 E0.02355
G1 X117.180 Y59.381 E0.02354
G1 X116.896 Y59.690 E0.02355
G1 X116.666 Y60.041 E0.02354
G1 X116.498 Y60.425 E0.02354
G1 X116.395 Y60.832 E0.02355
G1 X116.363 Y61.213 E0.02148
G1 X116.363 Y64.287 E0.17250
G1 X116.395 Y64.668 E0.02148
G1 X116.680 Y65.796 E0.06533
G1 X115.896 Y64.827 E0.06995
G1 X114.650 Y63.691 E0.09468
G1 X114.650 Y61.283 E0.13516
G1 X114.733 Y60.339 E0.05318
G1 X114.969 Y59.455 E0.05133
G1 X115.356 Y58.626 E0.05134
G1 X115.880 Y57.877 E0.05133
G1 X116.527 Y57.230 E0.05134
G1 X117.276 Y56.706 E0.05133
G1 X118.105 Y56.319 E0.05134
G1 X118.989 Y56.083 E0.05133
G1 X119.933 Y56.000 E0.05318
G1 X128.750 Y56.000 E0.49488
G1 X128.750 Y144.000 E4.93913
G1 X125.250 Y144.000 E0.19644
G1 X125.250 Y120.217 E1.33484
G1 X125.219 Y119.859 E0.02020
G1 X125.117 Y119.480 E0.02204
G1 X124.951 Y119.124 E0.02204
G1 X124.726 Y118.802 E0.02204
G1 X124.448 Y118.524 E0.02205
G1 X124.126 Y118.299 E0.02204
G1 X123.771 Y118.133 E0.02203
G1 X123.391 Y118.031 E0.02204
G1 X123.033 Y118.000 E0.02020
G1 X113.650 Y118.000 E0.52662
G1 X113.650 Y117.155 E0.04744
G1 X114.564 Y116.008 E0.08229
G1 X115.424 Y114.435 E0.10064
G1 X116.001 Y112.737 E0.10064
G1 X116.278 Y110.965 E0.10065
G1 X116.247 Y109.173 E0.10065
G1 X115.908 Y107.412 E0.10065
G1 X115.272 Y105.735 E0.10065
G1 X114.357 Y104.193 E0.10065
G1 X113.191 Y102.830 E0.10065
G1 X111.809 Y101.688 E0.10064
G1 X110.251 Y100.801 E0.10065
G1 X108.563 Y100.194 E0.10064
G1 X106.797 Y99.886 E0.10065
G1 X105.003 Y99.886 E0.10064
G1 X103.237 Y100.194 E0.10065
G1 X101.549 Y100.801 E0.10064
G1 X99.991 Y101.688 E0.10065
G1 X98.609 Y102.830 E0.10064
G1 X97.443 Y104.193 E0.10065
G1 X96.528 Y105.735 E0.10065
G1 X95.892 Y107.412 E0.10065
G1 X95.553 Y109.173 E0.10065
G1 X95.522 Y110.965 E0.10065
G1 X95.799 Y112.737 E0.10065
G1 X96.376 Y114.435 E0.10064
G1 X97.236 Y116.008 E0.10064
G1 X98.150 Y117.155 E0.08229
G1 X98.150 Y118.000 E0.04744
G1 X87.250 Y118.000 E0.61178
G1 X87.250 Y86.783 E1.75211
G1 X87.317 Y86.013 E0.04340
G1 X87.509 Y85.297 E0.04155
G1 X87.822 Y84.626 E0.04155
G1 X88.247 Y84.020 E0.04155
G1 X88.770 Y83.497 E0.04155
G1 X89.376 Y83.072 E0.04155
G1 X90.047 Y82.759 E0.04155
G1 X90.763 Y82.567 E0.04155
G1 X91.533 Y82.500 E0.04340
G1 X93.242 Y82.500 E0.09591
G1 X93.964 Y84.051 E0.09601
G1 X94.871 Y85.377 E0.09018
G1 X93.769 Y84.863 E0.06825
G1 X93.341 Y84.748 E0.02485
G1 X92.900 Y84.710 E0.02485
G1 X92.459 Y84.748 E0.02485
G1 X92.031 Y84.863 E0.02485
G1 X91.630 Y85.050 E0.02485
G1 X91.267 Y85.304 E0.02485
G1 X90.954 Y85.617 E0.02487
G1 X90.700 Y85.980 E0.02485
G1 X90.513 Y86.381 E0.02485
G1 X90.398 Y86.809 E0.02485
G1 X90.363 Y87.211 E0.02267
G1 X90.363 Y90.287 E0.17261
G1 X90.395 Y90.668 E0.02148
G1 X90.498 Y91.075 E0.02355
G1 X90.666 Y91.459 E0.02354
G1 X90.896 Y91.810 E0.02354
G1 X91.180 Y92.119 E0.02354
G1 X91.511 Y92.376 E0.02354
G1 X91.880 Y92.576 E0.02355
G1 X92.276 Y92.712 E0.02354
G1 X92.690 Y92.781 E0.02354
G1 X93.110 Y92.781 E0.02356
G1 X93.524 Y92.712 E0.02355
G1 X93.920 Y92.576 E0.02354
G1 X94.289 Y92.376 E0.02355
G1 X94.620 Y92.119 E0.02354
G1 X94.904 Y91.810 E0.02354
G1 X95.134 Y91.459 E0.02354
G1 X95.302 Y91.075 E0.02354
G1 X95.405 Y90.668 E0.02355
G1 X95.437 Y90.287 E0.02148
G1 X95.437 Y87.661 E0.14736
G1 X95.430 Y87.136
G1 X95.675 Y85.646 F15000.000
G1 X97.123 Y87.157 F780.000 E0.11747
G1 X98.858 Y88.457 E0.12168
G1 X100.782 Y89.457 E0.12169
G1 X102.844 Y90.128 E0.12169
G1 X104.987 Y90.454 E0.12168
G1 X107.155 Y90.426 E0.12168
G1 X109.289 Y90.045 E0.12169
G1 X109.369 Y90.016 E0.00473
G1 X111.332 Y89.320 E0.11695
G1 X113.230 Y88.271 E0.12168
G1 X114.931 Y86.927 E0.12169
G1 X116.389 Y85.322 E0.12169
G1 X117.566 Y83.502 E0.12168
G1 X118.430 Y81.514 E0.12169
G1 X118.958 Y79.411 E0.12168
G1 X119.135 Y77.260 E0.12111
G1 X119.135 Y74.241 E0.16949
G1 X118.985 Y72.257 E0.11166
G1 X118.535 Y70.309 E0.11219
G1 X117.798 Y68.451 E0.11219
G1 X116.789 Y66.725 E0.11219
G1 X115.532 Y65.171 E0.11220
G1 X114.150 Y63.912 E0.10494
G1 X114.150 Y61.261 E0.14877
G1 X114.238 Y60.252 E0.05686
G1 X114.498 Y59.284 E0.05624
G1 X114.921 Y58.375 E0.05625
G1 X115.496 Y57.555 E0.05624
G1 X116.205 Y56.846 E0.05625
G1 X117.025 Y56.271 E0.05624
G1 X117.934 Y55.848 E0.05625
G1 X118.902 Y55.588 E0.05624
G1 X119.911 Y55.500 E0.05686
G1 X129.250 Y55.500 E0.52417
G1 X129.250 Y144.500 E4.99526
G1 X124.750 Y144.500 E0.25257
G1 X124.750 Y120.239 E1.36168
G1 X124.724 Y119.946 E0.01652
G1 X124.645 Y119.651 E0.01713
G1 X124.516 Y119.375 E0.01713
G1 X124.341 Y119.124 E0.01713
G1 X124.125 Y118.909 E0.01713
G1 X123.875 Y118.734 E0.01713
G1 X123.599 Y118.605 E0.01713
G1 X123.304 Y118.526 E0.01713
G1 X123.011 Y118.500 E0.01652
G1 X113.150 Y118.500 E0.55346
G1 X113.150 Y116.980 E0.08532
G1 X114.146 Y115.730 E0.08967
G1 X114.964 Y114.233 E0.09579
G1 X115.514 Y112.617 E0.09579
G1 X115.778 Y110.931 E0.09579
G1 X115.748 Y109.225 E0.09579
G1 X115.425 Y107.549 E0.09579
G1 X114.820 Y105.953 E0.09579
G1 X113.949 Y104.485 E0.09579
G1 X112.840 Y103.188 E0.09579
G1 X111.524 Y102.101 E0.09579
G1 X110.041 Y101.256 E0.09579
G1 X108.435 Y100.679 E0.09579
G1 X106.753 Y100.386 E0.09580
G1 X105.047 Y100.386 E0.09579
G1 X103.365 Y100.679 E0.09580
G1 X101.759 Y101.256 E0.09579
G1 X100.276 Y102.101 E0.09579
G1 X98.960 Y103.188 E0.09579
G1 X97.851 Y104.485 E0.09579
G1 X96.980 Y105.953 E0.09579
G1 X96.375 Y107.549 E0.09579
G1 X96.052 Y109.225 E0.09579
G1 X96.022 Y110.931 E0.09579
G1 X96.286 Y112.617 E0.09579
G1 X96.836 Y114.233 E0.09579
G1 X97.654 Y115.731 E0.09579
G1 X98.650 Y116.980 E0.08967
