; generated by Slic3r 0.9.8-dev on 2012-12-17 at 14:05:45

; layer_height = 0.3
; perimeters = 2
; top_solid_layers = 3
; bottom_solid_layers = 2
; fill_density = 0.2
; perimeter_speed = 32
; infill_speed = 50
; travel_speed = 250
; scale = 1
; nozzle_diameter = 0.5
; filament_diameter = 1.75
; extrusion_multiplier = 0.9
; perimeters extrusion width = 0.50mm
; infill extrusion width = 0.50mm
; support material extrusion width = 0.20mm
; first layer extrusion width = 0.50mm

M107
M190 S57 ; wait for bed temperature to be reached
M104 S200 ; set temperature
G28 X0 Y0
G1 X75 Y75 F12000
G28 Z0
G1 Z0.3 F200
G1 X15 Y20 F12000
M109 S200 ; wait for temperature to be reached
G90 ; use absolute coordinates
G21 ; set units to millimeters
M83 ; use relative distances for extrusion
G1 F2760.000 E-3.20000
G1 Z0.300 F15000.000
G1 X60.590 Y82.540
G1 X60.800 Y82.390 F2760.000 E3.20000
G1 X60.800 Y82.390 F1920.000
G1 X61.470 Y81.980 E0.04409
G1 X61.940 Y81.760 E0.02913
G1 X62.430 Y81.570 E0.02950
G1 X62.930 Y81.430 E0.02914
G1 X63.450 Y81.320 E0.02983
G1 X63.970 Y81.260 E0.02938
G1 X64.490 Y81.240 E0.02921
G1 X153.500 Y81.240 E4.99582
G1 X154.020 Y81.260 E0.02921
G1 X154.540 Y81.320 E0.02938
G1 X155.060 Y81.430 E0.02983
G1 X155.560 Y81.570 E0.02914
G1 X156.050 Y81.760 E0.02950
G1 X156.520 Y81.980 E0.02913
G1 X156.750 Y82.110 E0.01483
G1 X157.400 Y82.540 E0.04374
G1 X157.810 Y82.870 E0.02954
G1 X158.370 Y83.430 E0.04445
G1 X158.700 Y83.840 E0.02954
G1 X159.130 Y84.490 E0.04374
G1 X159.260 Y84.720 E0.01483
G1 X159.480 Y85.190 E0.02913
G1 X159.670 Y85.680 E0.02950
G1 X159.810 Y86.180 E0.02914
G1 X159.920 Y86.700 E0.02983
G1 X159.980 Y87.220 E0.02938
G1 X160.000 Y87.740 E0.02921
G1 X160.000 Y92.250 E0.25313
G1 X159.980 Y92.810 E0.03145
G1 X159.950 Y93.080 E0.01525
G1 X159.790 Y93.900 E0.04689
G1 X159.620 Y94.440 E0.03177
G1 X159.290 Y95.200 E0.04650
G1 X159.020 Y95.690 E0.03140
G1 X132.860 Y133.920 E2.59998
G1 X132.540 Y134.360 E0.03054
G1 X132.360 Y134.570 E0.01552
G1 X131.770 Y135.150 E0.04644
G1 X131.350 Y135.490 E0.03033
G1 X130.890 Y135.800 E0.03113
G1 X130.410 Y136.060 E0.03064
G1 X129.910 Y136.290 E0.03089
G1 X129.390 Y136.470 E0.03088
G1 X128.860 Y136.610 E0.03077
G1 X128.050 Y136.730 E0.04596
G1 X127.500 Y136.750 E0.03089
G1 X95.760 Y136.750 E1.78145
G1 X95.140 Y136.720 E0.03484
G1 X94.300 Y136.640 E0.04736
G1 X93.270 Y136.460 E0.05869
G1 X92.470 Y136.250 E0.04642
G1 X92.020 Y136.110 E0.02645
G1 X91.580 Y135.950 E0.02628
G1 X90.410 Y135.400 E0.07256
G1 X89.810 Y135.050 E0.03899
G1 X88.940 Y134.440 E0.05964
G1 X88.090 Y133.730 E0.06216
G1 X87.510 Y133.150 E0.04604
G1 X61.120 Y105.260 E2.15506
G1 X60.500 Y104.500 E0.05505
G1 X59.930 Y103.680 E0.05605
G1 X59.390 Y102.750 E0.06036
G1 X58.960 Y101.840 E0.05649
G1 X58.780 Y101.410 E0.02616
G1 X58.560 Y100.740 E0.03958
G1 X58.300 Y99.770 E0.05636
G1 X58.110 Y98.670 E0.06265
G1 X58.020 Y97.660 E0.05691
G1 X57.990 Y97.080 E0.03260
G1 X57.990 Y87.740 E0.52422
G1 X58.010 Y87.220 E0.02921
G1 X58.070 Y86.700 E0.02938
G1 X58.120 Y86.440 E0.01486
G1 X58.320 Y85.680 E0.04411
G1 X58.510 Y85.190 E0.02950
G1 X58.730 Y84.720 E0.02913
G1 X59.140 Y84.050 E0.04409
G1 X59.620 Y83.430 E0.04401
G1 X60.180 Y82.870 E0.04445
G1 X60.532 Y82.587 E0.02533
G1 X60.590 Y82.540 E0.00421
G1 F2760.000 E-3.20000
G1 X112.380 Y104.862 F15000.000
G1 X112.380 Y105.463 F2760.000 E3.20000
G1 X112.380 Y108.360 F600.000 E0.18816
G1 X116.120 Y110.519 E0.28043
G1 X116.120 Y115.288 E0.30973
G1 X112.591 Y117.325 E0.26458
G1 F2760.000 E-3.20000
G1 X120.120 Y120.455 F15000.000
G1 X120.120 Y119.855 F2760.000 E3.20000
G1 X120.120 Y117.447 F600.000 E0.15636
G1 X116.380 Y115.288 E0.28043
G1 X116.380 Y110.519 E0.30973
G1 X120.120 Y108.360 E0.28043
G1 X120.120 Y103.591 E0.30973
G1 X117.453 Y102.051 E0.19998
G1 F2760.000 E-3.20000
G1 X120.380 Y120.414 F15000.000
G1 X120.380 Y119.814 F2760.000 E3.20000
G1 X120.380 Y117.447 F600.000 E0.15371
G1 X124.120 Y115.288 E0.28043
G1 X124.120 Y110.519 E0.30973
G1 X120.380 Y108.360 E0.28043
G1 X120.380 Y103.591 E0.30973
G1 X122.371 Y102.441 E0.14927
G1 F2760.000 E-3.20000
G1 X127.790 Y108.550 F15000.000
G1 X127.270 Y108.850 F2760.000 E3.20000
G1 X124.380 Y110.519 F600.000 E0.21671
G1 X124.380 Y115.288 E0.30973
G1 X127.790 Y117.257 E0.25568
G1 F2760.000 E-3.20000
G1 X128.120 Y93.779 F15000.000
G1 X128.120 Y94.379 F2760.000 E3.20000
G1 X128.120 Y94.503 F600.000 E0.00805
G1 F2760.000 E-3.20000
G1 X112.120 Y105.127 F15000.000
G1 X112.120 Y105.727 F2760.000 E3.20000
G1 X112.120 Y108.360 F600.000 E0.17095
G1 F2760.000 E-3.20000
G1 X75.202 Y98.671 F15000.000
G1 X75.117 Y98.919 F2760.000 E3.20000
G1 X75.117 Y98.919 F1560.000
G1 X74.956 Y99.215 E0.01890
G1 X74.750 Y99.480 E0.01889
G1 X74.502 Y99.709 E0.01889
G1 X74.220 Y99.893 E0.01889
G1 X73.912 Y100.028 E0.01889
G1 X73.585 Y100.111 E0.01890
G1 X73.266 Y100.137 E0.01799
G1 X70.234 Y100.137 E0.17018
G1 X69.915 Y100.111 E0.01799
G1 X69.588 Y100.028 E0.01890
G1 X69.280 Y99.893 E0.01889
G1 X68.998 Y99.709 E0.01889
G1 X68.750 Y99.480 E0.01890
G1 X68.544 Y99.215 E0.01889
G1 X68.383 Y98.919 E0.01890
G1 X68.274 Y98.600 E0.01890
G1 X68.219 Y98.268 E0.01889
G1 X68.219 Y97.932 E0.01890
G1 X68.274 Y97.600 E0.01889
G1 X68.383 Y97.281 E0.01890
G1 X68.544 Y96.985 E0.01890
G1 X68.750 Y96.719 E0.01889
G1 X68.998 Y96.491 E0.01889
G1 X69.280 Y96.307 E0.01889
G1 X69.588 Y96.172 E0.01889
G1 X69.915 Y96.090 E0.01889
G1 X70.234 Y96.063 E0.01800
G1 X73.266 Y96.063 E0.17017
G1 X73.585 Y96.090 E0.01799
G1 X73.912 Y96.172 E0.01889
G1 X74.220 Y96.307 E0.01890
G1 X74.502 Y96.492 E0.01889
G1 X74.750 Y96.719 E0.01889
G1 X74.956 Y96.985 E0.01890
G1 X75.117 Y97.281 E0.01890
G1 X75.226 Y97.600 E0.01890
G1 X75.281 Y97.932 E0.01889
G1 X75.281 Y98.268 E0.01890
G1 X75.238 Y98.526 E0.01468
G1 X75.202 Y98.671 E0.00839
G1 X75.721 Y98.655 F2760.000 E-3.20000
G1 X94.218 Y98.025 F15000.000
G1 X94.243 Y97.746 F2760.000 E3.20000
G1 X94.243 Y97.746 F1560.000
G1 X94.334 Y97.403 E0.01994
G1 X94.485 Y97.081 E0.01995
G1 X94.688 Y96.790 E0.01994
G1 X94.940 Y96.538 E0.01995
G1 X95.231 Y96.335 E0.01994
G1 X95.553 Y96.184 E0.01994
G1 X95.896 Y96.093 E0.01994
G1 X96.233 Y96.063 E0.01899
G1 X99.266 Y96.063 E0.17022
G1 X99.586 Y96.090 E0.01799
G1 X99.912 Y96.172 E0.01890
G1 X100.220 Y96.307 E0.01889
G1 X100.502 Y96.492 E0.01889
G1 X100.750 Y96.719 E0.01889
G1 X100.956 Y96.985 E0.01889
G1 X101.117 Y97.281 E0.01890
G1 X101.226 Y97.600 E0.01890
G1 X101.281 Y97.932 E0.01889
G1 X101.281 Y98.268 E0.01890
G1 X101.226 Y98.600 E0.01889
G1 X101.117 Y98.919 E0.01889
G1 X100.956 Y99.215 E0.01890
G1 X100.750 Y99.480 E0.01889
G1 X100.502 Y99.709 E0.01890
G1 X100.220 Y99.893 E0.01889
G1 X99.912 Y100.028 E0.01889
G1 X99.586 Y100.111 E0.01890
G1 X99.266 Y100.137 E0.01799
G1 X96.233 Y100.137 E0.17023
G1 X95.896 Y100.107 E0.01899
G1 X95.553 Y100.016 E0.01994
G1 X95.231 Y99.865 E0.01995
G1 X94.940 Y99.662 E0.01994
G1 X94.688 Y99.410 E0.01995
G1 X94.485 Y99.119 E0.01994
G1 X94.334 Y98.797 E0.01995
G1 X94.243 Y98.454 E0.01994
G1 X94.218 Y98.175 E0.01573
G1 X94.218 Y98.025 E0.00839
G1 X93.718 Y98.184 F2760.000 E-3.20000
G1 X96.308 Y122.063 F15000.000
G1 X96.908 Y122.063 F2760.000 E3.20000
G1 X99.266 Y122.063 F780.000 E0.13234
G1 X99.585 Y122.089 E0.01799
G1 X99.912 Y122.172 E0.01890
G1 X100.220 Y122.307 E0.01889
G1 X100.502 Y122.491 E0.01889
G1 X100.750 Y122.719 E0.01889
G1 X100.956 Y122.985 E0.01889
G1 X101.117 Y123.281 E0.01890
G1 X101.226 Y123.600 E0.01889
G1 X101.281 Y123.932 E0.01890
G1 X101.281 Y124.268 E0.01890
G1 X101.226 Y124.600 E0.01889
G1 X101.117 Y124.919 E0.01889
G1 X100.956 Y125.215 E0.01890
G1 X100.750 Y125.481 E0.01889
G1 X100.502 Y125.709 E0.01889
G1 X100.220 Y125.893 E0.01889
G1 X99.912 Y126.028 E0.01889
G1 X99.585 Y126.111 E0.01890
G1 X99.266 Y126.137 E0.01799
G1 X96.233 Y126.137 E0.17023
G1 X95.896 Y126.107 E0.01899
G1 X95.553 Y126.016 E0.01994
G1 X95.231 Y125.865 E0.01995
G1 X94.940 Y125.662 E0.01994
G1 X94.688 Y125.410 E0.01995
G1 X94.485 Y125.119 E0.01994
G1 X94.334 Y124.797 E0.01995
G1 X94.243 Y124.454 E0.01994
G1 X94.212 Y124.100 E0.01994
G1 X94.243 Y123.746 E0.01994
G1 X94.334 Y123.403 E0.01994
G1 X94.485 Y123.081 E0.01995
G1 X94.688 Y122.790 E0.01994
G1 X94.940 Y122.538 E0.01995
G1 X95.231 Y122.335 E0.01994
G1 X95.553 Y122.184 E0.01995
G1 X95.896 Y122.093 E0.01994
G1 X96.158 Y122.070 E0.01478
G1 X96.308 Y122.063 E0.00841
G1 X96.137 Y121.570 F15000.000
G1 X95.809 Y121.598 F960.000 E0.01847
G1 X94.801 Y121.868 E0.05854
G1 X96.533 Y120.209 E0.13458
G1 X97.882 Y118.409 E0.12630
G1 X98.919 Y116.412 E0.12630
G1 X99.616 Y114.272 E0.12630
G1 X99.955 Y112.047 E0.12629
G1 X99.926 Y109.798 E0.12629
G1 X99.530 Y107.582 E0.12630
G1 X98.777 Y105.462 E0.12630
G1 X97.689 Y103.492 E0.12629
G1 X96.293 Y101.727 E0.12630
G1 X94.741 Y100.316 E0.11774
G1 X95.809 Y100.602 E0.06203
G1 X96.211 Y100.637 E0.02266
G1 X99.287 Y100.637 E0.17262
G1 X99.668 Y100.605 E0.02148
G1 X100.075 Y100.502 E0.02355
G1 X100.459 Y100.334 E0.02354
G1 X100.810 Y100.104 E0.02354
G1 X101.119 Y99.820 E0.02354
G1 X101.376 Y99.489 E0.02354
G1 X101.576 Y99.120 E0.02355
G1 X101.712 Y98.724 E0.02354
G1 X101.781 Y98.310 E0.02354
G1 X101.781 Y97.890 E0.02356
G1 X101.712 Y97.476 E0.02354
G1 X101.576 Y97.080 E0.02354
G1 X101.376 Y96.711 E0.02355
G1 X101.119 Y96.380 E0.02354
G1 X100.810 Y96.096 E0.02354
G1 X100.459 Y95.866 E0.02354
G1 X100.075 Y95.698 E0.02355
G1 X99.668 Y95.595 E0.02355
G1 X99.287 Y95.563 E0.02148
G1 X96.211 Y95.563 E0.17261
G1 X95.809 Y95.598 E0.02267
G1 X95.381 Y95.713 E0.02485
G1 X94.980 Y95.900 E0.02486
G1 X94.617 Y96.154 E0.02485
G1 X94.304 Y96.467 E0.02486
G1 X94.050 Y96.830 E0.02485
G1 X93.863 Y97.231 E0.02485
G1 X93.748 Y97.659 E0.02485
G1 X93.710 Y98.100 E0.02485
G1 X93.748 Y98.541 E0.02485
G1 X93.863 Y98.969 E0.02485
G1 X94.363 Y100.042 E0.06645
G1 X92.739 Y98.992 E0.10857
G1 X90.675 Y98.095 E0.12630
G1 X88.493 Y97.547 E0.12629
G1 X86.281 Y97.365 E0.12456
G1 X83.222 Y97.365 E0.17170
G1 X81.181 Y97.519 E0.11485
G1 X79.160 Y97.986 E0.11644
G1 X77.231 Y98.751 E0.11644
G1 X75.102 Y99.997 E0.13845
G1 X75.576 Y99.120 E0.05592
G1 X75.712 Y98.724 E0.02354
G1 X75.781 Y98.310 E0.02354
G1 X75.781 Y97.890 E0.02356
G1 X75.712 Y97.476 E0.02354
G1 X75.576 Y97.080 E0.02354
G1 X75.376 Y96.711 E0.02355
G1 X75.119 Y96.380 E0.02355
G1 X74.810 Y96.096 E0.02354
G1 X74.459 Y95.866 E0.02354
G1 X74.075 Y95.698 E0.02355
G1 X73.668 Y95.595 E0.02354
G1 X73.287 Y95.563 E0.02148
G1 X70.213 Y95.563 E0.17249
G1 X69.832 Y95.595 E0.02148
G1 X69.425 Y95.698 E0.02355
G1 X69.041 Y95.866 E0.02355
G1 X68.690 Y96.096 E0.02355
G1 X68.381 Y96.380 E0.02354
G1 X68.124 Y96.711 E0.02355
G1 X67.924 Y97.080 E0.02355
G1 X67.788 Y97.477 E0.02355
G1 X67.719 Y97.890 E0.02354
G1 X67.719 Y98.310 E0.02355
G1 X67.788 Y98.723 E0.02354
G1 X67.924 Y99.120 E0.02355
G1 X68.124 Y99.489 E0.02355
G1 X68.381 Y99.820 E0.02354
G1 X68.690 Y100.104 E0.02355
G1 X69.041 Y100.334 E0.02354
G1 X69.425 Y100.502 E0.02354
G1 X69.832 Y100.605 E0.02355
G1 X70.213 Y100.637 E0.02148
G1 X73.287 Y100.637 E0.17250
G1 X73.668 Y100.605 E0.02148
G1 X74.796 Y100.320 E0.06533
G1 X73.827 Y101.104 E0.06995
G1 X72.691 Y102.350 E0.09468
G1 X70.283 Y102.350 E0.13516
G1 X69.339 Y102.267 E0.05318
G1 X68.455 Y102.031 E0.05133
G1 X67.626 Y101.644 E0.05134
G1 X66.877 Y101.120 E0.05133
G1 X66.230 Y100.473 E0.05134
G1 X65.706 Y99.724 E0.05133
G1 X65.319 Y98.895 E0.05134
G1 X65.083 Y98.011 E0.05133
G1 X65.000 Y97.067 E0.05318
G1 X65.000 Y88.250 E0.49488
G1 X153.000 Y88.250 E4.93913
G1 X153.000 Y91.750 E0.19644
G1 X129.217 Y91.750 E1.33484
G1 X128.859 Y91.781 E0.02020
G1 X128.480 Y91.883 E0.02204
G1 X128.124 Y92.049 E0.02204
G1 X127.802 Y92.274 E0.02204
G1 X127.524 Y92.552 E0.02205
G1 X127.299 Y92.874 E0.02204
G1 X127.133 Y93.229 E0.02203
G1 X127.031 Y93.609 E0.02204
G1 X127.000 Y93.967 E0.02020
G1 X127.000 Y103.350 E0.52662
G1 X126.155 Y103.350 E0.04744
G1 X125.008 Y102.436 E0.08229
G1 X123.435 Y101.576 E0.10064
G1 X121.737 Y100.999 E0.10064
G1 X119.965 Y100.722 E0.10065
G1 X118.173 Y100.753 E0.10065
G1 X116.412 Y101.092 E0.10065
G1 X114.735 Y101.728 E0.10065
G1 X113.193 Y102.643 E0.10065
G1 X111.830 Y103.809 E0.10065
G1 X110.688 Y105.191 E0.10064
G1 X109.801 Y106.749 E0.10065
G1 X109.194 Y108.437 E0.10065
G1 X108.886 Y110.203 E0.10065
G1 X108.886 Y111.997 E0.10064
G1 X109.194 Y113.763 E0.10065
G1 X109.801 Y115.451 E0.10065
G1 X110.688 Y117.009 E0.10065
G1 X111.830 Y118.391 E0.10064
G1 X113.193 Y119.557 E0.10065
G1 X114.735 Y120.472 E0.10065
G1 X116.412 Y121.108 E0.10065
G1 X118.172 Y121.447 E0.10065
G1 X119.965 Y121.478 E0.10065
G1 X121.737 Y121.201 E0.10065
G1 X123.435 Y120.624 E0.10064
G1 X125.008 Y119.764 E0.10064
G1 X126.155 Y118.850 E0.08229
G1 X127.000 Y118.850 E0.04744
G1 X127.000 Y129.750 E0.61178
G1 X95.783 Y129.750 E1.75211
G1 X95.013 Y129.683 E0.04340
G1 X94.297 Y129.491 E0.04155
G1 X93.626 Y129.178 E0.04155
G1 X93.020 Y128.753 E0.04155
G1 X92.497 Y128.230 E0.04155
G1 X92.072 Y127.624 E0.04155
G1 X91.759 Y126.953 E0.04155
G1 X91.567 Y126.237 E0.04155
G1 X91.500 Y125.467 E0.04340
G1 X91.500 Y123.758 E0.09591
G1 X93.051 Y123.036 E0.09601
G1 X94.377 Y122.129 E0.09018
G1 X93.863 Y123.231 E0.06825
G1 X93.748 Y123.659 E0.02485
G1 X93.710 Y124.100 E0.02485
G1 X93.748 Y124.541 E0.02485
G1 X93.863 Y124.969 E0.02485
G1 X94.050 Y125.370 E0.02485
G1 X94.304 Y125.733 E0.02485
G1 X94.617 Y126.046 E0.02487
G1 X94.980 Y126.300 E0.02485
G1 X95.381 Y126.487 E0.02485
G1 X95.809 Y126.602 E0.02485
G1 X96.211 Y126.637 E0.02267
G1 X99.287 Y126.637 E0.17261
G1 X99.668 Y126.605 E0.02148
G1 X100.075 Y126.502 E0.02355
G1 X100.459 Y126.334 E0.02354
G1 X100.810 Y126.104 E0.02354
G1 X101.119 Y125.820 E0.02354
G1 X101.376 Y125.489 E0.02354
G1 X101.576 Y125.120 E0.02355
G1 X101.712 Y124.724 E0.02354
G1 X101.781 Y124.310 E0.02354
G1 X101.781 Y123.890 E0.02356
G1 X101.712 Y123.476 E0.02355
G1 X101.576 Y123.080 E0.02354
G1 X101.376 Y122.711 E0.02355
G1 X101.119 Y122.380 E0.02354
G1 X100.810 Y122.096 E0.02354
G1 X100.459 Y121.866 E0.02354
G1 X100.075 Y121.698 E0.02354
G1 X99.668 Y121.595 E0.02355
G1 X99.287 Y121.563 E0.02148
G1 X96.661 Y121.563 E0.14735
G1 X96.137 Y121.570
G1 X94.646 Y121.325 F15000.000
G1 X96.157 Y119.877 F780.000 E0.11747
G1 X97.457 Y118.142 E0.12168
G1 X98.457 Y116.218 E0.12169
G1 X99.128 Y114.156 E0.12169
G1 X99.454 Y112.013 E0.12168
G1 X99.426 Y109.845 E0.12168
G1 X99.045 Y107.711 E0.12169
G1 X99.016 Y107.631 E0.00473
G1 X98.320 Y105.668 E0.11695
G1 X97.271 Y103.770 E0.12168
G1 X95.927 Y102.069 E0.12169
G1 X94.322 Y100.611 E0.12169
G1 X92.502 Y99.434 E0.12168
G1 X90.513 Y98.570 E0.12169
G1 X88.411 Y98.042 E0.12168
G1 X86.260 Y97.865 E0.12111
G1 X83.241 Y97.865 E0.16949
G1 X81.257 Y98.015 E0.11166
G1 X79.309 Y98.465 E0.11219
G1 X77.451 Y99.202 E0.11219
G1 X75.725 Y100.211 E0.11219
G1 X74.171 Y101.468 E0.11219
G1 X72.912 Y102.850 E0.10494
G1 X70.261 Y102.850 E0.14877
G1 X69.252 Y102.762 E0.05686
G1 X68.284 Y102.502 E0.05624
G1 X67.375 Y102.079 E0.05625
G1 X66.555 Y101.504 E0.05624
G1 X65.846 Y100.795 E0.05625
G1 X65.271 Y99.975 E0.05624
G1 X64.848 Y99.066 E0.05625
G1 X64.588 Y98.098 E0.05624
G1 X64.500 Y97.089 E0.05686
G1 X64.500 Y87.750 E0.52417
G1 X153.500 Y87.750 E4.99526
G1 X153.500 Y92.250 E0.25257
G1 X129.239 Y92.250 E1.36168
G1 X128.946 Y92.276 E0.01652
G1 X128.651 Y92.355 E0.01713
G1 X128.375 Y92.484 E0.01713
G1 X128.124 Y92.659 E0.01713
G1 X127.909 Y92.875 E0.01713
G1 X127.734 Y93.125 E0.01713
G1 X127.605 Y93.401 E0.01713
G1 X127.526 Y93.696 E0.01713
G1 X127.500 Y93.989 E0.01652
G1 X127.500 Y103.850 E0.55346
G1 X125.980 Y103.850 E0.08532
G1 X124.731 Y102.854 E0.08967
G1 X123.233 Y102.036 E0.09579
G1 X121.617 Y101.486 E0.09579
G1 X119.931 Y101.222 E0.09579
G1 X118.225 Y101.252 E0.09579
G1 X116.549 Y101.575 E0.09579
G1 X114.953 Y102.180 E0.09579
G1 X113.485 Y103.051 E0.09579
G1 X112.188 Y104.160 E0.09579
G1 X111.101 Y105.476 E0.09579
G1 X110.256 Y106.959 E0.09579
G1 X109.679 Y108.565 E0.09579
G1 X109.386 Y110.247 E0.09580
G1 X109.386 Y111.953 E0.09579
G1 X109.679 Y113.635 E0.09580
G1 X110.256 Y115.241 E0.09579
G1 X111.101 Y116.724 E0.09579
G1 X112.188 Y118.040 E0.09579
G1 X113.485 Y119.149 E0.09579
