; generated by Slic3r 0.9.9-dev on 2013-01-27 at 23:27:24

; layer_height = 0.3
; perimeters = 2
; top_solid_layers = 3
; bottom_solid_layers = 2
; fill_density = 0.2
; perimeter_speed = 32
; infill_speed = 50
; travel_speed = 250
; scale = 1
; nozzle_diameter = 0.5
; filament_diameter = 1.75
; extrusion_multiplier = 0.9
; perimeters extrusion width = 0.50mm
; infill extrusion width = 0.50mm
; support material extrusion width = 0.26mm
; first layer extrusion width = 0.50mm

M107
M190 S57 ; wait for bed temperature to be reached
M104 S200 ; set temperature
G28 X0 Y0
G1 X75 Y75 F12000
G28 Z0
G1 Z0.3 F200
G1 X15 Y20 F12000
M109 S200 ; wait for temperature to be reached
G90 ; use absolute coordinates
G21 ; set units to millimeters
M83 ; use relative distances for extrusion
G1 F2760.000 E-3.20000
G1 Z0.300 F15000.000
G1 X59.180 Y73.870
G1 X59.590 Y73.540 F2760.000 E3.20000
G1 X59.590 Y73.540 F1920.000
G1 X60.240 Y73.110 E0.04374
G1 X60.700 Y72.870 E0.02912
G1 X61.190 Y72.660 E0.02992
G1 X61.430 Y72.570 E0.01439
G1 X61.930 Y72.430 E0.02914
G1 X62.450 Y72.320 E0.02983
G1 X62.970 Y72.260 E0.02938
G1 X63.490 Y72.240 E0.02921
G1 X152.500 Y72.240 E4.99582
G1 X153.020 Y72.260 E0.02921
G1 X153.540 Y72.320 E0.02938
G1 X154.060 Y72.430 E0.02983
G1 X154.560 Y72.570 E0.02914
G1 X155.050 Y72.760 E0.02950
G1 X155.520 Y72.980 E0.02913
G1 X155.750 Y73.110 E0.01483
G1 X156.400 Y73.540 E0.04374
G1 X156.810 Y73.870 E0.02954
G1 X157.370 Y74.430 E0.04445
G1 X157.700 Y74.840 E0.02954
G1 X158.130 Y75.490 E0.04374
G1 X158.260 Y75.720 E0.01483
G1 X158.480 Y76.190 E0.02913
G1 X158.670 Y76.680 E0.02950
G1 X158.810 Y77.180 E0.02914
G1 X158.920 Y77.700 E0.02983
G1 X158.980 Y78.220 E0.02938
G1 X159.000 Y78.740 E0.02921
G1 X159.000 Y83.250 E0.25313
G1 X158.980 Y83.810 E0.03145
G1 X158.950 Y84.080 E0.01525
G1 X158.790 Y84.900 E0.04689
G1 X158.620 Y85.440 E0.03177
G1 X158.290 Y86.200 E0.04650
G1 X158.020 Y86.690 E0.03140
G1 X131.860 Y124.920 E2.59998
G1 X131.540 Y125.360 E0.03054
G1 X130.980 Y125.960 E0.04606
G1 X130.350 Y126.490 E0.04621
G1 X130.120 Y126.650 E0.01573
G1 X129.890 Y126.800 E0.01541
G1 X129.160 Y127.180 E0.04619
G1 X128.910 Y127.290 E0.01533
G1 X128.390 Y127.470 E0.03088
G1 X128.130 Y127.540 E0.01511
G1 X127.590 Y127.660 E0.03105
G1 X127.050 Y127.730 E0.03056
G1 X126.500 Y127.750 E0.03089
G1 X94.760 Y127.750 E1.78145
G1 X94.140 Y127.720 E0.03484
G1 X93.300 Y127.640 E0.04736
G1 X92.270 Y127.460 E0.05869
G1 X91.470 Y127.250 E0.04642
G1 X91.020 Y127.110 E0.02645
G1 X90.580 Y126.950 E0.02628
G1 X89.410 Y126.400 E0.07256
G1 X88.810 Y126.050 E0.03899
G1 X87.940 Y125.440 E0.05964
G1 X87.090 Y124.730 E0.06216
G1 X86.510 Y124.150 E0.04604
G1 X60.120 Y96.260 E2.15506
G1 X59.500 Y95.500 E0.05505
G1 X58.930 Y94.680 E0.05605
G1 X58.390 Y93.750 E0.06036
G1 X57.960 Y92.840 E0.05649
G1 X57.780 Y92.410 E0.02616
G1 X57.630 Y91.970 E0.02609
G1 X57.300 Y90.770 E0.06985
G1 X57.110 Y89.670 E0.06265
G1 X57.020 Y88.660 E0.05691
G1 X56.990 Y88.080 E0.03260
G1 X56.990 Y78.740 E0.52422
G1 X57.010 Y78.220 E0.02921
G1 X57.070 Y77.700 E0.02938
G1 X57.120 Y77.440 E0.01486
G1 X57.320 Y76.680 E0.04411
G1 X57.510 Y76.190 E0.02950
G1 X57.730 Y75.720 E0.02913
G1 X58.140 Y75.050 E0.04409
G1 X58.620 Y74.430 E0.04401
G1 X59.126 Y73.922 E0.04024
G1 X59.180 Y73.870 E0.00421
G1 F2760.000 E-3.20000
G1 X115.152 Y93.700 F15000.000
G1 X115.152 Y94.300 F2760.000 E3.20000
G1 X115.152 Y110.732 F600.000 E1.06710
G1 X109.152 Y102.747 E0.64861
G1 X109.152 Y103.026 E0.01808
G1 F2760.000 E-3.20000
G1 X121.152 Y110.711 F15000.000
G1 X121.152 Y110.111 F2760.000 E3.20000
G1 X121.152 Y93.489 F600.000 E1.07947
G1 F2760.000 E-3.20000
G1 X127.265 Y92.886 F15000.000
G1 X127.265 Y92.286 F2760.000 E3.20000
G1 X127.265 Y84.912 F600.000 E0.47891
G1 X130.047 Y84.015 E0.18986
G1 F2760.000 E-3.20000
G1 X133.265 Y83.983 F15000.000
G1 X133.265 Y84.583 F2760.000 E3.20000
G1 X133.265 Y89.422 F600.000 E0.31431
G1 X139.265 Y85.958 E0.44994
G1 X139.265 Y83.923 E0.13216
G1 F2760.000 E-3.20000
G1 X74.281 Y89.007 F15000.000
G1 X74.281 Y89.268 F2760.000 E3.20000
G1 X74.281 Y89.268 F1560.000
G1 X74.226 Y89.600 E0.01889
G1 X74.117 Y89.919 E0.01889
G1 X73.956 Y90.215 E0.01890
G1 X73.750 Y90.480 E0.01889
G1 X73.502 Y90.709 E0.01889
G1 X73.220 Y90.893 E0.01889
G1 X72.912 Y91.028 E0.01889
G1 X72.585 Y91.111 E0.01890
G1 X72.266 Y91.137 E0.01799
G1 X69.234 Y91.137 E0.17018
G1 X68.915 Y91.111 E0.01799
G1 X68.588 Y91.028 E0.01890
G1 X68.280 Y90.893 E0.01889
G1 X67.998 Y90.709 E0.01889
G1 X67.750 Y90.480 E0.01890
G1 X67.544 Y90.215 E0.01889
G1 X67.383 Y89.919 E0.01890
G1 X67.274 Y89.600 E0.01890
G1 X67.219 Y89.268 E0.01889
G1 X67.219 Y88.932 E0.01890
G1 X67.274 Y88.600 E0.01889
G1 X67.383 Y88.281 E0.01890
G1 X67.544 Y87.985 E0.01890
G1 X67.750 Y87.719 E0.01889
G1 X67.998 Y87.491 E0.01889
G1 X68.280 Y87.307 E0.01889
G1 X68.588 Y87.172 E0.01889
G1 X68.915 Y87.090 E0.01889
G1 X69.234 Y87.063 E0.01800
G1 X72.266 Y87.063 E0.17017
G1 X72.585 Y87.090 E0.01799
G1 X72.912 Y87.172 E0.01889
G1 X73.220 Y87.307 E0.01890
G1 X73.502 Y87.492 E0.01889
G1 X73.750 Y87.719 E0.01889
G1 X73.956 Y87.985 E0.01890
G1 X74.117 Y88.281 E0.01890
G1 X74.226 Y88.600 E0.01890
G1 X74.269 Y88.858 E0.01468
G1 X74.281 Y89.007 E0.00839
G1 X74.768 Y88.820 F2760.000 E-3.20000
G1 X93.218 Y89.025 F15000.000
G1 X93.243 Y88.746 F2760.000 E3.20000
G1 X93.243 Y88.746 F1560.000
G1 X93.334 Y88.403 E0.01994
G1 X93.485 Y88.081 E0.01995
G1 X93.688 Y87.790 E0.01994
G1 X93.940 Y87.538 E0.01995
G1 X94.231 Y87.335 E0.01994
G1 X94.553 Y87.184 E0.01994
G1 X94.896 Y87.093 E0.01994
G1 X95.233 Y87.063 E0.01899
G1 X98.266 Y87.063 E0.17022
G1 X98.586 Y87.090 E0.01799
G1 X98.912 Y87.172 E0.01890
G1 X99.220 Y87.307 E0.01889
G1 X99.502 Y87.492 E0.01889
G1 X99.750 Y87.719 E0.01889
G1 X99.956 Y87.985 E0.01889
G1 X100.117 Y88.281 E0.01890
G1 X100.226 Y88.600 E0.01890
G1 X100.281 Y88.932 E0.01889
G1 X100.281 Y89.268 E0.01890
G1 X100.226 Y89.600 E0.01889
G1 X100.117 Y89.919 E0.01889
G1 X99.956 Y90.215 E0.01890
G1 X99.750 Y90.480 E0.01889
G1 X99.502 Y90.709 E0.01890
G1 X99.220 Y90.893 E0.01889
G1 X98.912 Y91.028 E0.01889
G1 X98.586 Y91.111 E0.01890
G1 X98.266 Y91.137 E0.01799
G1 X95.233 Y91.137 E0.17023
G1 X94.896 Y91.107 E0.01899
G1 X94.553 Y91.016 E0.01994
G1 X94.231 Y90.865 E0.01995
G1 X93.940 Y90.662 E0.01994
G1 X93.688 Y90.410 E0.01995
G1 X93.485 Y90.119 E0.01994
G1 X93.334 Y89.797 E0.01995
G1 X93.243 Y89.454 E0.01994
G1 X93.218 Y89.175 E0.01573
G1 X93.218 Y89.025 E0.00839
G1 X92.718 Y89.166 F2760.000 E-3.20000
G1 X95.308 Y113.063 F15000.000
G1 X95.908 Y113.063 F2760.000 E3.20000
G1 X98.266 Y113.063 F780.000 E0.13234
G1 X98.585 Y113.089 E0.01799
G1 X98.912 Y113.172 E0.01890
G1 X99.220 Y113.307 E0.01889
G1 X99.502 Y113.491 E0.01889
G1 X99.750 Y113.719 E0.01889
G1 X99.956 Y113.985 E0.01889
G1 X100.117 Y114.281 E0.01890
G1 X100.226 Y114.600 E0.01889
G1 X100.281 Y114.932 E0.01890
G1 X100.281 Y115.268 E0.01890
G1 X100.226 Y115.600 E0.01889
G1 X100.117 Y115.919 E0.01889
G1 X99.956 Y116.215 E0.01890
G1 X99.750 Y116.481 E0.01889
G1 X99.502 Y116.709 E0.01889
G1 X99.220 Y116.893 E0.01889
G1 X98.912 Y117.028 E0.01889
G1 X98.585 Y117.111 E0.01890
G1 X98.266 Y117.137 E0.01799
G1 X95.233 Y117.137 E0.17023
G1 X94.896 Y117.107 E0.01899
G1 X94.553 Y117.016 E0.01994
G1 X94.231 Y116.865 E0.01995
G1 X93.940 Y116.662 E0.01994
G1 X93.688 Y116.410 E0.01995
G1 X93.485 Y116.119 E0.01994
G1 X93.334 Y115.797 E0.01995
G1 X93.243 Y115.454 E0.01994
G1 X93.212 Y115.100 E0.01994
G1 X93.243 Y114.746 E0.01994
G1 X93.334 Y114.403 E0.01994
G1 X93.485 Y114.081 E0.01995
G1 X93.688 Y113.790 E0.01994
G1 X93.940 Y113.538 E0.01995
G1 X94.231 Y113.335 E0.01994
G1 X94.553 Y113.184 E0.01995
G1 X94.896 Y113.093 E0.01994
G1 X95.158 Y113.070 E0.01478
G1 X95.308 Y113.063 E0.00841
G1 X95.137 Y112.570 F15000.000
G1 X94.809 Y112.598 F960.000 E0.01847
G1 X94.181 Y112.767 E0.03650
G1 X94.085 Y112.596 E0.01095
G1 X95.533 Y111.209 E0.11254
G1 X96.882 Y109.409 E0.12630
G1 X97.919 Y107.412 E0.12630
G1 X98.616 Y105.272 E0.12630
G1 X98.955 Y103.047 E0.12629
G1 X98.926 Y100.798 E0.12629
G1 X98.530 Y98.582 E0.12630
G1 X97.777 Y96.462 E0.12630
G1 X96.689 Y94.492 E0.12629
G1 X95.293 Y92.727 E0.12630
G1 X94.067 Y91.612 E0.09303
G1 X94.167 Y91.430 E0.01166
G1 X94.809 Y91.602 E0.03732
G1 X95.211 Y91.637 E0.02266
G1 X98.287 Y91.637 E0.17262
G1 X98.668 Y91.605 E0.02148
G1 X99.075 Y91.502 E0.02355
G1 X99.459 Y91.334 E0.02354
G1 X99.810 Y91.104 E0.02354
G1 X100.119 Y90.820 E0.02354
G1 X100.376 Y90.489 E0.02354
G1 X100.576 Y90.120 E0.02355
G1 X100.712 Y89.724 E0.02354
G1 X100.781 Y89.310 E0.02354
G1 X100.781 Y88.890 E0.02356
G1 X100.712 Y88.476 E0.02354
G1 X100.576 Y88.080 E0.02354
G1 X100.376 Y87.711 E0.02355
G1 X100.119 Y87.380 E0.02354
G1 X99.810 Y87.096 E0.02354
G1 X99.459 Y86.866 E0.02354
G1 X99.075 Y86.698 E0.02355
G1 X98.668 Y86.595 E0.02355
G1 X98.287 Y86.563 E0.02148
G1 X95.211 Y86.563 E0.17261
G1 X94.809 Y86.598 E0.02267
G1 X94.381 Y86.713 E0.02485
G1 X93.980 Y86.900 E0.02486
G1 X93.617 Y87.154 E0.02485
G1 X93.304 Y87.467 E0.02486
G1 X93.050 Y87.830 E0.02485
G1 X92.863 Y88.231 E0.02485
G1 X92.748 Y88.659 E0.02485
G1 X92.710 Y89.100 E0.02485
G1 X92.748 Y89.541 E0.02485
G1 X92.863 Y89.969 E0.02485
G1 X93.235 Y90.766 E0.04938
G1 X93.108 Y90.877 E0.00944
G1 X91.739 Y89.992 E0.09150
G1 X89.675 Y89.095 E0.12630
G1 X87.493 Y88.547 E0.12629
G1 X85.281 Y88.365 E0.12456
G1 X82.222 Y88.365 E0.17170
G1 X80.181 Y88.519 E0.11485
G1 X78.160 Y88.986 E0.11644
G1 X76.231 Y89.751 E0.11644
G1 X74.382 Y90.833 E0.12024
G1 X74.256 Y90.711 E0.00982
G1 X74.576 Y90.120 E0.03771
G1 X74.712 Y89.724 E0.02354
G1 X74.781 Y89.310 E0.02354
G1 X74.781 Y88.890 E0.02356
G1 X74.712 Y88.476 E0.02354
G1 X74.576 Y88.080 E0.02354
G1 X74.376 Y87.711 E0.02355
G1 X74.119 Y87.380 E0.02355
G1 X73.810 Y87.096 E0.02354
G1 X73.459 Y86.866 E0.02354
G1 X73.075 Y86.698 E0.02355
G1 X72.668 Y86.595 E0.02354
G1 X72.287 Y86.563 E0.02148
G1 X69.213 Y86.563 E0.17249
G1 X68.832 Y86.595 E0.02148
G1 X68.425 Y86.698 E0.02355
G1 X68.041 Y86.866 E0.02355
G1 X67.690 Y87.096 E0.02355
G1 X67.381 Y87.380 E0.02354
G1 X67.124 Y87.711 E0.02355
G1 X66.924 Y88.080 E0.02355
G1 X66.788 Y88.477 E0.02355
G1 X66.719 Y88.890 E0.02354
G1 X66.719 Y89.310 E0.02355
G1 X66.788 Y89.723 E0.02354
G1 X66.924 Y90.120 E0.02355
G1 X67.124 Y90.489 E0.02355
G1 X67.381 Y90.820 E0.02354
G1 X67.690 Y91.104 E0.02355
G1 X68.041 Y91.334 E0.02354
G1 X68.425 Y91.502 E0.02354
G1 X68.832 Y91.605 E0.02355
G1 X69.213 Y91.637 E0.02148
G1 X72.287 Y91.637 E0.17250
G1 X72.668 Y91.605 E0.02148
G1 X73.277 Y91.451 E0.03527
G1 X73.380 Y91.656 E0.01289
G1 X72.827 Y92.104 E0.03990
G1 X71.691 Y93.350 E0.09468
G1 X69.283 Y93.350 E0.13516
G1 X68.339 Y93.267 E0.05318
G1 X67.455 Y93.031 E0.05133
G1 X66.626 Y92.644 E0.05134
G1 X65.877 Y92.120 E0.05133
G1 X65.230 Y91.473 E0.05134
G1 X64.706 Y90.724 E0.05133
G1 X64.319 Y89.895 E0.05134
G1 X64.083 Y89.011 E0.05133
G1 X64.000 Y88.067 E0.05318
G1 X64.000 Y79.250 E0.49488
G1 X152.000 Y79.250 E4.93913
G1 X152.000 Y82.750 E0.19644
G1 X128.217 Y82.750 E1.33484
G1 X127.859 Y82.781 E0.02020
G1 X127.480 Y82.883 E0.02204
G1 X127.124 Y83.049 E0.02204
G1 X126.802 Y83.274 E0.02204
G1 X126.524 Y83.552 E0.02205
G1 X126.299 Y83.874 E0.02204
G1 X126.133 Y84.229 E0.02203
G1 X126.031 Y84.609 E0.02204
G1 X126.000 Y84.967 E0.02020
G1 X126.000 Y94.350 E0.52662
G1 X125.155 Y94.350 E0.04744
G1 X124.008 Y93.436 E0.08229
G1 X122.435 Y92.576 E0.10064
G1 X120.737 Y91.999 E0.10064
G1 X118.965 Y91.722 E0.10065
G1 X117.173 Y91.753 E0.10065
G1 X115.412 Y92.092 E0.10065
G1 X113.735 Y92.728 E0.10065
G1 X112.193 Y93.643 E0.10065
G1 X110.830 Y94.809 E0.10065
G1 X109.688 Y96.191 E0.10064
G1 X108.801 Y97.749 E0.10065
G1 X108.194 Y99.437 E0.10065
G1 X107.886 Y101.203 E0.10065
G1 X107.886 Y102.997 E0.10064
G1 X108.194 Y104.763 E0.10065
G1 X108.801 Y106.451 E0.10065
G1 X109.688 Y108.009 E0.10065
G1 X110.830 Y109.391 E0.10064
G1 X112.193 Y110.557 E0.10065
G1 X113.735 Y111.472 E0.10065
G1 X115.412 Y112.108 E0.10065
G1 X117.172 Y112.447 E0.10065
G1 X118.965 Y112.478 E0.10065
G1 X120.737 Y112.201 E0.10065
G1 X122.435 Y111.624 E0.10064
G1 X124.008 Y110.764 E0.10064
G1 X125.155 Y109.850 E0.08229
G1 X126.000 Y109.850 E0.04744
G1 X126.000 Y120.750 E0.61178
G1 X94.783 Y120.750 E1.75211
G1 X94.013 Y120.683 E0.04340
G1 X93.297 Y120.491 E0.04155
G1 X92.626 Y120.178 E0.04155
G1 X92.020 Y119.753 E0.04155
G1 X91.497 Y119.230 E0.04155
G1 X91.072 Y118.624 E0.04155
G1 X90.759 Y117.953 E0.04155
G1 X90.567 Y117.237 E0.04155
G1 X90.500 Y116.467 E0.04340
G1 X90.500 Y114.758 E0.09591
G1 X92.051 Y114.036 E0.09601
G1 X93.095 Y113.322 E0.07105
G1 X93.233 Y113.438 E0.01010
G1 X92.863 Y114.231 E0.04912
G1 X92.748 Y114.659 E0.02485
G1 X92.710 Y115.100 E0.02485
G1 X92.748 Y115.541 E0.02485
G1 X92.863 Y115.969 E0.02485
G1 X93.050 Y116.370 E0.02485
G1 X93.304 Y116.733 E0.02485
G1 X93.617 Y117.046 E0.02487
G1 X93.980 Y117.300 E0.02485
G1 X94.381 Y117.487 E0.02485
G1 X94.809 Y117.602 E0.02485
G1 X95.211 Y117.637 E0.02267
G1 X98.287 Y117.637 E0.17261
G1 X98.668 Y117.605 E0.02148
G1 X99.075 Y117.502 E0.02355
G1 X99.459 Y117.334 E0.02354
G1 X99.810 Y117.104 E0.02354
G1 X100.119 Y116.820 E0.02354
G1 X100.376 Y116.489 E0.02354
G1 X100.576 Y116.120 E0.02355
G1 X100.712 Y115.724 E0.02354
G1 X100.781 Y115.310 E0.02354
G1 X100.781 Y114.890 E0.02356
G1 X100.712 Y114.476 E0.02355
G1 X100.576 Y114.080 E0.02354
G1 X100.376 Y113.711 E0.02355
G1 X100.119 Y113.380 E0.02354
G1 X99.810 Y113.096 E0.02354
G1 X99.459 Y112.866 E0.02354
G1 X99.075 Y112.698 E0.02354
G1 X98.668 Y112.595 E0.02355
G1 X98.287 Y112.563 E0.02148
G1 X95.661 Y112.563 E0.14735
G1 X95.137 Y112.570
G1 X93.646 Y112.325 F15000.000
G1 X95.157 Y110.877 F780.000 E0.11747
G1 X96.457 Y109.142 E0.12168
G1 X97.457 Y107.218 E0.12169
G1 X98.128 Y105.156 E0.12169
G1 X98.454 Y103.013 E0.12168
G1 X98.426 Y100.845 E0.12168
G1 X98.045 Y98.711 E0.12169
G1 X98.016 Y98.631 E0.00473
G1 X97.320 Y96.668 E0.11695
G1 X96.271 Y94.770 E0.12168
G1 X94.927 Y93.069 E0.12169
G1 X93.322 Y91.611 E0.12169
G1 X91.502 Y90.434 E0.12168
G1 X89.513 Y89.570 E0.12169
G1 X87.411 Y89.042 E0.12168
G1 X85.260 Y88.865 E0.12111
G1 X82.241 Y88.865 E0.16949
G1 X80.257 Y89.015 E0.11166
G1 X78.309 Y89.465 E0.11219
G1 X76.451 Y90.202 E0.11219
G1 X74.725 Y91.211 E0.11219
G1 X73.171 Y92.468 E0.11219
G1 X71.912 Y93.850 E0.10494
G1 X69.261 Y93.850 E0.14877
G1 X68.252 Y93.762 E0.05686
G1 X67.284 Y93.502 E0.05624
G1 X66.375 Y93.079 E0.05625
G1 X65.555 Y92.504 E0.05624
G1 X64.846 Y91.795 E0.05625
G1 X64.271 Y90.975 E0.05624
G1 X63.848 Y90.066 E0.05625
G1 X63.588 Y89.098 E0.05624
G1 X63.500 Y88.089 E0.05686
G1 X63.500 Y78.750 E0.52417
G1 X152.500 Y78.750 E4.99526
G1 X152.500 Y83.250 E0.25257
G1 X128.239 Y83.250 E1.36168
G1 X127.946 Y83.276 E0.01652
G1 X127.651 Y83.355 E0.01713
G1 X127.375 Y83.484 E0.01713
G1 X127.124 Y83.659 E0.01713
G1 X126.909 Y83.875 E0.01713
G1 X126.734 Y84.125 E0.01713
G1 X126.605 Y84.401 E0.01713
G1 X126.526 Y84.696 E0.01713
G1 X126.500 Y84.989 E0.01652
G1 X126.500 Y94.850 E0.55346
G1 X124.980 Y94.850 E0.08532
G1 X123.731 Y93.854 E0.08967
G1 X122.233 Y93.036 E0.09579
G1 X120.617 Y92.486 E0.09579
G1 X118.931 Y92.222 E0.09579
G1 X117.225 Y92.252 E0.09579
G1 X115.549 Y92.575 E0.09579
G1 X113.953 Y93.180 E0.09579
G1 X112.485 Y94.051 E0.09579
G1 X111.188 Y95.160 E0.09579
G1 X110.101 Y96.476 E0.09579
G1 X109.256 Y97.959 E0.09579
G1 X108.679 Y99.565 E0.09579
G1 X108.386 Y101.247 E0.09580
G1 X108.386 Y102.953 E0.09579
G1 X108.679 Y104.635 E0.09580
G1 X109.256 Y106.241 E0.09579
G1 X110.101 Y107.724 E0.09579
G1 X111.188 Y109.040 E0.09579
G1 X112.485 Y110.149 E0.09579
G1 X113.953 Y111.020 E0.09579
G1 X115.549 Y111.625 E0.09579
G1 X117.224 Y111.948 E0.09579
G1 X118.931 Y111.978 E0.09579
G1 X120.617 Y111.714 E0.09579
G1 X122.233 Y111.164 E0.09579
G1 X123.731 Y110.346 E0.09579
G1 X124.980 Y109.350 E0.08967
G1 X126.500 Y109.350 E0.08532
G1 X126.500 Y121.250 E0.66791
G1 X94.761 Y121.250 E1.78140
G1 X93.925 Y121.177 E0.04708
G1 X93.126 Y120.963 E0.04646
G1 X92.375 Y120.613 E0.04646
G1 X91.697 Y120.138 E0.04646
G1 X91.112 Y119.553 E0.04646
G1 X90.637 Y118.875 E0.04646
