; generated by Slic3r 0.9.8-dev on 2012-12-21 at 13:11:51

; layer_height = 0.4
; perimeters = 2
; top_solid_layers = 3
; bottom_solid_layers = 2
; fill_density = 0.2
; perimeter_speed = 32
; infill_speed = 50
; travel_speed = 250
; scale = 1
; nozzle_diameter = 0.5
; filament_diameter = 1.75
; extrusion_multiplier = 0.9
; perimeters extrusion width = 0.50mm
; infill extrusion width = 0.50mm
; support material extrusion width = 0.26mm
; first layer extrusion width = 0.50mm

M107
M190 S57 ; wait for bed temperature to be reached
M104 S200 ; set temperature
G28 X0 Y0
G1 X75 Y75 F12000
G28 Z0
G1 Z0.3 F200
G1 X15 Y20 F12000
M109 S200 ; wait for temperature to be reached
G90 ; use absolute coordinates
G21 ; set units to millimeters
M83 ; use relative distances for extrusion
G1 F2760.000 E-3.20000
G1 Z0.400 F15000.000
G1 X72.127 Y34.010
G1 X72.257 Y33.770 F2760.000 E3.20000
G1 X72.257 Y33.770 F1920.000
G1 X72.547 Y33.320 E0.04006
G1 X72.877 Y32.880 E0.04116
G1 X73.057 Y32.680 E0.02014
G1 X73.637 Y32.110 E0.06086
G1 X74.067 Y31.770 E0.04102
G1 X74.517 Y31.470 E0.04047
G1 X74.997 Y31.210 E0.04085
G1 X75.487 Y30.990 E0.04020
G1 X76.267 Y30.740 E0.06130
G1 X77.067 Y30.590 E0.06091
G1 X77.337 Y30.560 E0.02033
G1 X77.877 Y30.540 E0.04044
G1 X166.887 Y30.540 E6.66109
G1 X167.417 Y30.560 E0.03969
G1 X167.687 Y30.590 E0.02033
G1 X168.207 Y30.680 E0.03949
G1 X168.727 Y30.810 E0.04011
G1 X168.987 Y30.890 E0.02036
G1 X169.477 Y31.080 E0.03933
G1 X169.727 Y31.190 E0.02044
G1 X170.197 Y31.440 E0.03984
G1 X170.857 Y31.890 E0.05978
G1 X171.267 Y32.230 E0.03986
G1 X171.647 Y32.610 E0.04022
G1 X171.987 Y33.010 E0.03929
G1 X172.307 Y33.450 E0.04071
G1 X172.707 Y34.140 E0.05969
G1 X173.017 Y34.870 E0.05935
G1 X173.177 Y35.380 E0.04000
G1 X173.327 Y36.170 E0.06018
G1 X173.387 Y36.970 E0.06004
G1 X174.107 Y100.190 E4.73139
G1 X174.107 Y104.770 E0.34275
G1 X174.087 Y105.340 E0.04268
G1 X173.957 Y106.170 E0.06287
G1 X173.717 Y106.990 E0.06394
G1 X173.377 Y107.770 E0.06368
G1 X143.157 Y165.950 E4.90623
G1 X142.737 Y166.650 E0.06109
G1 X142.227 Y167.290 E0.06124
G1 X141.847 Y167.680 E0.04075
G1 X141.437 Y168.040 E0.04083
G1 X140.757 Y168.510 E0.06186
G1 X140.037 Y168.890 E0.06093
G1 X139.527 Y169.090 E0.04100
G1 X139.267 Y169.170 E0.02036
G1 X138.477 Y169.360 E0.06081
G1 X137.937 Y169.430 E0.04075
G1 X137.387 Y169.450 E0.04119
G1 X48.377 Y169.450 E6.66109
G1 X47.857 Y169.430 E0.03894
G1 X47.337 Y169.370 E0.03917
G1 X46.817 Y169.260 E0.03978
G1 X46.317 Y169.120 E0.03886
G1 X45.827 Y168.930 E0.03933
G1 X45.357 Y168.710 E0.03884
G1 X45.127 Y168.580 E0.01977
G1 X44.477 Y168.150 E0.05832
G1 X44.067 Y167.820 E0.03939
G1 X43.687 Y167.450 E0.03969
G1 X43.507 Y167.260 E0.01959
G1 X43.177 Y166.850 E0.03939
G1 X43.027 Y166.640 E0.01931
G1 X42.617 Y165.970 E0.05878
G1 X42.297 Y165.250 E0.05896
G1 X42.207 Y165.010 E0.01918
G1 X42.067 Y164.510 E0.03886
G1 X41.957 Y163.990 E0.03978
G1 X41.897 Y163.470 E0.03917
G1 X41.877 Y162.950 E0.03894
G1 X41.877 Y93.040 E5.23174
G1 X41.937 Y92.180 E0.06451
G1 X42.037 Y91.620 E0.04257
G1 X42.277 Y90.800 E0.06394
G1 X42.377 Y90.530 E0.02155
G1 X42.627 Y90.010 E0.04318
G1 X72.092 Y34.076 E4.73108
G1 X72.127 Y34.010 E0.00561
G1 F2760.000 E-3.20000
G1 X125.481 Y54.683 F15000.000
G1 X125.481 Y55.283 F2760.000 E3.20000
G1 X125.481 Y57.675 F600.000 E0.20710
G1 F2760.000 E-3.20000
G1 X125.792 Y54.366 F15000.000
G1 X125.792 Y54.966 F2760.000 E3.20000
G1 X125.792 Y57.675 F600.000 E0.23456
G1 X129.481 Y59.804 E0.36879
G1 X129.481 Y64.603 E0.41551
G1 X126.117 Y66.545 E0.33638
G1 F2760.000 E-3.20000
G1 X133.481 Y69.594 F15000.000
G1 X133.481 Y68.994 F2760.000 E3.20000
G1 X133.481 Y66.732 F600.000 E0.19585
G1 X129.792 Y64.603 E0.36879
G1 X129.792 Y59.804 E0.41551
G1 X133.481 Y57.675 E0.36879
G1 X133.481 Y52.876 E0.41551
G1 X131.016 Y51.453 E0.24647
G1 F2760.000 E-3.20000
G1 X133.792 Y69.545 F15000.000
G1 X133.792 Y68.945 F2760.000 E3.20000
G1 X133.792 Y66.732 F600.000 E0.19163
G1 X137.481 Y64.603 E0.36879
G1 X137.481 Y59.804 E0.41551
G1 X133.792 Y57.675 E0.36879
G1 X133.792 Y52.876 E0.41551
G1 X135.092 Y52.126 E0.12991
G1 F2760.000 E-3.20000
G1 X141.273 Y57.795 F15000.000
G1 X140.753 Y58.095 F2760.000 E3.20000
G1 X137.792 Y59.804 F600.000 E0.29605
G1 X137.792 Y64.603 E0.41551
G1 X141.273 Y66.612 E0.34801
G1 F2760.000 E-3.20000
G1 X141.481 Y54.546 F15000.000
G1 X141.481 Y55.146 F2760.000 E3.20000
G1 X141.481 Y57.049 F600.000 E0.16473
G1 X141.792 Y57.099 F15000.000
G1 X141.792 Y55.665 F600.000 E0.12422
G1 F2760.000 E-3.20000
G1 X145.481 Y49.142 F15000.000
G1 X145.481 Y48.542 F2760.000 E3.20000
G1 X145.481 Y45.948 F600.000 E0.22462
G1 X141.991 Y43.933 E0.34892
G1 F2760.000 E-3.20000
G1 X149.481 Y42.277 F15000.000
G1 X149.481 Y42.877 F2760.000 E3.20000
G1 X149.481 Y43.818 F600.000 E0.08146
G1 X145.792 Y45.948 E0.36879
G1 X145.792 Y48.962 E0.26099
G1 F2760.000 E-3.20000
G1 X88.656 Y47.642 F15000.000
G1 X88.613 Y47.900 F2760.000 E3.20000
G1 X88.613 Y47.900 F1560.000
G1 X88.503 Y48.219 E0.02519
G1 X88.317 Y48.549 E0.02837
G1 X88.136 Y48.781 E0.02198
G1 X87.889 Y49.009 E0.02519
G1 X87.607 Y49.193 E0.02518
G1 X87.299 Y49.328 E0.02519
G1 X86.972 Y49.411 E0.02519
G1 X86.653 Y49.437 E0.02399
G1 X83.621 Y49.437 E0.22690
G1 X83.301 Y49.411 E0.02399
G1 X82.975 Y49.328 E0.02520
G1 X82.667 Y49.193 E0.02519
G1 X82.385 Y49.009 E0.02519
G1 X82.137 Y48.780 E0.02520
G1 X81.930 Y48.515 E0.02518
G1 X81.770 Y48.219 E0.02520
G1 X81.661 Y47.900 E0.02520
G1 X81.605 Y47.568 E0.02518
G1 X81.605 Y47.232 E0.02520
G1 X81.661 Y46.900 E0.02518
G1 X81.770 Y46.581 E0.02520
G1 X81.930 Y46.285 E0.02519
G1 X82.137 Y46.020 E0.02520
G1 X82.385 Y45.792 E0.02519
G1 X82.667 Y45.607 E0.02521
G1 X82.975 Y45.472 E0.02519
G1 X83.301 Y45.390 E0.02518
G1 X83.621 Y45.363 E0.02400
G1 X86.653 Y45.363 E0.22690
G1 X86.972 Y45.389 E0.02399
G1 X87.298 Y45.472 E0.02519
G1 X87.607 Y45.607 E0.02520
G1 X87.889 Y45.792 E0.02520
G1 X88.136 Y46.020 E0.02519
G1 X88.343 Y46.285 E0.02519
G1 X88.503 Y46.581 E0.02519
G1 X88.613 Y46.900 E0.02520
G1 X88.668 Y47.232 E0.02518
G1 X88.668 Y47.493 E0.01960
G1 X88.656 Y47.642 E0.01119
G1 X89.168 Y47.506 F2760.000 E-3.20000
G1 X107.605 Y47.325 F15000.000
G1 X107.629 Y47.046 F2760.000 E3.20000
G1 X107.629 Y47.046 F1560.000
G1 X107.721 Y46.703 E0.02659
G1 X107.871 Y46.381 E0.02660
G1 X108.075 Y46.090 E0.02658
G1 X108.326 Y45.838 E0.02659
G1 X108.617 Y45.635 E0.02660
G1 X108.940 Y45.484 E0.02659
G1 X109.283 Y45.393 E0.02659
G1 X109.620 Y45.363 E0.02532
G1 X112.653 Y45.363 E0.22697
G1 X112.972 Y45.389 E0.02399
G1 X113.298 Y45.472 E0.02519
G1 X113.607 Y45.607 E0.02520
G1 X113.889 Y45.792 E0.02518
G1 X114.136 Y46.020 E0.02519
G1 X114.343 Y46.285 E0.02519
G1 X114.503 Y46.581 E0.02519
G1 X114.613 Y46.900 E0.02520
G1 X114.668 Y47.232 E0.02518
G1 X114.668 Y47.568 E0.02521
G1 X114.613 Y47.900 E0.02518
G1 X114.503 Y48.219 E0.02519
G1 X114.343 Y48.515 E0.02519
G1 X114.136 Y48.781 E0.02520
G1 X113.889 Y49.008 E0.02519
G1 X113.607 Y49.193 E0.02519
G1 X113.299 Y49.328 E0.02519
G1 X112.972 Y49.411 E0.02519
G1 X112.653 Y49.437 E0.02399
G1 X109.620 Y49.437 E0.22697
G1 X109.283 Y49.407 E0.02532
G1 X108.940 Y49.316 E0.02658
G1 X108.617 Y49.165 E0.02660
G1 X108.326 Y48.962 E0.02659
G1 X108.075 Y48.710 E0.02660
G1 X107.871 Y48.419 E0.02658
G1 X107.721 Y48.097 E0.02660
G1 X107.629 Y47.754 E0.02660
G1 X107.605 Y47.475 E0.02097
G1 X107.605 Y47.325 E0.01118
G1 X107.105 Y47.475 F2760.000 E-3.20000
G1 X109.695 Y71.363 F15000.000
G1 X110.295 Y71.363 F2760.000 E3.20000
G1 X112.653 Y71.363 F780.000 E0.17646
G1 X112.972 Y71.389 E0.02399
G1 X113.299 Y71.472 E0.02520
G1 X113.607 Y71.607 E0.02519
G1 X113.889 Y71.791 E0.02519
G1 X114.136 Y72.020 E0.02520
G1 X114.343 Y72.285 E0.02519
G1 X114.503 Y72.581 E0.02520
G1 X114.613 Y72.900 E0.02519
G1 X114.668 Y73.232 E0.02519
G1 X114.668 Y73.568 E0.02521
G1 X114.599 Y73.941 E0.02836
G1 X114.503 Y74.219 E0.02198
G1 X114.343 Y74.515 E0.02519
G1 X114.136 Y74.781 E0.02520
G1 X113.889 Y75.009 E0.02519
G1 X113.607 Y75.193 E0.02519
G1 X113.299 Y75.328 E0.02519
G1 X112.972 Y75.411 E0.02519
G1 X112.653 Y75.437 E0.02399
G1 X109.620 Y75.437 E0.22697
G1 X109.283 Y75.407 E0.02532
G1 X108.940 Y75.316 E0.02659
G1 X108.617 Y75.165 E0.02660
G1 X108.326 Y74.962 E0.02658
G1 X108.075 Y74.710 E0.02660
G1 X107.871 Y74.419 E0.02658
G1 X107.721 Y74.097 E0.02660
G1 X107.629 Y73.754 E0.02660
G1 X107.598 Y73.400 E0.02659
G1 X107.629 Y73.046 E0.02659
G1 X107.721 Y72.703 E0.02659
G1 X107.871 Y72.381 E0.02659
G1 X108.049 Y72.127 E0.02319
G1 X108.326 Y71.838 E0.02995
G1 X108.617 Y71.635 E0.02659
G1 X108.940 Y71.484 E0.02659
G1 X109.283 Y71.393 E0.02659
G1 X109.545 Y71.370 E0.01971
G1 X109.695 Y71.363 E0.01121
G1 X109.523 Y70.870 F15000.000
G1 X109.195 Y70.898 F960.000 E0.02462
G1 X108.188 Y71.168 E0.07808
G1 X109.920 Y69.509 E0.17947
G1 X111.269 Y67.709 E0.16840
G1 X112.306 Y65.712 E0.16840
G1 X113.003 Y63.572 E0.16840
G1 X113.342 Y61.347 E0.16839
G1 X113.312 Y59.098 E0.16839
G1 X112.916 Y56.882 E0.16840
G1 X112.164 Y54.762 E0.16839
G1 X111.075 Y52.792 E0.16839
G1 X109.680 Y51.027 E0.16840
G1 X108.128 Y49.616 E0.15699
G1 X109.196 Y49.902 E0.08271
G1 X109.598 Y49.937 E0.03022
G1 X112.673 Y49.937 E0.23015
G1 X113.055 Y49.905 E0.02864
G1 X113.461 Y49.802 E0.03139
G1 X113.846 Y49.634 E0.03139
G1 X114.197 Y49.404 E0.03140
G1 X114.505 Y49.120 E0.03138
G1 X114.763 Y48.789 E0.03141
G1 X114.963 Y48.420 E0.03139
G1 X115.099 Y48.024 E0.03139
G1 X115.168 Y47.610 E0.03138
G1 X115.168 Y47.190 E0.03143
G1 X115.072 Y46.697 E0.03762
G1 X114.963 Y46.380 E0.02509
G1 X114.763 Y46.011 E0.03140
G1 X114.505 Y45.680 E0.03138
G1 X114.197 Y45.396 E0.03140
G1 X113.846 Y45.166 E0.03138
G1 X113.461 Y44.998 E0.03142
G1 X113.055 Y44.895 E0.03139
G1 X112.673 Y44.863 E0.02863
G1 X109.598 Y44.863 E0.23015
G1 X109.196 Y44.898 E0.03023
G1 X108.768 Y45.013 E0.03314
G1 X108.367 Y45.200 E0.03314
G1 X108.004 Y45.454 E0.03315
G1 X107.691 Y45.767 E0.03315
G1 X107.437 Y46.130 E0.03313
G1 X107.249 Y46.531 E0.03314
G1 X107.135 Y46.959 E0.03314
G1 X107.096 Y47.400 E0.03313
G1 X107.135 Y47.841 E0.03313
G1 X107.250 Y48.269 E0.03315
G1 X107.750 Y49.342 E0.08859
G1 X106.126 Y48.292 E0.14476
G1 X104.062 Y47.395 E0.16840
G1 X101.879 Y46.847 E0.16839
G1 X99.667 Y46.665 E0.16608
G1 X96.608 Y46.665 E0.22893
G1 X94.568 Y46.819 E0.15313
G1 X92.546 Y47.286 E0.15526
G1 X90.618 Y48.051 E0.15526
G1 X88.489 Y49.297 E0.18460
G1 X88.963 Y48.420 E0.07456
G1 X89.099 Y48.024 E0.03138
G1 X89.168 Y47.610 E0.03139
G1 X89.168 Y47.190 E0.03143
G1 X89.099 Y46.776 E0.03137
G1 X88.963 Y46.380 E0.03140
G1 X88.763 Y46.011 E0.03140
G1 X88.505 Y45.680 E0.03138
G1 X88.197 Y45.396 E0.03140
G1 X87.846 Y45.166 E0.03141
G1 X87.461 Y44.998 E0.03140
G1 X87.055 Y44.895 E0.03139
G1 X86.673 Y44.863 E0.02863
G1 X83.600 Y44.863 E0.22999
G1 X83.219 Y44.895 E0.02865
G1 X82.812 Y44.998 E0.03138
G1 X82.428 Y45.166 E0.03139
G1 X82.076 Y45.396 E0.03143
G1 X81.768 Y45.680 E0.03138
G1 X81.510 Y46.011 E0.03141
G1 X81.311 Y46.380 E0.03138
G1 X81.174 Y46.777 E0.03140
G1 X81.105 Y47.190 E0.03138
G1 X81.105 Y47.610 E0.03140
G1 X81.174 Y48.023 E0.03138
G1 X81.311 Y48.420 E0.03139
G1 X81.510 Y48.789 E0.03141
G1 X81.768 Y49.120 E0.03138
G1 X82.077 Y49.404 E0.03140
G1 X82.428 Y49.634 E0.03139
G1 X82.812 Y49.802 E0.03138
G1 X83.219 Y49.905 E0.03141
G1 X83.600 Y49.937 E0.02863
G1 X86.673 Y49.937 E0.23000
G1 X87.055 Y49.905 E0.02864
G1 X88.183 Y49.620 E0.08711
G1 X87.214 Y50.404 E0.09327
G1 X86.078 Y51.650 E0.12624
G1 X83.669 Y51.650 E0.18021
G1 X82.725 Y51.567 E0.07091
G1 X81.842 Y51.331 E0.06844
G1 X81.013 Y50.944 E0.06845
G1 X80.264 Y50.420 E0.06844
G1 X79.617 Y49.773 E0.06845
G1 X79.093 Y49.024 E0.06845
G1 X78.706 Y48.195 E0.06845
G1 X78.469 Y47.311 E0.06844
G1 X78.387 Y46.367 E0.07091
G1 X78.387 Y37.550 E0.65984
G1 X166.387 Y37.550 E6.58551
G1 X166.387 Y41.050 E0.26192
G1 X142.606 Y41.050 E1.77966
G1 X142.245 Y41.081 E0.02706
G1 X141.866 Y41.183 E0.02938
G1 X141.510 Y41.349 E0.02939
G1 X141.189 Y41.574 E0.02939
G1 X140.911 Y41.852 E0.02940
G1 X140.686 Y42.174 E0.02938
G1 X140.520 Y42.529 E0.02938
G1 X140.418 Y42.909 E0.02939
G1 X140.387 Y43.267 E0.02693
G1 X140.387 Y52.650 E0.70216
G1 X139.541 Y52.650 E0.06325
G1 X138.395 Y51.736 E0.10972
G1 X136.822 Y50.876 E0.13419
G1 X135.124 Y50.299 E0.13419
G1 X133.352 Y50.022 E0.13420
G1 X131.559 Y50.053 E0.13420
G1 X129.798 Y50.392 E0.13420
G1 X128.122 Y51.028 E0.13420
G1 X126.579 Y51.943 E0.13420
G1 X125.217 Y53.109 E0.13420
G1 X124.075 Y54.491 E0.13419
G1 X123.187 Y56.049 E0.13420
G1 X122.581 Y57.737 E0.13419
G1 X122.273 Y59.503 E0.13420
G1 X122.273 Y61.297 E0.13419
G1 X122.581 Y63.063 E0.13420
G1 X123.187 Y64.751 E0.13419
G1 X124.075 Y66.309 E0.13420
G1 X125.217 Y67.691 E0.13419
G1 X126.579 Y68.857 E0.13420
G1 X128.122 Y69.772 E0.13420
G1 X129.798 Y70.408 E0.13420
G1 X131.559 Y70.747 E0.13420
G1 X133.352 Y70.778 E0.13420
G1 X135.124 Y70.501 E0.13420
G1 X136.822 Y69.924 E0.13419
G1 X138.395 Y69.064 E0.13419
G1 X139.541 Y68.150 E0.10972
G1 X140.387 Y68.150 E0.06325
G1 X140.387 Y79.050 E0.81571
G1 X109.169 Y79.050 E2.33615
G1 X108.399 Y78.983 E0.05786
G1 X107.684 Y78.791 E0.05540
G1 X107.013 Y78.478 E0.05540
G1 X106.407 Y78.053 E0.05540
G1 X105.883 Y77.530 E0.05541
G1 X105.459 Y76.924 E0.05540
G1 X105.146 Y76.253 E0.05540
G1 X104.954 Y75.537 E0.05540
G1 X104.887 Y74.767 E0.05786
G1 X104.887 Y73.058 E0.12788
G1 X106.437 Y72.336 E0.12801
G1 X107.763 Y71.429 E0.12024
G1 X107.249 Y72.531 E0.09099
G1 X107.135 Y72.959 E0.03314
G1 X107.096 Y73.400 E0.03313
G1 X107.135 Y73.841 E0.03313
G1 X107.250 Y74.269 E0.03315
G1 X107.437 Y74.670 E0.03314
G1 X107.691 Y75.033 E0.03312
G1 X108.004 Y75.346 E0.03316
G1 X108.366 Y75.600 E0.03313
G1 X108.768 Y75.787 E0.03314
G1 X109.195 Y75.902 E0.03313
G1 X109.598 Y75.937 E0.03023
G1 X112.673 Y75.937 E0.23015
G1 X113.055 Y75.905 E0.02864
G1 X113.461 Y75.802 E0.03139
G1 X113.846 Y75.634 E0.03139
G1 X114.197 Y75.404 E0.03139
G1 X114.505 Y75.120 E0.03139
G1 X114.711 Y74.856 E0.02508
G1 X114.963 Y74.420 E0.03764
G1 X115.099 Y74.024 E0.03139
G1 X115.168 Y73.610 E0.03138
G1 X115.168 Y73.190 E0.03142
G1 X115.099 Y72.776 E0.03139
G1 X114.963 Y72.380 E0.03138
G1 X114.763 Y72.011 E0.03140
G1 X114.505 Y71.680 E0.03139
G1 X114.197 Y71.396 E0.03140
G1 X113.757 Y71.108 E0.03931
G1 X113.757 Y71.072 E0.00268
G1 X113.055 Y70.895 E0.05420
G1 X112.673 Y70.863 E0.02864
G1 X110.048 Y70.863 E0.19648
G1 X109.523 Y70.870
G1 X108.033 Y70.625 F15000.000
G1 X109.544 Y69.177 F780.000 E0.15663
G1 X110.844 Y67.442 E0.16225
G1 X111.795 Y65.611 E0.15434
G1 X111.843 Y65.518 E0.00790
G1 X112.515 Y63.456 E0.16225
G1 X112.841 Y61.313 E0.16224
G1 X112.813 Y59.145 E0.16224
G1 X112.431 Y57.011 E0.16225
G1 X112.396 Y56.911 E0.00790
G1 X111.706 Y54.968 E0.15434
G1 X110.658 Y53.070 E0.16224
G1 X109.313 Y51.369 E0.16225
G1 X107.709 Y49.911 E0.16225
G1 X105.889 Y48.734 E0.16224
G1 X103.900 Y47.870 E0.16225
G1 X101.797 Y47.342 E0.16224
G1 X99.647 Y47.165 E0.16148
G1 X96.627 Y47.165 E0.22598
G1 X94.643 Y47.315 E0.14888
G1 X92.696 Y47.765 E0.14959
G1 X90.838 Y48.502 E0.14959
G1 X89.112 Y49.511 E0.14959
G1 X87.558 Y50.768 E0.14959
G1 X86.298 Y52.150 E0.13992
G1 X83.648 Y52.150 E0.19837
G1 X82.638 Y52.062 E0.07582
G1 X81.670 Y51.802 E0.07499
G1 X80.762 Y51.379 E0.07500
G1 X79.941 Y50.804 E0.07499
G1 X79.233 Y50.095 E0.07500
G1 X78.658 Y49.275 E0.07499
G1 X78.234 Y48.366 E0.07500
G1 X77.975 Y47.398 E0.07499
G1 X77.887 Y46.389 E0.07582
G1 X77.887 Y37.050 E0.69889
G1 X166.887 Y37.050 E6.66034
G1 X166.887 Y41.550 E0.33676
G1 X142.626 Y41.550 E1.81552
G1 X142.333 Y41.576 E0.02207
G1 X142.038 Y41.655 E0.02284
G1 X141.761 Y41.784 E0.02284
G1 X141.511 Y41.959 E0.02284
G1 X141.295 Y42.175 E0.02284
G1 X141.120 Y42.425 E0.02284
G1 X140.991 Y42.701 E0.02284
G1 X140.912 Y42.996 E0.02284
G1 X140.887 Y43.289 E0.02202
G1 X140.887 Y53.150 E0.73794
G1 X139.367 Y53.150 E0.11375
G1 X138.117 Y52.154 E0.11956
G1 X136.620 Y51.336 E0.12772
G1 X135.004 Y50.786 E0.12772
G1 X133.318 Y50.522 E0.12772
G1 X131.611 Y50.552 E0.12772
G1 X129.935 Y50.875 E0.12772
G1 X128.339 Y51.480 E0.12772
G1 X126.871 Y52.351 E0.12772
G1 X125.575 Y53.460 E0.12772
G1 X124.488 Y54.776 E0.12772
