; generated by Slic3r 0.9.8-dev on 2012-12-19 at 09:48:22

; layer_height = 0.4
; perimeters = 2
; top_solid_layers = 3
; bottom_solid_layers = 2
; fill_density = 0.2
; perimeter_speed = 32
; infill_speed = 50
; travel_speed = 250
; scale = 1
; nozzle_diameter = 0.5
; filament_diameter = 1.75
; extrusion_multiplier = 0.9
; perimeters extrusion width = 0.50mm
; infill extrusion width = 0.50mm
; first layer extrusion width = 0.50mm

M107
M190 S57 ; wait for bed temperature to be reached
M104 S200 ; set temperature
G28 X0 Y0
G1 X75 Y75 F12000
G28 Z0
G1 Z0.3 F200
G1 X15 Y20 F12000
M109 S200 ; wait for temperature to be reached
G90 ; use absolute coordinates
G21 ; set units to millimeters
M83 ; use relative distances for extrusion
G1 F2760.000 E-3.20000
G1 Z0.400 F15000.000
G1 X47.900 Y67.030
G1 X48.403 Y66.702 F2760.000 E3.20000
G1 X48.560 Y66.600 F960.000 E0.01405
G1 X48.790 Y66.470 E0.01977
G1 X49.270 Y66.250 E0.03951
G1 X49.510 Y66.150 E0.01946
G1 X50.010 Y65.990 E0.03929
G1 X50.520 Y65.860 E0.03939
G1 X120.780 Y54.820 E5.32244
G1 X121.790 Y54.740 E0.07582
G1 X151.300 Y54.740 E2.20839
G1 X151.840 Y54.760 E0.04044
G1 X152.380 Y54.830 E0.04075
G1 X152.910 Y54.940 E0.04051
G1 X153.690 Y55.190 E0.06130
G1 X154.430 Y55.540 E0.06126
G1 X154.890 Y55.820 E0.04030
G1 X155.540 Y56.310 E0.06092
G1 X156.120 Y56.880 E0.06086
G1 X156.470 Y57.300 E0.04091
G1 X156.780 Y57.750 E0.04089
G1 X157.180 Y58.460 E0.06099
G1 X171.810 Y89.400 E2.56121
G1 X172.050 Y89.990 E0.04767
G1 X172.240 Y90.600 E0.04781
G1 X172.670 Y92.720 E0.16188
G1 X172.770 Y93.480 E0.05737
G1 X172.790 Y93.990 E0.03820
G1 X172.790 Y124.240 E2.26377
G1 X172.750 Y124.750 E0.03828
G1 X172.670 Y125.250 E0.03789
G1 X172.310 Y127.070 E0.13884
G1 X172.240 Y127.380 E0.02378
G1 X172.050 Y128.000 E0.04853
G1 X171.810 Y128.590 E0.04767
G1 X157.180 Y159.530 E2.56121
G1 X156.780 Y160.240 E0.06099
G1 X156.470 Y160.690 E0.04089
G1 X155.940 Y161.300 E0.06047
G1 X155.540 Y161.680 E0.04129
G1 X155.330 Y161.850 E0.02022
G1 X154.890 Y162.170 E0.04071
G1 X154.430 Y162.450 E0.04030
G1 X153.690 Y162.800 E0.06126
G1 X153.180 Y162.970 E0.04023
G1 X152.650 Y163.110 E0.04102
G1 X151.840 Y163.230 E0.06128
G1 X151.300 Y163.250 E0.04044
G1 X51.790 Y163.250 E7.44686
G1 X51.270 Y163.230 E0.03894
G1 X50.750 Y163.170 E0.03917
G1 X50.230 Y163.060 E0.03978
G1 X49.730 Y162.920 E0.03886
G1 X49.490 Y162.830 E0.01918
G1 X49.000 Y162.620 E0.03990
G1 X48.540 Y162.380 E0.03883
G1 X47.890 Y161.950 E0.05832
G1 X47.480 Y161.620 E0.03939
G1 X46.920 Y161.060 E0.05927
G1 X46.590 Y160.650 E0.03939
G1 X46.160 Y160.000 E0.05832
G1 X46.030 Y159.770 E0.01977
G1 X45.810 Y159.300 E0.03884
G1 X45.620 Y158.810 E0.03933
G1 X45.420 Y158.050 E0.05881
G1 X45.370 Y157.790 E0.01981
G1 X45.310 Y157.270 E0.03917
G1 X45.290 Y156.750 E0.03894
G1 X45.290 Y72.240 E6.32433
G1 X45.310 Y71.720 E0.03894
G1 X45.370 Y71.190 E0.03992
G1 X45.420 Y70.940 E0.01908
G1 X45.630 Y70.170 E0.05973
G1 X45.810 Y69.680 E0.03907
G1 X45.920 Y69.440 E0.01976
G1 X46.300 Y68.750 E0.05895
G1 X46.600 Y68.320 E0.03924
G1 X47.120 Y67.720 E0.05942
G1 X47.500 Y67.360 E0.03917
G1 X47.841 Y67.077 E0.03319
G1 X47.900 Y67.030 E0.00561
G1 F2760.000 E-3.20000
G1 X127.996 Y120.416 F15000.000
G1 X128.420 Y119.992 F2760.000 E3.20000
G1 X128.519 Y119.893 F780.000 E0.01047
G1 X129.245 Y119.523 E0.06098
G1 X130.050 Y119.396 E0.06098
G1 X130.855 Y119.523 E0.06098
G1 X131.581 Y119.893 E0.06098
G1 X132.157 Y120.469 E0.06098
G1 X132.527 Y121.195 E0.06098
G1 X132.654 Y122.000 E0.06098
G1 X132.527 Y122.805 E0.06098
G1 X132.157 Y123.531 E0.06098
G1 X131.581 Y124.107 E0.06098
G1 X130.855 Y124.477 E0.06098
G1 X130.050 Y124.604 E0.06098
G1 X129.245 Y124.477 E0.06098
G1 X128.519 Y124.107 E0.06098
G1 X127.943 Y123.531 E0.06098
G1 X127.573 Y122.805 E0.06098
G1 X127.446 Y122.000 E0.06098
G1 X127.573 Y121.195 E0.06098
G1 X127.739 Y120.870 E0.02730
G1 X127.996 Y120.416
G1 X128.406 Y120.714 F15000.000
G1 X128.817 Y120.302 F780.000 E0.04351
G1 X129.402 Y120.004 E0.04913
G1 X130.050 Y119.902 E0.04913
G1 X130.698 Y120.004 E0.04913
G1 X131.283 Y120.302 E0.04913
G1 X131.748 Y120.767 E0.04913
G1 X132.046 Y121.352 E0.04913
G1 X132.148 Y122.000 E0.04913
G1 X132.046 Y122.648 E0.04913
G1 X131.748 Y123.233 E0.04913
G1 X131.283 Y123.698 E0.04913
G1 X130.698 Y123.996 E0.04913
G1 X130.050 Y124.098 E0.04913
G1 X129.402 Y123.996 E0.04913
G1 X128.817 Y123.698 E0.04913
G1 X128.352 Y123.233 E0.04913
G1 X128.054 Y122.648 E0.04913
G1 X127.952 Y122.000 E0.04913
G1 X128.054 Y121.352 E0.04913
G1 X128.318 Y120.834 E0.04352
G1 X128.406 Y120.714 E0.01109
G1 X127.739 Y120.870 F2760.000 E-3.20000
G1 X129.976 Y98.593 F15000.000
G1 X129.383 Y98.499 F2760.000 E3.20000
G1 X129.245 Y98.477 F780.000 E0.01047
G1 X128.519 Y98.107 E0.06098
G1 X127.943 Y97.531 E0.06098
G1 X127.573 Y96.805 E0.06098
G1 X127.446 Y96.000 E0.06098
G1 X127.573 Y95.195 E0.06098
G1 X127.943 Y94.469 E0.06098
G1 X128.519 Y93.893 E0.06098
G1 X129.245 Y93.523 E0.06098
G1 X130.050 Y93.396 E0.06098
G1 X130.855 Y93.523 E0.06098
G1 X131.581 Y93.893 E0.06098
G1 X132.157 Y94.469 E0.06098
G1 X132.527 Y95.195 E0.06098
G1 X132.654 Y96.000 E0.06098
G1 X132.527 Y96.805 E0.06098
G1 X132.157 Y97.531 E0.06098
G1 X131.581 Y98.107 E0.06098
G1 X130.855 Y98.477 E0.06098
G1 X130.494 Y98.534 E0.02730
G1 X129.976 Y98.593
G1 X129.976 Y98.087 F15000.000
G1 X129.402 Y97.996 F780.000 E0.04351
G1 X128.817 Y97.698 E0.04913
G1 X128.352 Y97.233 E0.04913
G1 X128.054 Y96.648 E0.04913
G1 X127.952 Y96.000 E0.04913
G1 X128.054 Y95.352 E0.04913
G1 X128.352 Y94.767 E0.04913
G1 X128.817 Y94.302 E0.04913
G1 X129.402 Y94.004 E0.04913
G1 X130.050 Y93.902 E0.04913
G1 X130.698 Y94.004 E0.04913
G1 X131.283 Y94.302 E0.04913
G1 X131.748 Y94.767 E0.04913
G1 X132.046 Y95.352 E0.04913
G1 X132.148 Y96.000 E0.04913
G1 X132.046 Y96.648 E0.04913
G1 X131.748 Y97.233 E0.04913
G1 X131.283 Y97.698 E0.04913
G1 X130.698 Y97.996 E0.04913
G1 X130.124 Y98.087 E0.04352
G1 X129.976 Y98.087 E0.01109
G1 X130.494 Y98.534 F2760.000 E-3.20000
G1 X123.946 Y96.856 F15000.000
G1 X123.674 Y97.391 F2760.000 E3.20000
G1 X123.617 Y97.502 F780.000 E0.00931
G1 X123.502 Y97.617 E0.01214
G1 X123.052 Y98.067 E0.04767
G1 X122.340 Y98.430 E0.05983
G1 X121.550 Y98.555 E0.05983
G1 X120.760 Y98.430 E0.05982
G1 X120.048 Y98.067 E0.05982
G1 X119.483 Y97.502 E0.05982
G1 X119.409 Y97.357 E0.01214
G1 X119.120 Y96.789 E0.04770
G1 X118.995 Y96.000 E0.05981
G1 X119.120 Y95.211 E0.05981
G1 X119.483 Y94.498 E0.05984
G1 X120.048 Y93.933 E0.05982
G1 X120.760 Y93.570 E0.05982
G1 X121.550 Y93.445 E0.05983
G1 X122.340 Y93.570 E0.05982
G1 X123.052 Y93.933 E0.05983
G1 X123.617 Y94.498 E0.05982
G1 X123.980 Y95.210 E0.05982
G1 X124.105 Y96.000 E0.05982
G1 X124.050 Y96.345 E0.02615
G1 X123.946 Y96.856
G1 X123.464 Y96.700 F15000.000
G1 X123.208 Y97.204 F780.000 E0.04236
G1 X122.754 Y97.657 E0.04797
G1 X122.183 Y97.949 E0.04797
G1 X121.550 Y98.049 E0.04797
G1 X120.917 Y97.949 E0.04797
G1 X120.346 Y97.658 E0.04797
G1 X119.893 Y97.204 E0.04797
G1 X119.855 Y97.130 E0.00621
G1 X119.601 Y96.633 E0.04176
G1 X119.501 Y96.000 E0.04797
G1 X119.601 Y95.367 E0.04797
G1 X119.893 Y94.796 E0.04798
G1 X120.346 Y94.342 E0.04797
G1 X120.917 Y94.051 E0.04797
G1 X121.550 Y93.951 E0.04797
G1 X122.183 Y94.051 E0.04797
G1 X122.754 Y94.343 E0.04797
G1 X123.208 Y94.796 E0.04797
G1 X123.499 Y95.367 E0.04797
G1 X123.599 Y96.000 E0.04797
G1 X123.510 Y96.559 E0.04236
G1 X123.464 Y96.700 E0.01109
G1 X124.050 Y96.345 F2760.000 E-3.20000
G1 X115.651 Y100.565 F15000.000
G1 X115.923 Y101.100 F2760.000 E3.20000
G1 X115.980 Y101.210 F780.000 E0.00931
G1 X116.105 Y102.000 E0.05982
G1 X115.980 Y102.790 E0.05982
G1 X115.617 Y103.502 E0.05982
G1 X115.052 Y104.067 E0.05982
G1 X114.340 Y104.430 E0.05982
G1 X113.550 Y104.555 E0.05982
G1 X112.760 Y104.430 E0.05982
G1 X112.048 Y104.067 E0.05982
G1 X111.483 Y103.502 E0.05982
G1 X111.120 Y102.790 E0.05982
G1 X110.995 Y102.000 E0.05982
G1 X111.120 Y101.210 E0.05982
G1 X111.483 Y100.498 E0.05982
G1 X112.048 Y99.933 E0.05982
G1 X112.760 Y99.570 E0.05982
G1 X113.550 Y99.445 E0.05982
G1 X114.340 Y99.570 E0.05982
G1 X115.052 Y99.933 E0.05982
G1 X115.299 Y100.180 E0.02614
G1 X115.651 Y100.565
G1 X115.242 Y100.863 F15000.000
G1 X115.499 Y101.367 F780.000 E0.04236
G1 X115.599 Y102.000 E0.04797
G1 X115.499 Y102.633 E0.04797
G1 X115.208 Y103.204 E0.04797
G1 X114.754 Y103.657 E0.04797
G1 X114.183 Y103.949 E0.04797
G1 X113.550 Y104.049 E0.04797
G1 X112.917 Y103.949 E0.04797
G1 X112.346 Y103.658 E0.04797
G1 X111.892 Y103.204 E0.04797
G1 X111.601 Y102.633 E0.04797
G1 X111.501 Y102.000 E0.04797
G1 X111.601 Y101.367 E0.04797
G1 X111.892 Y100.796 E0.04797
G1 X112.346 Y100.342 E0.04797
G1 X112.917 Y100.051 E0.04797
G1 X113.550 Y99.951 E0.04797
G1 X114.183 Y100.051 E0.04797
G1 X114.754 Y100.342 E0.04797
G1 X115.154 Y100.743 E0.04236
G1 X115.242 Y100.863 E0.01109
G1 X115.299 Y100.180 F2760.000 E-3.20000
G1 X113.624 Y113.457 F15000.000
G1 X114.217 Y113.551 F2760.000 E3.20000
G1 X114.340 Y113.570 F780.000 E0.00931
G1 X115.052 Y113.933 E0.05982
G1 X115.617 Y114.498 E0.05982
G1 X115.897 Y115.048 E0.04614
G1 X115.980 Y115.210 E0.01369
G1 X116.105 Y116.000 E0.05982
G1 X115.980 Y116.790 E0.05982
G1 X115.617 Y117.502 E0.05982
G1 X115.052 Y118.067 E0.05982
G1 X114.340 Y118.430 E0.05982
G1 X114.159 Y118.459 E0.01369
G1 X113.550 Y118.555 E0.04614
G1 X112.760 Y118.430 E0.05982
G1 X112.048 Y118.067 E0.05982
G1 X111.483 Y117.502 E0.05982
G1 X111.120 Y116.790 E0.05982
G1 X110.995 Y116.000 E0.05982
G1 X111.120 Y115.210 E0.05982
G1 X111.483 Y114.498 E0.05982
G1 X112.048 Y113.933 E0.05982
G1 X112.760 Y113.570 E0.05982
G1 X113.106 Y113.515 E0.02615
G1 X113.624 Y113.457
G1 X113.624 Y113.963 F15000.000
G1 X114.183 Y114.051 F780.000 E0.04236
G1 X114.754 Y114.342 E0.04797
G1 X115.208 Y114.796 E0.04797
G1 X115.499 Y115.367 E0.04797
G1 X115.599 Y116.000 E0.04797
G1 X115.499 Y116.633 E0.04797
G1 X115.208 Y117.204 E0.04797
G1 X114.754 Y117.657 E0.04797
G1 X114.183 Y117.949 E0.04797
G1 X114.081 Y117.965 E0.00776
G1 X113.550 Y118.049 E0.04021
G1 X112.917 Y117.949 E0.04797
G1 X112.346 Y117.658 E0.04797
G1 X111.892 Y117.204 E0.04797
G1 X111.601 Y116.633 E0.04797
G1 X111.501 Y116.000 E0.04797
G1 X111.601 Y115.367 E0.04797
G1 X111.892 Y114.796 E0.04797
G1 X112.346 Y114.342 E0.04797
G1 X112.917 Y114.051 E0.04797
G1 X113.476 Y113.963 E0.04236
G1 X113.624 Y113.963 E0.01109
G1 X113.106 Y113.515 F2760.000 E-3.20000
G1 X75.180 Y130.695 F15000.000
G1 X75.180 Y131.295 F2760.000 E3.20000
G1 X75.180 Y141.380 F960.000 E0.75467
G1 X61.920 Y141.380 E0.99228
G1 X61.920 Y130.620 E0.80519
G1 X74.730 Y130.620 E0.95860
G1 X75.180 Y130.695
G1 X74.680 Y131.195 F15000.000
G1 X74.680 Y140.880 F780.000 E0.72474
G1 X62.420 Y140.880 E0.91744
G1 X62.420 Y131.120 E0.73035
G1 X74.605 Y131.120 E0.91183
G1 X74.680 Y131.195 E0.00794
G1 X74.730 Y130.620 F2760.000 E-3.20000
G1 X76.178 Y124.443 F15000.000
G1 X75.644 Y124.171 F2760.000 E3.20000
G1 X75.519 Y124.107 F780.000 E0.01047
G1 X74.943 Y123.531 E0.06098
G1 X74.573 Y122.805 E0.06098
G1 X74.446 Y122.000 E0.06098
G1 X74.573 Y121.195 E0.06098
G1 X74.943 Y120.469 E0.06098
G1 X75.519 Y119.893 E0.06098
G1 X76.245 Y119.523 E0.06098
G1 X77.050 Y119.396 E0.06098
G1 X77.855 Y119.523 E0.06098
G1 X78.581 Y119.893 E0.06098
G1 X79.157 Y120.469 E0.06098
G1 X79.527 Y121.195 E0.06098
G1 X79.654 Y122.000 E0.06098
G1 X79.527 Y122.805 E0.06098
G1 X79.157 Y123.531 E0.06098
G1 X78.581 Y124.107 E0.06098
G1 X77.855 Y124.477 E0.06098
G1 X77.050 Y124.604 E0.06098
G1 X76.690 Y124.547 E0.02730
G1 X76.178 Y124.443
G1 X76.335 Y123.961 F15000.000
G1 X75.817 Y123.698 F780.000 E0.04352
G1 X75.352 Y123.233 E0.04913
G1 X75.054 Y122.648 E0.04913
G1 X74.952 Y122.000 E0.04913
G1 X75.054 Y121.352 E0.04913
G1 X75.352 Y120.767 E0.04913
G1 X75.817 Y120.302 E0.04913
G1 X76.402 Y120.004 E0.04913
G1 X77.050 Y119.902 E0.04913
G1 X77.698 Y120.004 E0.04913
G1 X78.283 Y120.302 E0.04913
G1 X78.748 Y120.767 E0.04913
G1 X79.046 Y121.352 E0.04913
G1 X79.148 Y122.000 E0.04913
G1 X79.046 Y122.648 E0.04913
G1 X78.748 Y123.233 E0.04913
G1 X78.283 Y123.698 E0.04913
G1 X77.698 Y123.996 E0.04913
G1 X77.050 Y124.098 E0.04913
G1 X76.476 Y124.007 E0.04351
G1 X76.335 Y123.961 E0.01109
G1 X76.690 Y124.547 F2760.000 E-3.20000
G1 X83.108 Y122.715 F15000.000
G1 X83.014 Y122.123 F2760.000 E3.20000
G1 X82.995 Y122.000 F780.000 E0.00931
G1 X83.120 Y121.210 E0.05982
G1 X83.409 Y120.643 E0.04769
G1 X83.483 Y120.498 E0.01214
G1 X84.048 Y119.933 E0.05981
G1 X84.761 Y119.570 E0.05983
G1 X85.550 Y119.445 E0.05981
G1 X86.339 Y119.570 E0.05982
G1 X87.052 Y119.933 E0.05983
G1 X87.617 Y120.498 E0.05982
G1 X87.906 Y121.066 E0.04768
G1 X87.980 Y121.211 E0.01214
G1 X88.105 Y122.000 E0.05982
G1 X87.980 Y122.789 E0.05982
G1 X87.617 Y123.502 E0.05982
G1 X87.502 Y123.616 E0.01214
G1 X87.052 Y124.067 E0.04768
G1 X86.339 Y124.430 E0.05983
G1 X85.550 Y124.555 E0.05982
G1 X84.761 Y124.430 E0.05981
G1 X84.048 Y124.067 E0.05983
G1 X83.483 Y123.502 E0.05981
G1 X83.324 Y123.191 E0.02615
G1 X83.108 Y122.715
G1 X83.590 Y122.559 F15000.000
G1 X83.501 Y122.000 F780.000 E0.04236
G1 X83.601 Y121.367 E0.04797
G1 X83.855 Y120.870 E0.04176
G1 X83.893 Y120.796 E0.00621
G1 X84.346 Y120.342 E0.04797
G1 X84.917 Y120.051 E0.04797
G1 X85.550 Y119.951 E0.04797
G1 X86.183 Y120.051 E0.04797
G1 X86.754 Y120.343 E0.04797
G1 X87.208 Y120.796 E0.04797
G1 X87.461 Y121.293 E0.04176
G1 X87.499 Y121.367 E0.00621
G1 X87.599 Y122.000 E0.04797
G1 X87.499 Y122.633 E0.04797
G1 X87.208 Y123.204 E0.04797
G1 X87.149 Y123.263 E0.00621
G1 X86.754 Y123.657 E0.04176
G1 X86.183 Y123.949 E0.04797
G1 X85.550 Y124.049 E0.04797
G1 X84.917 Y123.949 E0.04797
G1 X84.346 Y123.658 E0.04797
G1 X83.893 Y123.204 E0.04797
G1 X83.636 Y122.700 E0.04236
G1 X83.590 Y122.559 E0.01109
G1 X83.324 Y123.191 F2760.000 E-3.20000
G1 X91.449 Y117.435 F15000.000
G1 X91.176 Y116.900 F2760.000 E3.20000
G1 X91.120 Y116.790 F780.000 E0.00931
G1 X90.995 Y116.000 E0.05982
G1 X91.120 Y115.210 E0.05982
G1 X91.483 Y114.498 E0.05982
G1 X92.048 Y113.933 E0.05982
G1 X92.760 Y113.570 E0.05982
G1 X93.550 Y113.445 E0.05982
G1 X94.340 Y113.570 E0.05982
G1 X95.052 Y113.933 E0.05982
G1 X95.617 Y114.498 E0.05982
G1 X95.897 Y115.048 E0.04614
G1 X95.980 Y115.210 E0.01369
G1 X96.105 Y116.000 E0.05982
G1 X95.980 Y116.790 E0.05982
G1 X95.617 Y117.502 E0.05982
G1 X95.052 Y118.067 E0.05982
G1 X94.889 Y118.150 E0.01369
G1 X94.340 Y118.430 E0.04614
G1 X93.550 Y118.555 E0.05982
G1 X92.760 Y118.430 E0.05982
G1 X92.048 Y118.067 E0.05982
G1 X91.801 Y117.820 E0.02615
G1 X91.449 Y117.435
G1 X91.858 Y117.137 F15000.000
G1 X91.601 Y116.633 F780.000 E0.04236
G1 X91.501 Y116.000 E0.04797
G1 X91.601 Y115.367 E0.04797
G1 X91.892 Y114.796 E0.04797
G1 X92.346 Y114.342 E0.04797
G1 X92.917 Y114.051 E0.04797
G1 X93.550 Y113.951 E0.04797
G1 X94.183 Y114.051 E0.04797
G1 X94.754 Y114.342 E0.04797
G1 X95.208 Y114.796 E0.04797
G1 X95.499 Y115.367 E0.04797
G1 X95.599 Y116.000 E0.04797
G1 X95.499 Y116.633 E0.04797
G1 X95.208 Y117.204 E0.04797
G1 X94.754 Y117.657 E0.04797
G1 X94.662 Y117.705 E0.00776
G1 X94.183 Y117.949 E0.04021
G1 X93.550 Y118.049 E0.04797
G1 X92.917 Y117.949 E0.04797
G1 X92.346 Y117.658 E0.04797
G1 X91.946 Y117.257 E0.04236
G1 X91.858 Y117.137 E0.01109
G1 X91.801 Y117.820 F2760.000 E-3.20000
G1 X93.476 Y104.543 F15000.000
G1 X92.883 Y104.449 F2760.000 E3.20000
G1 X92.760 Y104.430 F780.000 E0.00931
G1 X92.048 Y104.067 E0.05982
G1 X91.483 Y103.502 E0.05982
G1 X91.120 Y102.790 E0.05982
G1 X90.995 Y102.000 E0.05982
G1 X91.120 Y101.210 E0.05982
G1 X91.483 Y100.498 E0.05982
G1 X92.048 Y99.933 E0.05982
G1 X92.760 Y99.570 E0.05982
G1 X93.550 Y99.445 E0.05982
G1 X94.340 Y99.570 E0.05982
G1 X94.889 Y99.850 E0.04614
G1 X95.052 Y99.933 E0.01369
G1 X95.617 Y100.498 E0.05982
G1 X95.980 Y101.210 E0.05982
G1 X96.105 Y102.000 E0.05982
G1 X95.980 Y102.790 E0.05982
G1 X95.617 Y103.502 E0.05982
G1 X95.052 Y104.067 E0.05982
G1 X94.340 Y104.430 E0.05982
G1 X93.994 Y104.485 E0.02615
G1 X93.476 Y104.543
G1 X93.476 Y104.037 F15000.000
G1 X92.917 Y103.949 F780.000 E0.04236
G1 X92.346 Y103.658 E0.04797
G1 X91.892 Y103.204 E0.04797
G1 X91.601 Y102.633 E0.04797
