; generated by Slic3r 0.9.8-dev on 2012-12-18 at 10:43:23

; layer_height = 0.3
; perimeters = 2
; top_solid_layers = 3
; bottom_solid_layers = 2
; fill_density = 0.2
; perimeter_speed = 32
; infill_speed = 50
; travel_speed = 250
; scale = 1
; nozzle_diameter = 0.5
; filament_diameter = 1.75
; extrusion_multiplier = 0.9
; perimeters extrusion width = 0.50mm
; infill extrusion width = 0.50mm
; first layer extrusion width = 0.50mm

M107
M190 S57 ; wait for bed temperature to be reached
M104 S200 ; set temperature
G28 X0 Y0
G1 X75 Y75 F12000
G28 Z0
G1 Z0.3 F200
G1 X15 Y20 F12000
M109 S200 ; wait for temperature to be reached
G90 ; use absolute coordinates
G21 ; set units to millimeters
M83 ; use relative distances for extrusion
G1 F2760.000 E-3.20000
G1 Z0.300 F15000.000
G1 X62.280 Y80.590
G1 X62.781 Y80.259 F2760.000 E3.20000
G1 X62.840 Y80.220 F960.000 E0.00400
G1 X63.140 Y80.060 E0.01908
G1 X64.740 Y79.250 E0.10065
G1 X65.290 Y79.030 E0.03325
G1 X65.860 Y78.860 E0.03338
G1 X66.450 Y78.740 E0.03379
G1 X67.300 Y78.610 E0.04826
G1 X68.000 Y78.550 E0.03943
G1 X105.340 Y76.950 E2.09769
G1 X112.950 Y76.960 E0.42712
G1 X147.140 Y78.550 E1.92104
G1 X147.660 Y78.590 E0.02927
G1 X148.920 Y78.750 E0.07129
G1 X149.610 Y78.880 E0.03941
G1 X149.940 Y78.970 E0.01920
G1 X150.600 Y79.200 E0.03923
G1 X152.470 Y79.980 E0.11372
G1 X153.080 Y80.270 E0.03791
G1 X153.370 Y80.440 E0.01887
G1 X153.930 Y80.830 E0.03830
G1 X155.530 Y82.060 E0.11327
G1 X156.050 Y82.500 E0.03823
G1 X156.280 Y82.730 E0.01826
G1 X156.720 Y83.250 E0.03823
G1 X157.950 Y84.850 E0.11327
G1 X158.340 Y85.410 E0.03830
G1 X158.510 Y85.700 E0.01887
G1 X158.800 Y86.310 E0.03791
G1 X159.580 Y88.180 E0.11372
G1 X159.810 Y88.820 E0.03817
G1 X159.900 Y89.140 E0.01866
G1 X160.020 Y89.810 E0.03820
G1 X160.190 Y91.070 E0.07136
G1 X160.250 Y91.940 E0.04895
G1 X160.250 Y117.630 E1.44189
G1 X160.220 Y118.200 E0.03204
G1 X158.700 Y135.380 E0.96802
G1 X158.660 Y135.640 E0.01476
G1 X158.540 Y136.170 E0.03050
G1 X158.390 Y136.680 E0.02984
G1 X158.080 Y137.420 E0.04503
G1 X157.820 Y137.890 E0.03015
G1 X157.530 Y138.340 E0.03005
G1 X157.200 Y138.760 E0.02998
G1 X156.830 Y139.150 E0.03017
G1 X156.230 Y139.680 E0.04493
G1 X155.790 Y139.990 E0.03021
G1 X155.330 Y140.260 E0.02994
G1 X154.850 Y140.500 E0.03012
G1 X154.350 Y140.690 E0.03002
G1 X153.840 Y140.840 E0.02984
G1 X153.320 Y140.950 E0.02983
G1 X152.780 Y141.020 E0.03056
G1 X152.250 Y141.040 E0.02977
G1 X65.740 Y141.040 E4.85550
G1 X65.210 Y141.020 E0.02977
G1 X64.950 Y140.990 E0.01469
G1 X64.430 Y140.910 E0.02953
G1 X63.910 Y140.780 E0.03008
G1 X63.170 Y140.510 E0.04421
G1 X62.460 Y140.150 E0.04468
G1 X62.020 Y139.870 E0.02927
G1 X61.590 Y139.550 E0.03008
G1 X61.020 Y139.010 E0.04407
G1 X60.670 Y138.610 E0.02983
G1 X60.210 Y137.960 E0.04469
G1 X59.950 Y137.500 E0.02966
G1 X59.730 Y137.020 E0.02964
G1 X59.470 Y136.270 E0.04455
G1 X59.350 Y135.750 E0.02995
G1 X59.280 Y135.230 E0.02945
G1 X57.780 Y121.190 E0.79250
G1 X57.740 Y120.500 E0.03879
G1 X57.740 Y89.070 E1.76406
G1 X57.830 Y88.010 E0.05971
G1 X58.030 Y86.840 E0.06662
G1 X58.200 Y86.200 E0.03717
G1 X58.310 Y85.880 E0.01899
G1 X58.580 Y85.280 E0.03693
G1 X59.390 Y83.700 E0.09965
G1 X59.700 Y83.200 E0.03302
G1 X60.060 Y82.740 E0.03278
G1 X60.450 Y82.300 E0.03300
G1 X61.500 Y81.250 E0.08334
G1 X61.750 Y81.020 E0.01907
G1 X62.221 Y80.636 E0.03410
G1 X62.280 Y80.590 E0.00421
G1 F2760.000 E-3.20000
G1 X138.693 Y123.908 F15000.000
G1 X139.293 Y123.908 F2760.000 E3.20000
G1 X146.802 Y123.908 F780.000 E0.42143
G1 X147.940 Y123.759 E0.06446
G1 X149.382 Y123.161 E0.08757
G1 X149.382 Y130.672 E0.42154
G1 X138.618 Y130.672 E0.60412
G1 X138.618 Y124.358 E0.35436
G1 X138.693 Y123.908
G1 X139.193 Y124.408 F15000.000
G1 X146.835 Y124.408 F780.000 E0.42888
G1 X148.071 Y124.246 E0.06999
G1 X148.882 Y123.910 E0.04926
G1 X148.882 Y130.172 E0.35148
G1 X139.118 Y130.172 E0.54799
G1 X139.118 Y124.483 E0.31928
G1 X139.193 Y124.408 E0.00595
G1 X138.618 Y124.358 F2760.000 E-3.20000
G1 X140.123 Y120.593 F15000.000
G1 X140.123 Y119.993 F2760.000 E3.20000
G1 X140.123 Y117.913 F960.000 E0.11673
G1 X145.123 Y117.913 E0.28063
G1 X145.123 Y91.668 E1.47305
G1 X140.123 Y91.668 E0.28063
G1 X140.123 Y88.913 E0.15462
G1 X147.877 Y88.913 E0.43525
G1 X147.877 Y120.668 E1.78228
G1 X140.573 Y120.668 E0.40999
G1 X140.123 Y120.593
G1 X140.623 Y120.093 F15000.000
G1 X140.623 Y118.413 F780.000 E0.09428
G1 X145.623 Y118.413 E0.28063
G1 X145.623 Y91.168 E1.52918
G1 X140.623 Y91.168 E0.28063
G1 X140.623 Y89.413 E0.09849
G1 X147.377 Y89.413 E0.37912
G1 X147.377 Y120.168 E1.72616
G1 X140.698 Y120.168 E0.37491
G1 X140.623 Y120.093 E0.00595
G1 X140.573 Y120.668 F2760.000 E-3.20000
G1 X133.406 Y101.145 F15000.000
G1 X132.806 Y101.145 F2760.000 E3.20000
G1 X129.209 Y101.145 F780.000 E0.20188
G1 X127.073 Y97.446 E0.23977
G1 X129.209 Y93.746 E0.23977
G1 X133.481 Y93.746 E0.23977
G1 X135.616 Y97.446 E0.23977
G1 X133.706 Y100.755 E0.21451
G1 X133.406 Y101.145
G1 X133.117 Y100.645 F15000.000
G1 X129.497 Y100.645 F780.000 E0.20315
G1 X127.650 Y97.446 E0.20736
G1 X129.497 Y94.246 E0.20736
G1 X133.192 Y94.246 E0.20736
G1 X135.039 Y97.446 E0.20736
G1 X133.229 Y100.580 E0.20315
G1 X133.117 Y100.645 E0.00729
G1 X133.706 Y100.755 F2760.000 E-3.20000
G1 X124.877 Y93.988 F15000.000
G1 X124.877 Y94.588 F2760.000 E3.20000
G1 X124.877 Y108.667 F960.000 E0.79023
G1 X93.123 Y108.667 E1.78227
G1 X93.123 Y93.913 E0.82812
G1 X104.795 Y93.913 E0.65511
G1 X105.707 Y95.493 E0.10242
G1 X112.293 Y95.493 E0.36962
G1 X113.205 Y93.913 E0.10243
G1 X124.427 Y93.913 E0.62985
G1 X124.877 Y93.988
G1 X124.377 Y94.488 F15000.000
G1 X124.377 Y108.167 F780.000 E0.76778
G1 X93.623 Y108.167 E1.72614
G1 X93.623 Y94.413 E0.77199
G1 X104.506 Y94.413 E0.61085
G1 X105.419 Y95.993 E0.10242
G1 X112.581 Y95.993 E0.40202
G1 X113.494 Y94.413 E0.10243
G1 X124.302 Y94.413 E0.60664
G1 X124.377 Y94.488 E0.00595
G1 X124.427 Y93.913 F2760.000 E-3.20000
G1 X114.631 Y89.855 F15000.000
G1 X114.331 Y90.375 F2760.000 E3.20000
G1 X111.834 Y94.699 F780.000 E0.28025
G1 X106.166 Y94.699 E0.31815
G1 X103.332 Y89.790 E0.31815
G1 X106.166 Y84.881 E0.31815
G1 X111.834 Y84.881 E0.31815
G1 X114.444 Y89.401 E0.29291
G1 X114.631 Y89.855
G1 X114.054 Y89.855 F15000.000
G1 X111.546 Y94.199 F780.000 E0.28153
G1 X106.454 Y94.199 E0.28574
G1 X103.909 Y89.790 E0.28574
G1 X106.454 Y85.381 E0.28574
G1 X111.546 Y85.381 E0.28575
G1 X114.054 Y89.725 E0.28155
G1 X114.054 Y89.855 E0.00729
G1 X114.444 Y89.401 F2760.000 E-3.20000
G1 X77.877 Y88.988 F15000.000
G1 X77.877 Y89.588 F2760.000 E3.20000
G1 X77.877 Y91.668 F960.000 E0.11673
G1 X72.877 Y91.668 E0.28063
G1 X72.877 Y117.913 E1.47305
G1 X77.877 Y117.913 E0.28063
G1 X77.877 Y120.668 E0.15462
G1 X70.123 Y120.668 E0.43525
G1 X70.123 Y88.913 E1.78228
G1 X77.427 Y88.913 E0.40999
G1 X77.877 Y88.988
G1 X77.377 Y89.488 F15000.000
G1 X77.377 Y91.168 F780.000 E0.09428
G1 X72.377 Y91.168 E0.28063
G1 X72.377 Y118.413 E1.52918
G1 X77.377 Y118.413 E0.28063
G1 X77.377 Y120.168 E0.09849
G1 X70.623 Y120.168 E0.37912
G1 X70.623 Y89.413 E1.72616
G1 X77.302 Y89.413 E0.37491
G1 X77.377 Y89.488 E0.00595
G1 X77.427 Y88.913 F2760.000 E-3.20000
G1 X79.382 Y123.983 F15000.000
G1 X79.382 Y124.583 F2760.000 E3.20000
G1 X79.382 Y130.672 F780.000 E0.34174
G1 X68.618 Y130.672 E0.60413
G1 X68.618 Y123.908 E0.37963
G1 X78.932 Y123.908 E0.57888
G1 X79.382 Y123.983
G1 X78.882 Y124.483 F15000.000
G1 X78.882 Y130.172 F780.000 E0.31929
G1 X69.118 Y130.172 E0.54801
G1 X69.118 Y124.408 E0.32350
G1 X78.807 Y124.408 E0.54380
G1 X78.882 Y124.483 E0.00595
G1 X78.932 Y123.908 F2760.000 E-3.20000
G1 X81.750 Y124.115 F15000.000
G1 X81.750 Y124.715 F2760.000 E3.20000
G1 X81.750 Y134.040 F960.000 E0.52338
G1 X66.250 Y134.040 E0.86996
G1 X66.250 Y123.164 E0.61047
G1 X65.469 Y122.383 E0.06197
G1 X64.867 Y121.201 E0.07447
G1 X64.750 Y120.463 E0.04194
G1 X64.750 Y89.118 E1.75927
G1 X64.867 Y88.380 E0.04194
G1 X65.469 Y87.198 E0.07447
G1 X66.407 Y86.259 E0.07447
G1 X67.590 Y85.657 E0.07447
G1 X68.328 Y85.540 E0.04194
G1 X104.721 Y85.540 E2.04265
G1 X105.634 Y83.960 E0.10243
G1 X112.366 Y83.960 E0.37786
G1 X113.279 Y85.540 E0.10243
G1 X146.810 Y85.540 E1.88202
G1 X147.975 Y85.693 E0.06591
G1 X149.722 Y86.417 E0.10613
G1 X151.222 Y87.568 E0.10613
G1 X152.373 Y89.068 E0.10613
G1 X153.097 Y90.815 E0.10613
G1 X153.250 Y91.980 E0.06592
G1 X153.250 Y117.601 E1.43801
G1 X153.097 Y118.765 E0.06592
G1 X152.373 Y120.512 E0.10613
G1 X151.750 Y121.324 E0.05745
G1 X151.750 Y134.040 E0.71372
G1 X136.250 Y134.040 E0.86996
G1 X136.250 Y124.040 E0.56126
G1 X121.750 Y124.040 E0.81383
G1 X121.750 Y115.540 E0.47708
G1 X117.750 Y115.540 E0.22451
G1 X117.750 Y119.040 E0.19644
G1 X116.833 Y119.040 E0.05149
G1 X116.536 Y121.576 E0.14331
G1 X115.921 Y123.266 E0.10093
G1 X114.975 Y124.705 E0.09663
G1 X113.559 Y123.288 E0.11241
G1 X114.440 Y121.558 E0.10900
G1 X114.720 Y119.790 E0.10045
G1 X114.440 Y118.022 E0.10045
G1 X113.628 Y116.428 E0.10045
G1 X112.362 Y115.162 E0.10045
G1 X110.768 Y114.350 E0.10045
G1 X109.000 Y114.070 E0.10045
G1 X107.232 Y114.350 E0.10045
G1 X107.099 Y114.418 E0.00841
G1 X105.638 Y115.162 E0.09204
G1 X104.372 Y116.428 E0.10045
G1 X103.560 Y118.022 E0.10045
G1 X103.280 Y119.790 E0.10045
G1 X103.560 Y121.558 E0.10045
G1 X104.441 Y123.288 E0.10900
G1 X103.056 Y124.674 E0.10996
G1 X102.529 Y124.046 E0.04598
G1 X101.722 Y122.439 E0.10093
G1 X101.307 Y120.689 E0.10093
G1 X101.307 Y119.040 E0.09256
G1 X100.250 Y119.040 E0.05935
G1 X100.250 Y115.540 E0.19644
G1 X96.250 Y115.540 E0.22451
G1 X96.250 Y124.040 E0.47708
G1 X82.200 Y124.040 E0.78858
G1 X81.750 Y124.115
G1 X82.250 Y124.615 F15000.000
G1 X82.250 Y134.540 F780.000 E0.55706
G1 X65.750 Y134.540 E0.92609
G1 X65.750 Y123.371 E0.62691
G1 X65.060 Y122.680 E0.05479
G1 X64.385 Y121.357 E0.08336
G1 X64.250 Y120.502 E0.04860
G1 X64.250 Y89.079 E1.76368
G1 X64.385 Y88.223 E0.04860
G1 X65.060 Y86.900 E0.08336
G1 X66.110 Y85.850 E0.08336
G1 X67.433 Y85.176 E0.08336
G1 X68.288 Y85.040 E0.04860
G1 X104.433 Y85.040 E2.02866
G1 X105.345 Y83.460 E0.10243
G1 X112.655 Y83.460 E0.41027
G1 X113.567 Y85.040 E0.10243
G1 X146.843 Y85.040 E1.86766
G1 X148.105 Y85.206 E0.07145
G1 X149.974 Y85.980 E0.11352
G1 X151.579 Y87.212 E0.11352
G1 X152.810 Y88.816 E0.11352
G1 X153.584 Y90.685 E0.11352
G1 X153.750 Y91.947 E0.07145
G1 X153.750 Y117.633 E1.44168
G1 X153.584 Y118.896 E0.07145
G1 X152.810 Y120.764 E0.11352
G1 X152.250 Y121.494 E0.05162
G1 X152.250 Y134.540 E0.73225
G1 X135.750 Y134.540 E0.92609
G1 X135.750 Y124.540 E0.56126
G1 X121.250 Y124.540 E0.81383
G1 X121.250 Y116.040 E0.47708
G1 X118.250 Y116.040 E0.16838
G1 X118.250 Y119.540 E0.19644
G1 X117.278 Y119.540 E0.05458
G1 X117.026 Y121.692 E0.12162
G1 X116.371 Y123.492 E0.10749
G1 X115.319 Y125.092 E0.10749
G1 X114.977 Y125.414 E0.02633
G1 X112.818 Y123.255 E0.17137
G1 X113.218 Y122.855 E0.03175
G1 X113.959 Y121.401 E0.09156
G1 X114.214 Y119.790 E0.09156
G1 X113.959 Y118.179 E0.09156
G1 X113.218 Y116.725 E0.09156
G1 X112.065 Y115.572 E0.09156
G1 X110.611 Y114.831 E0.09156
G1 X109.000 Y114.576 E0.09156
G1 X107.389 Y114.831 E0.09156
G1 X107.326 Y114.863 E0.00396
G1 X105.935 Y115.572 E0.08760
G1 X104.782 Y116.725 E0.09156
G1 X104.041 Y118.179 E0.09156
G1 X103.786 Y119.790 E0.09156
G1 X104.041 Y121.401 E0.09156
G1 X104.782 Y122.855 E0.09156
G1 X105.182 Y123.255 E0.03175
G1 X103.024 Y125.413 E0.17130
G1 X102.109 Y124.323 E0.07989
G1 X101.249 Y122.611 E0.10749
G1 X100.807 Y120.748 E0.10749
G1 X100.807 Y119.540 E0.06778
G1 X99.750 Y119.540 E0.05935
G1 X99.750 Y116.040 E0.19644
G1 X96.750 Y116.040 E0.16838
G1 X96.750 Y124.540 E0.47708
G1 X82.325 Y124.540 E0.80962
G1 X82.250 Y124.615 E0.00595
G1 X82.200 Y124.040 F2760.000 E-3.20000
G1 X79.723 Y123.828 F15000.000
G1 X80.147 Y124.252 F2760.000 E3.20000
G1 X81.409 Y125.514 F1200.000 E0.10045
G1 X81.409 Y126.223 E0.03989
G1 X79.723 Y124.537 E0.13421
G1 X79.723 Y125.246 E0.03989
G1 X81.409 Y126.932 E0.13421
G1 X81.409 Y127.641 E0.03989
G1 X79.723 Y125.955 E0.13421
G1 X79.723 Y126.663 E0.03989
G1 X81.409 Y128.350 E0.13421
G1 X81.409 Y129.059 E0.03989
G1 X79.723 Y127.372 E0.13421
G1 X79.723 Y128.081 E0.03989
G1 X81.409 Y129.768 E0.13421
G1 X81.409 Y130.477 E0.03989
G1 X79.723 Y128.790 E0.13421
G1 X79.723 Y129.499 E0.03989
G1 X81.409 Y131.186 E0.13421
G1 X81.409 Y131.894 E0.03989
G1 X79.723 Y130.208 E0.13421
G1 X79.723 Y130.917 E0.03989
G1 X81.409 Y132.603 E0.13421
G1 X81.409 Y133.312 E0.03989
G1 X79.110 Y131.013 E0.18298
G1 X78.401 Y131.013 E0.03989
G1 X81.087 Y133.699 E0.21379
G1 X80.379 Y133.699 E0.03989
G1 X77.692 Y131.013 E0.21379
G1 X76.983 Y131.013 E0.03989
G1 X79.670 Y133.699 E0.21379
G1 X78.961 Y133.699 E0.03989
G1 X76.274 Y131.013 E0.21379
G1 X75.565 Y131.013 E0.03989
G1 X78.252 Y133.699 E0.21379
G1 X77.543 Y133.699 E0.03989
G1 X74.856 Y131.013 E0.21379
G1 X74.147 Y131.013 E0.03989
G1 X76.834 Y133.699 E0.21379
G1 X76.125 Y133.699 E0.03989
G1 X73.439 Y131.013 E0.21379
G1 X72.730 Y131.013 E0.03989
G1 X75.416 Y133.699 E0.21379
G1 X74.707 Y133.699 E0.03989
G1 X72.021 Y131.013 E0.21379
G1 X71.312 Y131.013 E0.03989
G1 X73.998 Y133.699 E0.21379
G1 X73.289 Y133.699 E0.03989
G1 X70.603 Y131.013 E0.21379
G1 X69.894 Y131.013 E0.03989
G1 X72.580 Y133.699 E0.21379
G1 X71.872 Y133.699 E0.03989
G1 X69.185 Y131.013 E0.21379
G1 F2760.000 E-3.20000
G1 X66.909 Y133.699 F15000.000
G1 X66.591 Y133.381 F2760.000 E3.20000
G1 X66.591 Y133.381 F2400.000
G1 X66.591 Y132.672 E0.03989
G1 X67.618 Y133.699 E0.08175
G1 X68.327 Y133.699 E0.03989
G1 X66.591 Y131.963 E0.13816
G1 X66.591 Y131.254 E0.03989
G1 X69.036 Y133.699 E0.19457
G1 X69.745 Y133.699 E0.03989
G1 X66.591 Y130.545 E0.25099
G1 X66.591 Y129.836 E0.03989
G1 X70.454 Y133.699 E0.30741
G1 X71.163 Y133.699 E0.03989
G1 X68.476 Y131.013 E0.21379
G1 X68.277 Y130.814 F15000.000
G1 X66.591 Y129.128 F1200.000 E0.13421
G1 X66.591 Y128.419 E0.03989
G1 X68.277 Y130.105 E0.13421
G1 X68.277 Y129.396 E0.03989
G1 X66.591 Y127.710 E0.13421
G1 X66.591 Y127.001 E0.03989
G1 X68.277 Y128.687 E0.13421
G1 X68.277 Y127.978 E0.03989
G1 X66.591 Y126.292 E0.13421
G1 X66.591 Y125.583 E0.03989
G1 X68.277 Y127.270 E0.13421
G1 X68.277 Y126.561 E0.03989
G1 X66.591 Y124.874 E0.13421
G1 X66.591 Y124.165 E0.03989
G1 X68.277 Y125.852 E0.13421
G1 X68.277 Y125.143 E0.03989
G1 X66.591 Y123.456 E0.13421
G1 X68.277 Y123.725 F15000.000
G1 X65.142 Y120.590 F1200.000 E0.24947
G1 X65.091 Y119.830 E0.04290
G1 X68.829 Y123.568 E0.29746
G1 X69.538 Y123.568 E0.03989
G1 X65.091 Y119.121 E0.35387
G1 X65.091 Y118.412 E0.03989
G1 X70.247 Y123.567 E0.41028
G1 X70.955 Y123.568 E0.03989
G1 X65.091 Y117.703 E0.46670
G1 X65.091 Y116.994 E0.03989
G1 X71.664 Y123.568 E0.52311
G1 X72.373 Y123.568 E0.03989
G1 X69.814 Y121.008 E0.20365
G1 X69.782 Y120.976 F15000.000
G1 X65.091 Y116.285 F1200.000 E0.37330
G1 X65.091 Y115.576 E0.03989
G1 X69.782 Y120.267 E0.37330
G1 X69.782 Y119.558 E0.03989
G1 X65.091 Y114.867 E0.37330
G1 X65.091 Y114.158 E0.03989
G1 X69.782 Y118.849 E0.37330
G1 X69.782 Y118.140 E0.03989
G1 X65.091 Y113.449 E0.37330
G1 X65.091 Y112.740 E0.03989
G1 X69.782 Y117.431 E0.37330
G1 X69.782 Y116.723 E0.03989
G1 X65.091 Y112.031 E0.37330
G1 X65.091 Y111.323 E0.03988
G1 X69.782 Y116.014 E0.37330
G1 X69.782 Y115.305 E0.03989
G1 X65.091 Y110.614 E0.37330
G1 X65.091 Y109.905 E0.03989
G1 X69.782 Y114.596 E0.37330
G1 X69.782 Y113.887 E0.03989
G1 X65.091 Y109.196 E0.37330
G1 X65.091 Y108.487 E0.03988
G1 X69.782 Y113.178 E0.37330
G1 X69.782 Y112.469 E0.03989
G1 X65.091 Y107.778 E0.37330
G1 X65.091 Y107.069 E0.03989
G1 X69.782 Y111.760 E0.37330
G1 X69.782 Y111.051 E0.03989
G1 X65.091 Y106.360 E0.37330
G1 X65.091 Y105.651 E0.03988
G1 X69.782 Y110.342 E0.37330
G1 X69.782 Y109.633 E0.03989
G1 X65.091 Y104.942 E0.37330
G1 X65.091 Y104.233 E0.03989
G1 X69.782 Y108.924 E0.37330
G1 X69.782 Y108.216 E0.03989
G1 X65.091 Y103.525 E0.37330
G1 X65.091 Y102.816 E0.03988
G1 X69.782 Y107.507 E0.37330
G1 X69.782 Y106.798 E0.03989
G1 X65.091 Y102.107 E0.37330
G1 X65.091 Y101.398 E0.03989
G1 X69.782 Y106.089 E0.37330
G1 X69.782 Y105.380 E0.03989
G1 X65.091 Y100.689 E0.37330
G1 X65.091 Y99.980 E0.03988
G1 X69.782 Y104.671 E0.37330
